; generated by Slic3r 1.2.6 on 2015-05-14 at 16:03:48

; external perimeters extrusion width = 0.40mm
; perimeters extrusion width = 0.67mm
; infill extrusion width = 0.67mm
; solid infill extrusion width = 0.67mm
; top infill extrusion width = 0.67mm
; support material extrusion width = 0.40mm

M107
M190 S55 ; set bed temperature
(**** start.gcode for The Replicator, dual head ****)
M72 P0
M70 P2 (Hello Patrick)
M103 (disable RPM)
M73 P0 (enable build progress)
G21 (set units to mm)
G90 (set positioning to absolute)
M109 S50 T0 (set HBP temperature)
M104 S210 T0 (set extruder temperature) (temp updated by printOMatic)
(**** begin homing ****)
M72 P0
M70 P2 (...homing...)
G162 X Y F2500 (home XY axes maximum)
G161 Z F1100 (home Z axis minimum)
G92 Z-5 (set Z to -5)
G1 Z0.0 (move Z to "0")
G161 Z F100 (home Z axis minimum)
M132 X Y Z A B (Recall stored home offsets for XYZAB axis)
(**** end homing ****)
M72 P0
M70 P2 (...heating...)
G1 X-110.5 Y-74 Z150 F3300.0 (move to waiting position)
G130 X20 Y20 Z20 A20 B20 (Lower stepper Vrefs while heating)
M6 T0 (wait for toolhead, and HBP to reach temperature)
G130 X127 Y127 Z40 A127 B127 (Set Stepper motor Vref to defaults)
M108 R3.0 T0
M72 P0
M70 P2 (...away we go...)
G0 X-110.5 Y-74 (Position Nozzle)
G0 Z0.6      (Position Height)
M108 R5.0    (Set Extruder Speed)
M101         (Start Extruder)
G4 P2000     (Create Anchor)
M72 P1
(**** end of start.gcode ****)

G21 ; set units to millimeters
G90 ; use absolute coordinates
M82 ; use absolute distances for extrusion
G92 E0
G1 Z0.400 F3900.000
G1 E-1.00000 F2400.00000
G92 E0
G1 X-6.311 Y40.647 F3900.000
G1 E1.00000 F2400.00000
G1 X-49.293 Y33.974 E6.16596 F1800.000
G1 X-50.112 Y33.828 E6.26479
G1 X-50.942 Y33.632 E6.36601
G1 X-52.058 Y33.265 E6.50561
G1 X-52.840 Y32.935 E6.60631
G1 X-53.790 Y32.435 E6.73388
G1 X-54.068 Y32.274 E6.77201
G1 X-54.694 Y31.861 E6.86108
G1 X-55.489 Y31.227 E6.98184
G1 X-55.980 Y30.777 E7.06096
G1 X-76.603 Y10.410 E10.50330
G1 X-77.466 Y9.364 E10.66442
G1 X-77.737 Y8.959 E10.72235
G1 X-78.740 Y6.538 E11.03348
G1 X-78.835 Y6.060 E11.09141
G1 X-78.964 Y4.750 E11.24773
G1 X-78.964 Y-27.750 E15.10760
G1 X-78.907 Y-28.626 E15.21189
G1 X-78.864 Y-28.950 E15.25065
G1 X-78.229 Y-31.043 E15.51048
G1 X-78.013 Y-31.481 E15.56840
G1 X-76.419 Y-33.559 E15.87949
G1 X-76.052 Y-33.880 E15.93742
G1 X-74.195 Y-35.036 E16.19720
G1 X-73.893 Y-35.160 E16.23596
G1 X-72.200 Y-35.614 E16.44414
G1 X-71.876 Y-35.657 E16.48290
G1 X14.647 Y-45.289 E26.82235
G1 X15.390 Y-45.330 E26.91070
G1 X73.705 Y-45.330 E33.83652
G1 X75.980 Y-44.933 E34.11074
G1 X78.013 Y-43.766 E34.38913 F1800.000
G1 X78.576 Y-43.295 E34.47628
G1 X79.925 Y-41.762 E34.71890
G1 X80.657 Y-40.617 E34.88030
G1 X81.548 Y-38.486 E35.15452
G1 X81.714 Y-37.000 E35.33215
G1 X81.714 Y37.000 E44.12077
G1 X81.317 Y39.275 E44.39499
G1 X80.173 Y41.280 E44.66922
G1 X78.417 Y42.780 E44.94344
G1 X76.009 Y43.638 E45.24712
G1 X68.172 Y44.829 E46.18856
G1 X67.163 Y44.905 E46.30869
G1 X21.629 Y44.905 E51.71652
G1 X20.599 Y44.825 E51.83922
G1 X-6.252 Y40.657 E55.06635
G1 E54.06635 F2400.00000
G92 E0
G1 X15.828 Y35.172 F3900.000
G1 E1.00000 F2400.00000
G1 X15.828 Y-35.172 E9.35434 F1800.000
G1 X73.172 Y-35.172 E16.16474
G1 X73.172 Y35.172 E24.51908
G1 X15.888 Y35.172 E31.32235
G1 X15.114 Y35.886 F3900.000
G1 X15.114 Y-35.886 E39.84632 F1800.000
G1 X73.886 Y-35.886 E46.82635
G1 X73.886 Y35.886 E55.35033
G1 X15.174 Y35.886 E62.32323
G1 X14.400 Y36.600 F3900.000
G1 X14.400 Y-36.600 E71.01684 F1800.000
G1 X74.600 Y-36.600 E78.16651
G1 X74.600 Y36.600 E86.86012
G1 X14.460 Y36.600 E94.00266
G1 X14.600 Y36.254 F3900.000
G1 X16.251 Y34.406 F3900.000
G1 X16.594 Y34.749 E94.06029 F1800.000
G1 X17.604 Y34.749 E94.18038
G1 X16.251 Y33.396 E94.40785
G1 X16.251 Y32.385 E94.52794
G1 X18.615 Y34.749 E94.92524
G1 X19.626 Y34.749 E95.04533
G1 X16.251 Y31.374 E95.61247
G1 X16.251 Y30.364 E95.73256
G1 X20.636 Y34.749 E96.46953
G1 X21.647 Y34.749 E96.58962
G1 X16.251 Y29.353 E97.49642
G1 X16.251 Y28.343 E97.61651
G1 X22.657 Y34.749 E98.69315
G1 X23.668 Y34.749 E98.81324
G1 X16.251 Y27.332 E100.05971
G1 X16.251 Y26.322 E100.17980
G1 X24.678 Y34.749 E101.59611
G1 X25.689 Y34.749 E101.71620
G1 X16.251 Y25.311 E103.30233
G1 X16.251 Y24.300 E103.42243
G1 X26.700 Y34.749 E105.17840
G1 X27.710 Y34.749 E105.29849
G1 X16.251 Y23.290 E107.22429
G1 X16.251 Y22.279 E107.34438
G1 X28.721 Y34.749 E109.44002
G1 X29.731 Y34.749 E109.56011
G1 X16.251 Y21.269 E111.82558
G1 X16.251 Y20.258 E111.94567
G1 X30.742 Y34.749 E114.38098
G1 X31.752 Y34.749 E114.50107
G1 X16.251 Y19.248 E117.10621
G1 X16.251 Y18.237 E117.22630
G1 X32.763 Y34.749 E120.00127
G1 X33.774 Y34.749 E120.12136
G1 X16.251 Y17.226 E123.06617
G1 X16.251 Y16.216 E123.18626
G1 X34.784 Y34.749 E126.30090
G1 X35.795 Y34.749 E126.42099
G1 X16.251 Y15.205 E129.70546
G1 X16.251 Y14.195 E129.82555
G1 X36.805 Y34.749 E133.27986
G1 X37.816 Y34.749 E133.39995
G1 X16.251 Y13.184 E137.02409
G1 X16.251 Y12.174 E137.14418
G1 X38.826 Y34.749 E140.93816
G1 X39.837 Y34.749 E141.05825
G1 X16.251 Y11.163 E145.02206
G1 X16.251 Y10.152 E145.14215
G1 X40.847 Y34.749 E149.27579
G1 X41.858 Y34.749 E149.39588
G1 X16.251 Y9.142 E153.69936
G1 X16.251 Y8.131 E153.81945
G1 X42.869 Y34.749 E158.29275
G1 X43.879 Y34.749 E158.41285
G1 X16.251 Y7.121 E163.05599
G1 X16.251 Y6.110 E163.17608
G1 X44.890 Y34.749 E167.98905
G1 X45.900 Y34.749 E168.10914
G1 X16.251 Y5.100 E173.09195
G1 X16.251 Y4.089 E173.21205
G1 X46.911 Y34.749 E178.36469
G1 X47.921 Y34.749 E178.48478
G1 X16.251 Y3.079 E183.80726
G1 X16.251 Y2.068 E183.92735
G1 X48.932 Y34.749 E189.41966
G1 X49.943 Y34.749 E189.53975
G1 X16.251 Y1.057 E195.20189
G1 X16.251 Y0.047 E195.32198
G1 X50.953 Y34.749 E201.15396
G1 X51.964 Y34.749 E201.27405
G1 X16.251 Y-0.964 E207.27586
G1 X16.251 Y-1.974 E207.39595
G1 X52.974 Y34.749 E213.56760
G1 X53.985 Y34.749 E213.68769
G1 X16.251 Y-2.985 E220.02917
G1 X16.251 Y-3.995 E220.14926
G1 X54.995 Y34.749 E226.66057
G1 X56.006 Y34.749 E226.78066
G1 X16.251 Y-5.006 E233.46181
G1 X16.251 Y-6.017 E233.58190
G1 X57.017 Y34.749 E240.43288
G1 X58.027 Y34.749 E240.55297
G1 X16.251 Y-7.027 E247.57378
G1 X16.251 Y-8.038 E247.69387
G1 X59.038 Y34.749 E254.88452
G1 X60.048 Y34.749 E255.00461
G1 X16.251 Y-9.048 E262.36509
G1 X16.251 Y-10.059 E262.48518
G1 X61.059 Y34.749 E270.01549
G1 X62.069 Y34.749 E270.13558
G1 X16.251 Y-11.069 E277.83573
G1 X16.251 Y-12.080 E277.95582
G1 X63.080 Y34.749 E285.82580
G1 X64.091 Y34.749 E285.94589
G1 X16.251 Y-13.091 E293.98571
G1 X16.251 Y-14.101 E294.10580
G1 X65.101 Y34.749 E302.31545
G1 X66.112 Y34.749 E302.43554
G1 X16.251 Y-15.112 E310.81502
G1 X16.251 Y-16.122 E310.93511
G1 X67.122 Y34.749 E319.48443
G1 X68.133 Y34.749 E319.60452
G1 X16.251 Y-17.133 E328.32367
G1 X16.251 Y-18.143 E328.44376
G1 X69.143 Y34.749 E337.33274
G1 X70.154 Y34.749 E337.45283
G1 X16.251 Y-19.154 E346.51165
G1 X16.251 Y-20.164 E346.63174
G1 X71.164 Y34.749 E355.86039
G1 X72.175 Y34.749 E355.98048
G1 X16.251 Y-21.175 E365.37896
G1 X16.251 Y-22.186 E365.49905
G1 X72.749 Y34.312 E374.99400
G1 X72.749 Y33.302 E375.11409
G1 X16.251 Y-23.196 E384.60904
G1 X16.251 Y-24.207 E384.72913
G1 X72.749 Y32.291 E394.22407
G1 X72.749 Y31.281 E394.34416
G1 X16.251 Y-25.217 E403.83911
G1 X16.251 Y-26.228 E403.95920
G1 X72.749 Y30.270 E413.45415
G1 X72.749 Y29.260 E413.57424
G1 X16.251 Y-27.238 E423.06919
G1 X16.251 Y-28.249 E423.18928
G1 X72.749 Y28.249 E432.68422
G1 X72.749 Y27.238 E432.80431
G1 X16.251 Y-29.260 E442.29926
G1 X16.251 Y-30.270 E442.41935
G1 X72.749 Y26.228 E451.91430
G1 X72.749 Y25.217 E452.03439
G1 X16.251 Y-31.281 E461.52933
G1 X16.251 Y-32.291 E461.64942
G1 X72.749 Y24.207 E471.14437
G1 X72.749 Y23.196 E471.26446
G1 X16.251 Y-33.302 E480.75941
G1 X16.251 Y-34.312 E480.87950
G1 X72.749 Y22.186 E490.37445
G1 X72.749 Y21.175 E490.49454
G1 X16.825 Y-34.749 E499.89303
G1 X17.835 Y-34.749 E500.01312
G1 X72.749 Y20.165 E509.24178
G1 X72.749 Y19.154 E509.36187
G1 X18.846 Y-34.749 E518.42069
G1 X19.857 Y-34.749 E518.54078
G1 X72.749 Y18.143 E527.42977
G1 X72.749 Y17.133 E527.54986
G1 X20.867 Y-34.749 E536.26902
G1 X21.878 Y-34.749 E536.38911
G1 X72.749 Y16.122 E544.93843
G1 X72.749 Y15.112 E545.05852
G1 X22.888 Y-34.749 E553.43801
G1 X23.899 Y-34.749 E553.55810
G1 X72.749 Y14.101 E561.76776
G1 X72.749 Y13.091 E561.88785
G1 X24.909 Y-34.749 E569.92767
G1 X25.920 Y-34.749 E570.04776
G1 X72.749 Y12.080 E577.91775
G1 X72.749 Y11.069 E578.03784
G1 X26.931 Y-34.749 E585.73800
G1 X27.941 Y-34.749 E585.85809
G1 X72.749 Y10.059 E593.38841
G1 X72.749 Y9.048 E593.50850
G1 X28.952 Y-34.749 E600.86899
G1 X29.962 Y-34.749 E600.98908
G1 X72.749 Y8.038 E608.17973
G1 X72.749 Y7.027 E608.29982
G1 X30.973 Y-34.749 E615.32064
G1 X31.983 Y-34.749 E615.44073
G1 X72.749 Y6.017 E622.29172
G1 X72.749 Y5.006 E622.41181
G1 X32.994 Y-34.749 E629.09296
G1 X34.005 Y-34.749 E629.21306
G1 X72.749 Y3.995 E635.72437
G1 X72.749 Y2.985 E635.84447
G1 X35.015 Y-34.749 E642.18595
G1 X36.026 Y-34.749 E642.30604
G1 X72.749 Y1.974 E648.47769
G1 X72.749 Y0.964 E648.59779
G1 X37.036 Y-34.749 E654.59960
G1 X38.047 Y-34.749 E654.71969
G1 X72.749 Y-0.047 E660.55168
G1 X72.749 Y-1.057 E660.67177
G1 X39.057 Y-34.749 E666.33392
G1 X40.068 Y-34.749 E666.45401
G1 X72.749 Y-2.068 E671.94633
G1 X72.749 Y-3.078 E672.06642
G1 X41.078 Y-34.749 E677.38891
G1 X42.089 Y-34.749 E677.50900
G1 X72.749 Y-4.089 E682.66165
G1 X72.749 Y-5.100 E682.78174
G1 X43.100 Y-34.749 E687.76456
G1 X44.110 Y-34.749 E687.88465
G1 X72.749 Y-6.110 E692.69763
G1 X72.749 Y-7.121 E692.81772
G1 X45.121 Y-34.749 E697.46087
G1 X46.131 Y-34.749 E697.58096
G1 X72.749 Y-8.131 E702.05428
G1 X72.749 Y-9.142 E702.17437
G1 X47.142 Y-34.749 E706.47785
G1 X48.152 Y-34.749 E706.59794
G1 X72.749 Y-10.152 E710.73159
G1 X72.749 Y-11.163 E710.85168
G1 X49.163 Y-34.749 E714.81550
G1 X50.174 Y-34.749 E714.93559
G1 X72.749 Y-12.174 E718.72957
G1 X72.749 Y-13.184 E718.84966
G1 X51.184 Y-34.749 E722.47381
G1 X52.195 Y-34.749 E722.59390
G1 X72.749 Y-14.195 E726.04822
G1 X72.749 Y-15.205 E726.16831
G1 X53.205 Y-34.749 E729.45279
G1 X54.216 Y-34.749 E729.57288
G1 X72.749 Y-16.216 E732.68753
G1 X72.749 Y-17.226 E732.80762
G1 X55.226 Y-34.749 E735.75243
G1 X56.237 Y-34.749 E735.87252
G1 X72.749 Y-18.237 E738.64750
G1 X72.749 Y-19.248 E738.76759
G1 X57.248 Y-34.749 E741.37274
G1 X58.258 Y-34.749 E741.49283
G1 X72.749 Y-20.258 E743.92814
G1 X72.749 Y-21.269 E744.04823
G1 X59.269 Y-34.749 E746.31371
G1 X60.279 Y-34.749 E746.43380
G1 X72.749 Y-22.279 E748.52945
G1 X72.749 Y-23.290 E748.64954
G1 X61.290 Y-34.749 E750.57535
G1 X62.300 Y-34.749 E750.69544
G1 X72.749 Y-24.300 E752.45142
G1 X72.749 Y-25.311 E752.57151
G1 X63.311 Y-34.749 E754.15766
G1 X64.322 Y-34.749 E754.27775
G1 X72.749 Y-26.322 E755.69406
G1 X72.749 Y-27.332 E755.81415
G1 X65.332 Y-34.749 E757.06063
G1 X66.343 Y-34.749 E757.18072
G1 X72.749 Y-28.343 E758.25736
G1 X72.749 Y-29.353 E758.37745
G1 X67.353 Y-34.749 E759.28426
G1 X68.364 Y-34.749 E759.40435
G1 X72.749 Y-30.364 E760.14133
G1 X72.749 Y-31.374 E760.26142
G1 X69.374 Y-34.749 E760.82856
G1 X70.385 Y-34.749 E760.94865
G1 X72.749 Y-32.385 E761.34596
G1 X72.749 Y-33.395 E761.46606
G1 X71.395 Y-34.749 E761.69353
G1 X72.406 Y-34.749 E761.81362
G1 X72.749 Y-34.406 E761.87126
G1 E760.87126 F2400.00000
G92 E0
G1 X14.000 Y-37.000 F3900.000
G1 X-22.250 Y-23.000 F3900.000
G1 X-24.078 Y26.422 F3900.000
G1 E1.00000 F2400.00000
G1 X-24.922 Y26.422 E1.10018 F1800.000
G1 X-24.933 Y-22.428 E6.90182
G1 X-24.078 Y-22.424 E7.00328
G1 X-24.078 Y26.362 E12.79734
G1 X-23.364 Y27.136 F3900.000
G1 X-25.608 Y27.136 E13.06387 F1800.000
G1 X-25.636 Y26.927 E13.08891
G1 X-25.647 Y-23.145 E19.03575
G1 X-23.392 Y-23.135 E19.30360
G1 X-23.364 Y-22.927 E19.32856
G1 X-23.364 Y27.076 E25.26715
G1 X-22.969 Y27.651 F3900.000
G1 X-23.163 Y27.779 E25.29477 F1800.000
G1 X-23.402 Y27.843 E25.32416
G1 X-25.615 Y27.839 E25.58697
G1 X-25.823 Y27.783 E25.61258
G1 X-26.015 Y27.672 E25.63894
G1 X-26.172 Y27.515 E25.66518
G1 X-26.316 Y27.232 E25.70292
G1 X-26.350 Y26.974 E25.73389
G1 X-26.361 Y-23.152 E31.68712
G1 X-26.324 Y-23.379 E31.71438
G1 X-26.224 Y-23.571 E31.74010
G1 X-26.071 Y-23.724 E31.76583
G1 X-25.979 Y-23.782 E31.77874
G1 X-25.777 Y-23.849 E31.80403
G1 X-23.514 Y-23.850 E32.07279
G1 X-23.402 Y-23.843 E32.08608 F1800.000
G1 X-23.176 Y-23.782 E32.11390
G1 X-22.909 Y-23.608 E32.15175
G1 X-22.769 Y-23.428 E32.17893
G1 X-22.715 Y-23.322 E32.19302
G1 X-22.684 Y-23.232 E32.20428
G1 X-22.650 Y-22.974 E32.23524
G1 X-22.650 Y26.987 E38.16883
G1 X-22.657 Y27.098 E38.18202
G1 X-22.718 Y27.324 E38.20984
G1 X-22.835 Y27.527 E38.23766
G1 X-22.922 Y27.614 E38.25225
G1 X-23.182 Y27.558 F3900.000
G1 E37.25225 F2400.00000
G92 E0
G1 X-26.750 Y27.000 F3900.000
G1 X-67.754 Y5.364 F3900.000
G1 X-69.418 Y4.164 F3900.000
G1 E1.00000 F2400.00000
G1 X-70.422 Y4.169 E1.11919 F1800.000
G1 X-70.422 Y-27.171 E4.84129
G1 X-69.575 Y-27.171 E4.94179
G1 X-69.418 Y4.104 E8.65613
G1 X-68.701 Y4.669 F3900.000
G1 X-68.725 Y4.850 E8.67790 F1800.000
G1 X-68.913 Y4.875 E8.70035
G1 X-70.893 Y4.885 E8.93555
G1 X-71.095 Y4.845 E8.96001
G1 X-71.136 Y4.640 E8.98482
G1 X-71.136 Y-27.677 E12.82298
G1 X-71.112 Y-27.862 E12.84509
G1 X-70.927 Y-27.886 E12.86715
G1 X-68.891 Y-27.884 E13.10895
G1 X-68.864 Y-27.674 E13.13412
G1 X-68.702 Y4.609 E16.96825
G1 X-67.987 Y4.665 F3900.000
G1 X-68.019 Y4.958 E17.00325 F1800.000
G1 X-68.104 Y5.162 E17.02949
G1 X-68.238 Y5.338 E17.05574
G1 X-68.424 Y5.480 E17.08356
G1 X-68.512 Y5.523 E17.09519
G1 X-68.605 Y5.555 E17.10681
G1 X-68.864 Y5.589 E17.13790
G1 X-70.962 Y5.600 E17.38701
G1 X-71.322 Y5.528 E17.43068
G1 X-71.595 Y5.345 E17.46971
G1 X-71.778 Y5.072 E17.50873
G1 X-71.850 Y4.711 E17.55253
G1 X-71.850 Y-27.724 E21.40461
G1 X-71.819 Y-27.956 E21.43240
G1 X-71.668 Y-28.263 E21.47304
G1 X-71.411 Y-28.488 E21.51367
G1 X-71.219 Y-28.568 E21.53833
G1 X-70.974 Y-28.600 E21.56769
G1 X-69.006 Y-28.599 E21.80147
G1 X-68.688 Y-28.539 E21.83990 F1800.000
G1 X-68.473 Y-28.415 E21.86930
G1 X-68.400 Y-28.350 E21.88093
G1 X-68.335 Y-28.277 E21.89255
G1 X-68.211 Y-28.062 E21.92195
G1 X-68.184 Y-27.982 E21.93201
G1 X-68.150 Y-27.723 E21.96309
G1 X-67.988 Y4.605 E25.80257
G1 X-68.252 Y4.794 F3900.000
G1 Z0.400 F3900.000
G1 E24.80257 F2400.00000
G92 E0
G1 X-50.984 Y19.897 F3900.000
G1 E1.00000 F2400.00000
G1 X-52.433 Y22.788 E1.16895 F1800.000
G1 X-52.429 Y23.495 F3900.000
G1 X-50.423 Y19.491 E1.40294 F1800.000
G1 X-49.918 Y19.198 E1.43342
G1 X-52.365 Y24.081 E1.71879
G1 X-52.217 Y24.502 E1.74208
G1 X-49.483 Y19.047 E2.06089
G1 X-49.049 Y18.896 E2.08490
G1 X-52.070 Y24.923 E2.43711
G1 X-51.870 Y25.240 E2.45667
G1 X-48.650 Y18.816 E2.83210
G1 X-48.257 Y18.745 E2.85301
G1 X-51.665 Y25.546 E3.25048
G1 X-51.447 Y25.825 E3.26899
G1 X-47.872 Y18.693 E3.68575
G1 X-47.504 Y18.674 E3.70501
G1 X-51.201 Y26.050 E4.13605
G1 X-50.955 Y26.275 E4.15345
G1 X-47.136 Y18.655 E4.59876
G1 X-46.778 Y18.654 E4.61749
G1 X-50.694 Y26.469 E5.07415
G1 X-50.416 Y26.630 E5.09092
G1 X-46.428 Y18.673 E5.55592
G1 X-46.079 Y18.692 E5.57418
G1 X-50.134 Y26.782 E6.04698
G1 X-49.847 Y26.925 E6.06372
G1 X-45.740 Y18.729 E6.54270
G1 X-45.411 Y18.789 E6.56014
G1 X-49.542 Y27.031 E7.04183
G1 X-49.237 Y27.138 E7.05871
G1 X-45.083 Y18.849 E7.54312
G1 X-44.765 Y18.929 E7.56026
G1 X-48.920 Y27.221 E8.04483
G1 X-48.592 Y27.280 E8.06228
G1 X-44.460 Y19.037 E8.54402
G1 X-44.156 Y19.145 E8.56089
G1 X-48.263 Y27.339 E9.03979
G1 X-47.924 Y27.379 E9.05761
G1 X-43.867 Y19.284 E9.53062
G1 X-43.586 Y19.439 E9.54738
G1 X-47.575 Y27.397 E10.01245
G1 X-47.226 Y27.415 E10.03072
G1 X-43.310 Y19.603 E10.48727
G1 X-43.047 Y19.793 E10.50423
G1 X-46.868 Y27.416 E10.94974
G1 X-46.500 Y27.397 E10.96900
G1 X-42.803 Y20.021 E11.40003
G1 X-42.559 Y20.250 E11.41749
G1 X-46.131 Y27.377 E11.83402
G1 X-45.748 Y27.328 E11.85420
G1 X-42.338 Y20.524 E12.25184
G1 X-42.135 Y20.833 E12.27116
G1 X-45.354 Y27.256 E12.64656
G1 X-44.958 Y27.181 E12.66765
G1 X-41.933 Y21.145 E13.02035
G1 X-41.786 Y21.567 E13.04369
G1 X-44.522 Y27.027 E13.36274
G1 X-44.087 Y26.873 E13.38687
G1 X-41.639 Y21.989 E13.67229
