; generated by Slic3r 1.2.6 on 2015-05-15 at 10:07:46

; external perimeters extrusion width = 0.40mm
; perimeters extrusion width = 0.67mm
; infill extrusion width = 0.67mm
; solid infill extrusion width = 0.67mm
; top infill extrusion width = 0.67mm

M107
M190 S55 ; set bed temperature
(**** start.gcode for The Replicator, dual head ****)
M72 P0
M70 P2 (Hello Patrick)
M103 (disable RPM)
M73 P0 (enable build progress)
G21 (set units to mm)
G90 (set positioning to absolute)
M109 S50 T0 (set HBP temperature)
M104 S210 T0 (set extruder temperature) (temp updated by printOMatic)
(**** begin homing ****)
M72 P0
M70 P2 (...homing...)
G162 X Y F2500 (home XY axes maximum)
G161 Z F1100 (home Z axis minimum)
G92 Z-5 (set Z to -5)
G1 Z0.0 (move Z to "0")
G161 Z F100 (home Z axis minimum)
M132 X Y Z A B (Recall stored home offsets for XYZAB axis)
(**** end homing ****)
M72 P0
M70 P2 (...heating...)
G1 X-110.5 Y-74 Z150 F3300.0 (move to waiting position)
G130 X20 Y20 Z20 A20 B20 (Lower stepper Vrefs while heating)
M6 T0 (wait for toolhead, and HBP to reach temperature)
G130 X127 Y127 Z40 A127 B127 (Set Stepper motor Vref to defaults)
M108 R3.0 T0
M72 P0
M70 P2 (...away we go...)
G0 X-110.5 Y-74 (Position Nozzle)
G0 Z0.6      (Position Height)
M72 P1
(**** end of start.gcode ****)

G21 ; set units to millimeters
G90 ; use absolute coordinates
M82 ; use absolute distances for extrusion
G92 E0
G1 Z0.400 F3900.000
G1 E-1.00000 F2400.00000
G92 E0
G1 X0.000 Y42.164 F3900.000
G1 E1.00000 F2400.00000
G1 X-29.200 Y42.164 E4.46794 F1800.000
G1 X-31.475 Y41.767 E4.74217
G1 X-32.676 Y41.194 E4.90021
G1 X-40.726 Y36.324 E6.01766
G1 X-41.197 Y36.011 E6.08482
G1 X-42.296 Y35.212 E6.24621
G1 X-43.339 Y34.273 E6.41283
G1 X-44.248 Y33.263 E6.57422
G1 X-45.073 Y32.128 E6.74096
G1 X-45.753 Y30.951 E6.90236
G1 X-46.323 Y29.669 E7.06899
G1 X-46.743 Y28.377 E7.23039
G1 X-47.035 Y27.003 E7.39716
G1 X-47.177 Y25.652 E7.55855
G1 X-47.214 Y24.950 E7.64198
G1 X-47.214 Y-25.050 E13.58024
G1 X-47.177 Y-25.752 E13.66368
G1 X-47.035 Y-27.103 E13.82507
G1 X-46.743 Y-28.477 E13.99185
G1 X-46.323 Y-29.769 E14.15324
G1 X-45.753 Y-31.051 E14.31988
G1 X-45.073 Y-32.228 E14.48126
G1 X-44.248 Y-33.363 E14.64799
G1 X-43.339 Y-34.373 E14.80938
G1 X-42.296 Y-35.312 E14.97604
G1 X-41.197 Y-36.111 E15.13742
G1 X-40.726 Y-36.424 E15.20456
G1 X-32.676 Y-41.294 E16.32201
G1 X-30.524 Y-42.132 E16.59624
G1 X-29.200 Y-42.264 E16.75428
G1 X29.200 Y-42.264 E23.69017
G1 X31.475 Y-41.867 E23.96439
G1 X32.676 Y-41.294 E24.12244 F1800.000
G1 X40.726 Y-36.424 E25.23989
G1 X41.197 Y-36.111 E25.30702
G1 X42.296 Y-35.312 E25.46841
G1 X43.339 Y-34.373 E25.63507
G1 X44.248 Y-33.363 E25.79651
G1 X45.073 Y-32.228 E25.96319
G1 X45.753 Y-31.050 E26.12464
G1 X46.323 Y-29.769 E26.29122
G1 X46.743 Y-28.477 E26.45261
G1 X47.035 Y-27.103 E26.61938
G1 X47.177 Y-25.751 E26.78079
G1 X47.214 Y-25.050 E26.86421
G1 X47.214 Y24.950 E32.80247
G1 X47.177 Y25.652 E32.88591
G1 X47.035 Y27.003 E33.04730
G1 X46.743 Y28.377 E33.21406
G1 X46.323 Y29.669 E33.37546
G1 X45.753 Y30.951 E33.54210
G1 X45.073 Y32.128 E33.70349
G1 X44.248 Y33.263 E33.87024
G1 X43.339 Y34.273 E34.03162
G1 X42.296 Y35.212 E34.19821
G1 X41.197 Y36.011 E34.35963
G1 X40.726 Y36.324 E34.42679
G1 X32.676 Y41.194 E35.54424
G1 X30.524 Y42.032 E35.81846
G1 X29.200 Y42.164 E35.97651
G1 X0.060 Y42.164 E39.43733
G1 E38.43733 F2400.00000
G92 E0
G1 X11.441 Y-29.664 F3900.000
G1 E1.00000 F2400.00000
G1 X11.581 Y-30.323 E1.08003 F1800.000
G1 X11.932 Y-31.110 E1.18233
G1 X12.438 Y-31.807 E1.28463
G1 X13.078 Y-32.383 E1.38694
G1 X13.824 Y-32.814 E1.48924
G1 X14.643 Y-33.080 E1.59153
G1 X15.451 Y-33.165 E1.68800
G1 X16.350 Y-33.082 E1.79516
G1 X17.176 Y-32.814 E1.89832
G1 X17.922 Y-32.383 E2.00064
G1 X18.562 Y-31.807 E2.10294
G1 X19.068 Y-31.110 E2.20524
G1 X19.419 Y-30.323 E2.30754
G1 X19.559 Y-29.664 E2.38757
G1 X23.314 Y-29.664 E2.83358
G1 X23.314 Y29.564 E9.86784
G1 X-23.314 Y29.564 E15.40566
G1 X-23.314 Y-29.664 E22.43992
G1 X11.381 Y-29.664 E26.56053
G1 X12.116 Y-28.950 F3900.000
G1 X12.116 Y-29.406 E26.61464 F1800.000
G1 X12.264 Y-30.101 E26.69912
G1 X12.554 Y-30.751 E26.78359
G1 X12.972 Y-31.327 E26.86806
G1 X13.500 Y-31.803 E26.95254
G1 X14.116 Y-32.158 E27.03701
G1 X14.793 Y-32.378 E27.12147
G1 X15.456 Y-32.448 E27.20067
G1 X16.205 Y-32.379 E27.29001
G1 X16.884 Y-32.158 E27.37479
G1 X17.500 Y-31.803 E27.45926
G1 X18.028 Y-31.327 E27.54373
G1 X18.446 Y-30.751 E27.62821
G1 X18.736 Y-30.101 E27.71268
G1 X18.884 Y-29.406 E27.79715
G1 X18.884 Y-28.950 E27.85127
G1 X22.600 Y-28.950 E28.29265
G1 X22.600 Y28.850 E35.15727
G1 X-22.600 Y28.850 E40.52546
G1 X-22.600 Y-28.950 E47.39009
G1 X12.056 Y-28.950 E51.50606
G1 X11.916 Y-29.296 F3900.000
G1 E50.50606 F2400.00000
G92 E0
G1 X19.309 Y-30.288 F3900.000
G1 X24.028 Y-30.378 F3900.000
G1 E1.00000 F2400.00000
G1 X20.137 Y-30.378 E1.46214 F1800.000
G1 X20.102 Y-30.545 E1.48240
G1 X19.690 Y-31.469 E1.60254
G1 X19.096 Y-32.287 E1.72266
G1 X18.344 Y-32.964 E1.84280
G1 X17.582 Y-33.404 E1.94725
G1 X17.667 Y-33.722 E1.98630
G1 X27.372 Y-33.722 E3.13885
G1 X27.372 Y33.622 E11.13689
G1 X-27.372 Y33.622 E17.63850
G1 X-27.372 Y-33.722 E25.63654
G1 X13.333 Y-33.722 E30.47081
G1 X13.418 Y-33.404 E30.50986
G1 X12.656 Y-32.964 E30.61430
G1 X11.904 Y-32.287 E30.73445
G1 X11.310 Y-31.469 E30.85458
G1 X10.898 Y-30.545 E30.97471
G1 X10.863 Y-30.378 E30.99496
G1 X-24.028 Y-30.378 E35.13883
G1 X-24.028 Y30.278 E42.34273
G1 X24.028 Y30.278 E48.05018
G1 X24.028 Y-30.318 E55.24695
G1 X30.768 Y-26.489 F3900.000
G1 X31.137 Y-27.130 E55.33481 F1800.000
G1 X31.632 Y-27.680 E55.42266
G1 X32.231 Y-28.114 E55.51051
G1 X32.907 Y-28.415 E55.59837
G1 X33.630 Y-28.569 E55.68622
G1 X34.370 Y-28.569 E55.77408 F1800.000
G1 X35.093 Y-28.415 E55.86193
G1 X35.769 Y-28.114 E55.94978
G1 X36.368 Y-27.680 E56.03764
G1 X36.863 Y-27.130 E56.12549
G1 X37.232 Y-26.489 E56.21335
G1 X37.461 Y-25.786 E56.30118
G1 X37.538 Y-25.050 E56.38905
G1 X37.461 Y-24.314 E56.47691
G1 X37.232 Y-23.611 E56.56475
G1 X36.863 Y-22.970 E56.65261
G1 X36.368 Y-22.421 E56.74045
G1 X35.769 Y-21.986 E56.82831
G1 X35.093 Y-21.685 E56.91617
G1 X34.370 Y-21.531 E57.00402
G1 X33.630 Y-21.531 E57.09188
G1 X32.907 Y-21.685 E57.17972
G1 X32.231 Y-21.986 E57.26758
G1 X31.632 Y-22.421 E57.35544
G1 X31.137 Y-22.970 E57.44329
G1 X30.768 Y-23.611 E57.53114
G1 X30.539 Y-24.314 E57.61898
G1 X30.462 Y-25.050 E57.70684
G1 X30.539 Y-25.786 E57.79471
G1 X30.749 Y-26.432 E57.87542
G1 X31.424 Y-26.197 F3900.000
G1 X31.718 Y-26.708 E57.94545 F1800.000
G1 X32.113 Y-27.146 E58.01547
G1 X32.590 Y-27.492 E58.08549
G1 X33.129 Y-27.732 E58.15552
G1 X33.705 Y-27.855 E58.22554
G1 X34.295 Y-27.855 E58.29557 F1800.000
G1 X34.871 Y-27.732 E58.36559
G1 X35.410 Y-27.492 E58.43561
G1 X35.887 Y-27.146 E58.50564
G1 X36.282 Y-26.708 E58.57566
G1 X36.576 Y-26.197 E58.64569
G1 X36.759 Y-25.636 E58.71570
G1 X36.820 Y-25.050 E58.78573
G1 X36.759 Y-24.464 E58.85576
G1 X36.576 Y-23.903 E58.92578
G1 X36.282 Y-23.392 E58.99580
G1 X35.887 Y-22.954 E59.06583
G1 X35.410 Y-22.608 E59.13585
G1 X34.871 Y-22.368 E59.20588
G1 X34.295 Y-22.245 E59.27590
G1 X33.705 Y-22.245 E59.34593
G1 X33.129 Y-22.368 E59.41594
G1 X32.590 Y-22.608 E59.48597
G1 X32.113 Y-22.954 E59.55600
G1 X31.718 Y-23.392 E59.62602
G1 X31.424 Y-23.903 E59.69604
G1 X31.241 Y-24.464 E59.76606
G1 X31.180 Y-25.050 E59.83609
G1 X31.241 Y-25.636 E59.90612
G1 X31.405 Y-26.140 E59.96901
G1 X32.080 Y-25.905 F3900.000
G1 X32.299 Y-26.286 E60.02120 F1800.000
G1 X32.593 Y-26.612 E60.07340
G1 X32.949 Y-26.871 E60.12559
G1 X33.350 Y-27.049 E60.17779
G1 X33.780 Y-27.141 E60.22998
G1 X34.220 Y-27.141 E60.28218 F1800.000
G1 X34.650 Y-27.049 E60.33437
G1 X35.051 Y-26.871 E60.38657
G1 X35.407 Y-26.612 E60.43876
G1 X35.701 Y-26.286 E60.49095
G1 X35.920 Y-25.905 E60.54315
G1 X36.056 Y-25.487 E60.59534
G1 X36.102 Y-25.050 E60.64754
G1 X36.056 Y-24.613 E60.69974
G1 X35.920 Y-24.195 E60.75193
G1 X35.701 Y-23.814 E60.80412
G1 X35.407 Y-23.488 E60.85632
G1 X35.051 Y-23.229 E60.90851
G1 X34.650 Y-23.051 E60.96071
G1 X34.220 Y-22.959 E61.01290
G1 X33.780 Y-22.959 E61.06510
G1 X33.350 Y-23.051 E61.11729
G1 X32.949 Y-23.229 E61.16948
G1 X32.593 Y-23.488 E61.22168
G1 X32.299 Y-23.814 E61.27387
G1 X32.080 Y-24.195 E61.32607
G1 X31.944 Y-24.613 E61.37826
G1 X31.898 Y-25.050 E61.43046
G1 X31.944 Y-25.487 E61.48265
G1 X32.061 Y-25.848 E61.52772
G1 X31.856 Y-26.237 F3900.000
G1 X27.761 Y-25.050 F3900.000
G1 X30.881 Y-28.514 E62.08138 F1800.000
G1 X31.669 Y-29.087 E62.19713
G1 X32.559 Y-29.483 E62.31286
G1 X33.513 Y-29.686 E62.42861
G1 X34.487 Y-29.686 E62.54435
G1 X35.441 Y-29.483 E62.66009
G1 X36.331 Y-29.087 E62.77583
G1 X37.119 Y-28.514 E62.89157
G1 X37.749 Y-27.815 E63.00334
G1 X38.260 Y-26.941 E63.12359
G1 X38.560 Y-26.019 E63.23870
G1 X38.662 Y-25.050 E63.35444
G1 X38.560 Y-24.081 E63.47018
G1 X38.259 Y-23.154 E63.58592
G1 X37.771 Y-22.310 E63.70167
G1 X37.119 Y-21.586 E63.81741
G1 X36.331 Y-21.013 E63.93315
G1 X35.441 Y-20.617 E64.04889
G1 X34.487 Y-20.414 E64.16464
G1 X33.513 Y-20.414 E64.28037
G1 X32.559 Y-20.617 E64.39612
G1 X31.669 Y-21.013 E64.51185
G1 X30.881 Y-21.586 E64.62760
G1 X27.801 Y-25.005 E65.17413
G1 X28.200 Y23.225 F3900.000
G1 X33.630 Y21.431 F3900.000
G1 X34.370 Y21.431 E65.26199 F1800.000
G1 X35.093 Y21.585 E65.34985
G1 X35.769 Y21.886 E65.43771
G1 X36.368 Y22.321 E65.52555
G1 X36.862 Y22.870 E65.61339
G1 X37.232 Y23.511 E65.70124
G1 X37.461 Y24.214 E65.78909
G1 X37.538 Y24.950 E65.87696
G1 X37.461 Y25.686 E65.96483
G1 X37.232 Y26.389 E66.05268
G1 X36.862 Y27.030 E66.14053
G1 X36.368 Y27.579 E66.22836
G1 X35.769 Y28.014 E66.31621
G1 X35.094 Y28.315 E66.40406
G1 X34.370 Y28.469 E66.49192
G1 X33.630 Y28.469 E66.57979
G1 X32.906 Y28.315 E66.66765
G1 X32.231 Y28.014 E66.75551
G1 X31.632 Y27.579 E66.84335
G1 X31.137 Y27.030 E66.93118
G1 X30.768 Y26.389 E67.01903
G1 X30.539 Y25.686 E67.10689
G1 X30.462 Y24.950 E67.19475
G1 X30.539 Y24.214 E67.28262
G1 X30.768 Y23.511 E67.37047
G1 X31.138 Y22.870 E67.45833
G1 X31.632 Y22.321 E67.54616
G1 X32.231 Y21.886 E67.63400
G1 X32.906 Y21.585 E67.72186
G1 X33.571 Y21.443 E67.80259
G1 X33.705 Y22.145 F3900.000
G1 X34.295 Y22.145 E67.87262 F1800.000
G1 X34.872 Y22.268 E67.94265
G1 X35.410 Y22.508 E68.01268
G1 X35.887 Y22.854 E68.08270
G1 X36.282 Y23.292 E68.15271
G1 X36.576 Y23.803 E68.22273
G1 X36.759 Y24.364 E68.29275
G1 X36.820 Y24.950 E68.36279
G1 X36.759 Y25.536 E68.43282
G1 X36.576 Y26.097 E68.50284
G1 X36.282 Y26.608 E68.57287
G1 X35.887 Y27.046 E68.64288
G1 X35.410 Y27.392 E68.71289
G1 X34.872 Y27.632 E68.78292
G1 X34.295 Y27.755 E68.85295
G1 X33.705 Y27.755 E68.92298
G1 X33.128 Y27.632 E68.99301
G1 X32.590 Y27.392 E69.06304
G1 X32.113 Y27.046 E69.13305
G1 X31.718 Y26.608 E69.20306
G1 X31.424 Y26.097 E69.27308
G1 X31.241 Y25.536 E69.34311
G1 X31.180 Y24.950 E69.41314
G1 X31.241 Y24.364 E69.48318
G1 X31.424 Y23.803 E69.55320
G1 X31.718 Y23.292 E69.62322
G1 X32.113 Y22.854 E69.69323
G1 X32.590 Y22.508 E69.76325
G1 X33.128 Y22.268 E69.83328
G1 X33.646 Y22.158 E69.89618
G1 X33.780 Y22.859 F3900.000
G1 X34.220 Y22.859 E69.94838 F1800.000
G1 X34.650 Y22.951 E70.00057
G1 X35.051 Y23.129 E70.05277
G1 X35.407 Y23.388 E70.10496
G1 X35.701 Y23.714 E70.15715
G1 X35.920 Y24.095 E70.20934
G1 X36.056 Y24.513 E70.26153
G1 X36.102 Y24.950 E70.31373
G1 X36.056 Y25.387 E70.36594
G1 X35.920 Y25.805 E70.41813
G1 X35.701 Y26.186 E70.47032
G1 X35.407 Y26.512 E70.52251
G1 X35.051 Y26.771 E70.57470
G1 X34.650 Y26.949 E70.62690
G1 X34.220 Y27.041 E70.67909
G1 X33.780 Y27.041 E70.73129
G1 X33.350 Y26.949 E70.78348
G1 X32.949 Y26.771 E70.83568
G1 X32.593 Y26.512 E70.88787
G1 X32.299 Y26.186 E70.94006
G1 X32.080 Y25.805 E70.99225
G1 X31.944 Y25.387 E71.04445
G1 X31.898 Y24.950 E71.09665
G1 X31.944 Y24.513 E71.14885
G1 X32.080 Y24.095 E71.20105
G1 X32.299 Y23.714 E71.25323
G1 X32.593 Y23.388 E71.30542
G1 X32.949 Y23.129 E71.35761
G1 X33.350 Y22.951 E71.40981
G1 X33.722 Y22.872 E71.45488
G1 X33.956 Y22.500 F3900.000
G1 X27.761 Y24.950 F3900.000
G1 X30.881 Y21.486 E72.00854 F1800.000
G1 X31.669 Y20.913 E72.12428
G1 X32.559 Y20.517 E72.24002
G1 X33.513 Y20.314 E72.35576
G1 X34.487 Y20.314 E72.47150
G1 X35.441 Y20.517 E72.58724
G1 X36.331 Y20.913 E72.70298
G1 X37.119 Y21.486 E72.81872
G1 X37.771 Y22.210 E72.93447
G1 X38.259 Y23.054 E73.05021
G1 X38.560 Y23.981 E73.16596
G1 X38.662 Y24.950 E73.28169
G1 X38.560 Y25.919 E73.39743
G1 X38.259 Y26.846 E73.51318
G1 X37.771 Y27.690 E73.62892
G1 X37.119 Y28.414 E73.74466
G1 X36.331 Y28.987 E73.86041
G1 X35.441 Y29.383 E73.97614
G1 X34.487 Y29.586 E74.09189
G1 X33.513 Y29.586 E74.20762
G1 X32.559 Y29.383 E74.32337
G1 X31.669 Y28.987 E74.43910
G1 X30.881 Y28.414 E74.55485
G1 X27.801 Y24.995 E75.10138
G1 X23.200 Y31.950 F3900.000
G1 X-25.700 Y29.450 F3900.000
G1 X-28.200 Y26.675 F3900.000
G1 X-30.457 Y24.907 F3900.000
G1 X-30.539 Y25.686 E75.19433 F1800.000
G1 X-30.768 Y26.389 E75.28218
G1 X-31.137 Y27.030 E75.37003
G1 X-31.632 Y27.579 E75.45787
G1 X-32.231 Y28.014 E75.54571
G1 X-32.906 Y28.315 E75.63357
G1 X-33.630 Y28.469 E75.72143
G1 X-34.370 Y28.469 E75.80929
G1 X-35.094 Y28.315 E75.89715
G1 X-35.769 Y28.014 E75.98501
G1 X-36.368 Y27.579 E76.07285
G1 X-36.863 Y27.030 E76.16069
G1 X-37.232 Y26.389 E76.24854
G1 X-37.456 Y25.701 E76.33452
G1 X-37.543 Y24.993 E76.41926
G1 X-37.461 Y24.214 E76.51221
G1 X-37.232 Y23.511 E76.60006
G1 X-36.863 Y22.870 E76.68791
G1 X-36.368 Y22.321 E76.77575
G1 X-35.769 Y21.886 E76.86359
G1 X-35.094 Y21.585 E76.95145
G1 X-34.370 Y21.431 E77.03931
G1 X-33.630 Y21.431 E77.12717 F1800.000
G1 X-32.906 Y21.585 E77.21503
G1 X-32.231 Y21.886 E77.30289
G1 X-31.632 Y22.321 E77.39073
G1 X-31.137 Y22.870 E77.47856
G1 X-30.768 Y23.511 E77.56642
G1 X-30.544 Y24.199 E77.65240
G1 X-30.464 Y24.848 E77.73001
G1 X-31.176 Y24.914 F3900.000
G1 X-31.241 Y25.536 E77.80440 F1800.000
G1 X-31.424 Y26.097 E77.87442
G1 X-31.718 Y26.608 E77.94444
G1 X-32.113 Y27.046 E78.01445
G1 X-32.590 Y27.392 E78.08447
G1 X-33.128 Y27.632 E78.15450
G1 X-33.705 Y27.755 E78.22452
G1 X-34.295 Y27.755 E78.29455
G1 X-34.872 Y27.632 E78.36458
G1 X-35.410 Y27.392 E78.43461
G1 X-35.887 Y27.046 E78.50463
G1 X-36.282 Y26.608 E78.57464
G1 X-36.576 Y26.097 E78.64466
G1 X-36.756 Y25.546 E78.71354
G1 X-36.824 Y24.986 E78.78045
G1 X-36.759 Y24.364 E78.85483
G1 X-36.576 Y23.803 E78.92485
G1 X-36.282 Y23.292 E78.99487
G1 X-35.887 Y22.854 E79.06489
G1 X-35.410 Y22.508 E79.13490
G1 X-34.872 Y22.268 E79.20493
G1 X-34.295 Y22.145 E79.27496
G1 X-33.705 Y22.145 E79.34499 F1800.000
G1 X-33.128 Y22.268 E79.41501
G1 X-32.590 Y22.508 E79.48504
G1 X-32.113 Y22.854 E79.55506
G1 X-31.718 Y23.292 E79.62507
G1 X-31.424 Y23.803 E79.69509
G1 X-31.244 Y24.354 E79.76397
G1 X-31.183 Y24.854 E79.82376
G1 X-31.895 Y24.920 F3900.000
G1 X-31.944 Y25.387 E79.87958 F1800.000
G1 X-32.080 Y25.805 E79.93177
G1 X-32.299 Y26.186 E79.98396
G1 X-32.593 Y26.512 E80.03615
G1 X-32.949 Y26.771 E80.08834
G1 X-33.350 Y26.949 E80.14054
G1 X-33.780 Y27.041 E80.19273
G1 X-34.220 Y27.041 E80.24493
G1 X-34.650 Y26.949 E80.29712
G1 X-35.051 Y26.771 E80.34932
G1 X-35.407 Y26.512 E80.40151
G1 X-35.701 Y26.186 E80.45370
G1 X-35.920 Y25.805 E80.50589
G1 X-36.055 Y25.390 E80.55768
G1 X-36.105 Y24.980 E80.60675
G1 X-36.056 Y24.513 E80.66257
G1 X-35.920 Y24.095 E80.71476
G1 X-35.701 Y23.714 E80.76695
G1 X-35.407 Y23.388 E80.81914
G1 X-35.051 Y23.129 E80.87133
G1 X-34.650 Y22.951 E80.92353
G1 X-34.220 Y22.859 E80.97572
G1 X-33.780 Y22.859 E81.02792 F1800.000
G1 X-33.350 Y22.951 E81.08012
G1 X-32.949 Y23.129 E81.13232
G1 X-32.593 Y23.388 E81.18451
G1 X-32.299 Y23.714 E81.23670
G1 X-32.080 Y24.095 E81.28889
G1 X-31.945 Y24.510 E81.34067
G1 X-31.902 Y24.860 E81.38262
G1 X-31.554 Y25.130 F3900.000
G1 X-27.761 Y24.950 F3900.000
G1 X-30.881 Y28.414 E81.93628 F1800.000
G1 X-31.669 Y28.987 E82.05202
G1 X-32.559 Y29.383 E82.16776
G1 X-33.513 Y29.586 E82.28350
G1 X-34.487 Y29.586 E82.39924
G1 X-35.441 Y29.383 E82.51498
G1 X-36.331 Y28.987 E82.63072
G1 X-37.119 Y28.414 E82.74646
G1 X-37.771 Y27.690 E82.86221
G1 X-38.259 Y26.846 E82.97795
G1 X-38.560 Y25.919 E83.09370
G1 X-38.662 Y24.950 E83.20943
