; generated by Slic3r 1.2.6 on 2015-05-14 at 14:30:00

; external perimeters extrusion width = 0.40mm
; perimeters extrusion width = 0.48mm
; infill extrusion width = 0.48mm
; solid infill extrusion width = 0.48mm
; top infill extrusion width = 0.48mm
; support material extrusion width = 0.40mm

M127
M109 S65 ; set bed temperature
M104 S205 T0 ; set temperature
G28 ; home all axes
G1 Z5 F5000 ; lift nozzle

M73 P0
G1 Z0.400 F7800.000
G1 E-1.00000 F2400.00000
M103 ; extruder off
G1 X26.107 Y64.840 F7800.000
M101 ; extruder on
G1 E0.00000 F2400.00000
G1 X27.800 Y64.386 E0.20818 F1800.000
G1 X28.256 Y64.327 E0.26277
G1 X114.454 Y54.717 E10.56347
G1 X115.198 Y54.676 E10.65196
G1 X173.762 Y54.676 E17.60740
G1 X175.399 Y54.878 E17.80323
M101 ; extruder on
G1 X175.836 Y54.988 E17.85684 F1800.000
G1 X177.946 Y55.928 E18.13106
G1 X180.124 Y58.340 E18.51714
G1 X180.924 Y59.840 E18.71904
G1 X181.714 Y63.000 E19.10584
G1 X181.714 Y137.000 E27.89446
G1 X181.317 Y139.275 E28.16869
G1 X180.173 Y141.280 E28.44291
G1 X178.417 Y142.780 E28.71714
G1 X175.646 Y143.683 E29.06334
G1 X158.981 Y145.293 E31.05178
G1 X158.335 Y145.324 E31.12855
G1 X130.554 Y145.324 E34.42793
G1 X129.904 Y145.293 E34.50520
G1 X113.350 Y143.683 E36.48056
G1 X50.367 Y133.894 E44.05053
G1 X49.440 Y133.720 E44.16259
G1 X48.504 Y133.467 E44.27771
G1 X47.865 Y133.244 E44.35810
G1 X46.842 Y132.789 E44.49114
G1 X45.968 Y132.299 E44.61010
G1 X45.375 Y131.912 E44.69416
G1 X44.674 Y131.374 E44.79911
G1 X43.843 Y130.611 E44.93316
G1 X23.397 Y110.410 E48.34667
G1 X22.534 Y109.364 E48.50777
G1 X22.263 Y108.959 E48.56569
G1 X21.260 Y106.538 E48.87683
G1 X21.165 Y106.060 E48.93476
G1 X21.036 Y104.750 E49.09108
G1 X21.036 Y72.250 E52.95094
G1 X21.093 Y71.374 E53.05524
G1 X21.136 Y71.050 E53.09400
G1 X21.771 Y68.957 E53.35382
G1 X21.987 Y68.519 E53.41175
G1 X23.581 Y66.441 E53.72284
G1 X23.948 Y66.120 E53.78076
G1 X25.805 Y64.964 E54.04054
G1 X26.052 Y64.863 E54.07219
G1 E53.07219 F2400.00000
M103 ; extruder off
G1 X48.320 Y73.482 F7800.000
M101 ; extruder on
G1 E54.07219 F2400.00000
G1 X47.842 Y74.436 E54.12794 F1800.000
G1 X47.843 Y75.932 E54.20611
G1 X49.214 Y73.197 E54.36595
G1 X50.107 Y72.912 E54.41495
G1 X48.432 Y76.254 E54.61026
G1 X49.080 Y76.460 E54.64576
G1 X51.001 Y72.628 E54.86973
G1 X51.894 Y72.343 E54.91873
G1 X49.728 Y76.666 E55.17137
G1 X50.375 Y76.871 E55.20687
G1 X52.788 Y72.058 E55.48817
G1 X53.309 Y72.517 E55.52444
G1 X51.023 Y77.077 E55.79093
G1 X51.682 Y77.260 E55.82667
G1 X53.309 Y74.015 E56.01629
G1 X53.309 Y75.513 E56.09456
G1 X52.433 Y77.260 E56.19664
G1 X53.309 Y77.011 E56.24419
G1 X53.184 Y77.260 E56.25873
G1 E55.25873 F2400.00000
M103 ; extruder off
G1 X54.910 Y78.311 F7800.000
M101 ; extruder on
G1 E56.25873 F2400.00000
G1 X55.593 Y76.947 E56.33847 F1800.000
G1 X55.593 Y75.448 E56.41674
G1 X54.262 Y78.105 E56.57201
G1 X53.778 Y77.572 E56.60963
G1 X55.593 Y73.950 E56.82127
G1 X55.593 Y72.452 E56.89954
G1 X53.778 Y76.074 E57.11118
G1 X53.778 Y74.576 E57.18945
G1 X55.469 Y71.204 E57.38653
G1 X54.575 Y71.488 E57.43553
G1 X53.778 Y73.078 E57.52842
G1 E56.52842 F2400.00000
M103 ; extruder off
G1 X54.289 Y79.550 F7800.000
M101 ; extruder on
G1 E57.52842 F2400.00000
G1 X53.778 Y80.568 E57.58792 F1800.000
G1 X54.485 Y80.657 E57.62511
G1 X53.778 Y82.066 E57.70745
G1 X54.485 Y82.155 E57.74464
G1 X53.778 Y83.564 E57.82698
G1 E56.82698 F2400.00000
M103 ; extruder off
G1 X52.755 Y85.606 F7800.000
M101 ; extruder on
G1 E57.82698 F2400.00000
G1 X53.309 Y84.502 E57.89152 F1800.000
G1 X53.309 Y83.003 E57.96979
G1 X51.836 Y85.941 E58.14143
G1 X51.038 Y86.035 E58.18344
G1 X53.309 Y81.505 E58.44817
G1 X53.309 Y80.007 E58.52643
G1 X50.303 Y86.003 E58.87683
G1 X49.636 Y85.836 E58.91276
G1 X52.787 Y79.550 E59.28014
G1 X52.036 Y79.550 E59.31937
G1 X49.042 Y85.524 E59.66846
G1 X48.525 Y85.057 E59.70484
G1 X51.285 Y79.550 E60.02669
G1 X50.535 Y79.550 E60.06592
G1 X48.109 Y84.389 E60.34869
G1 X47.808 Y83.491 E60.39815
G1 X49.784 Y79.550 E60.62846
G1 X49.033 Y79.550 E60.66769
G1 X47.731 Y82.148 E60.81950
G1 X47.731 Y80.650 E60.89777
G1 X48.282 Y79.550 E60.96204
G1 E59.96204 F2400.00000
M103 ; extruder off
G1 X47.731 Y88.140 F7800.000
M101 ; extruder on
G1 E60.96204 F2400.00000
G1 X47.881 Y87.840 E60.97957 F1800.000
G1 X48.632 Y87.840 E61.01880
G1 X47.731 Y89.638 E61.12387
G1 X47.776 Y91.045 E61.19741
G1 X49.383 Y87.840 E61.38471
G1 X50.134 Y87.840 E61.42394
G1 X47.916 Y92.264 E61.68246
G1 X48.228 Y93.141 E61.73107
G1 X50.884 Y87.840 E62.04084
G1 X51.635 Y87.840 E62.08006
G1 X48.624 Y93.848 E62.43116
G1 X49.100 Y94.396 E62.46910
G1 X52.386 Y87.840 E62.85226
G1 X53.137 Y87.840 E62.89149
G1 X49.621 Y94.856 E63.30149
G1 X50.191 Y95.215 E63.33672
G1 X53.309 Y88.996 E63.70020
G1 X53.309 Y90.494 E63.77846
G1 X50.812 Y95.474 E64.06951
G1 X51.464 Y95.672 E64.10509
G1 X53.309 Y91.992 E64.32018
G1 X53.309 Y93.490 E64.39844
G1 X52.168 Y95.765 E64.53142
G1 X53.309 Y94.988 E64.60353
G1 X52.889 Y95.826 E64.65251
G1 E63.65251 F2400.00000
M103 ; extruder off
G1 X56.396 Y94.820 F7800.000
M101 ; extruder on
G1 E64.65251 F2400.00000
G1 X58.233 Y91.155 E64.86669 F1800.000
G1 X58.269 Y89.585 F7800.000
M101 ; extruder on
G1 X55.346 Y95.416 E65.20750 F1800.000
G1 X54.471 Y95.665 E65.25503
G1 X58.269 Y88.087 E65.69789
G1 X57.642 Y87.840 E65.73310
G1 X53.978 Y95.150 E66.16027
G1 X53.978 Y93.652 E66.23854
G1 X56.891 Y87.840 E66.57817
G1 X56.140 Y87.840 E66.61739
G1 X53.978 Y92.154 E66.86947
G1 X53.978 Y90.655 E66.94774
G1 X55.389 Y87.840 E67.11228
G1 X54.639 Y87.840 E67.15150
G1 X53.978 Y89.157 E67.22849
G1 E66.22849 F2400.00000
M103 ; extruder off
G1 X53.978 Y119.118 F7800.000
M101 ; extruder on
G1 E67.22849 F2400.00000
G1 X54.184 Y118.709 E67.25244 F1800.000
G1 X54.872 Y118.834 E67.28898
G1 X53.978 Y120.617 E67.39314
G1 X53.978 Y122.115 E67.47141
G1 X55.527 Y119.025 E67.65193
G1 X56.147 Y119.285 E67.68709
G1 X53.978 Y123.613 E67.94000
G1 X53.978 Y125.111 E68.01827
G1 X56.730 Y119.620 E68.33915
G1 X57.256 Y120.069 E68.37527
G1 X53.978 Y126.609 E68.75747
G1 X54.403 Y127.260 E68.79809
G1 X57.731 Y120.619 E69.18618
G1 X58.132 Y121.317 E69.22825
G1 X55.223 Y127.121 E69.56743
G1 X56.169 Y126.733 E69.62084
G1 X58.401 Y122.278 E69.88117
G1 X58.381 Y123.818 F7800.000
M101 ; extruder on
G1 X57.388 Y125.799 E69.99695 F1800.000
G1 E68.99695 F2400.00000
M103 ; extruder off
G1 X52.901 Y127.260 F7800.000
M101 ; extruder on
G1 E69.99695 F2400.00000
G1 X53.309 Y126.447 E70.04446 F1800.000
G1 X52.150 Y127.260 E70.11839
G1 X53.309 Y124.949 E70.25345
G1 X53.309 Y123.451 E70.33171
G1 X51.399 Y127.260 E70.55431
G1 X50.715 Y127.128 E70.59074
G1 X53.309 Y121.953 E70.89315
G1 X53.309 Y120.455 E70.97141
G1 X50.076 Y126.905 E71.34835
G1 X49.487 Y126.581 E71.38344
G1 X53.309 Y118.957 E71.82901
G1 X52.708 Y118.657 E71.86408
G1 X48.936 Y126.183 E72.30389
G1 X48.429 Y125.697 E72.34060
G1 X51.933 Y118.706 E72.74916
G1 X51.108 Y118.854 E72.79296
G1 X48.000 Y125.055 E73.15535
G1 X47.674 Y124.207 E73.20282
G1 X50.209 Y119.149 E73.49838
G1 X49.143 Y119.777 E73.56298
G1 X47.546 Y122.963 E73.74919
G1 E72.74919 F2400.00000
M103 ; extruder off
G1 X130.554 Y138.610 F7800.000
M101 ; extruder on
G1 E73.74919 F2400.00000
G1 X131.116 Y137.490 E73.81465 F1800.000
G1 X131.867 Y137.490 E73.85388
G1 X131.305 Y138.610 E73.91933
G1 X132.056 Y138.610 E73.95856
G1 X132.617 Y137.490 E74.02401
G1 X133.368 Y137.490 E74.06324
G1 X132.807 Y138.610 E74.12869
G1 X133.558 Y138.610 E74.16792
G1 X134.119 Y137.490 E74.23337
G1 X134.870 Y137.490 E74.27260
G1 X134.308 Y138.610 E74.33805
G1 X135.059 Y138.610 E74.37728
G1 X135.621 Y137.490 E74.44273
G1 X136.371 Y137.490 E74.48196
G1 X135.810 Y138.610 E74.54741
G1 X136.561 Y138.610 E74.58664
G1 X137.047 Y137.640 E74.64333
G1 X137.798 Y137.640 E74.68255
G1 X137.312 Y138.610 E74.73924
G1 X138.063 Y138.610 E74.77847
G1 X138.549 Y137.640 E74.83516
G1 X139.300 Y137.640 E74.87438
G1 X138.813 Y138.610 E74.93107
G1 X139.564 Y138.610 E74.97030
G1 X140.050 Y137.640 E75.02699
G1 X140.876 Y137.490 F7800.000
M101 ; extruder on
G1 X140.315 Y138.610 E75.09244 F1800.000
G1 X141.066 Y138.610 E75.13167
G1 X141.627 Y137.490 E75.19712
G1 X142.378 Y137.490 E75.23635
G1 X141.817 Y138.610 E75.30180
G1 X142.568 Y138.610 E75.34103
G1 X143.129 Y137.490 E75.40648
G1 X143.805 Y137.640 E75.44264
G1 X143.318 Y138.610 E75.49933
G1 X144.069 Y138.610 E75.53856
G1 X144.555 Y137.640 E75.59524
G1 X145.306 Y137.640 E75.63447
G1 X144.820 Y138.610 E75.69116
G1 X145.571 Y138.610 E75.73039
G1 X146.057 Y137.640 E75.78707
G1 X146.808 Y137.640 E75.82630
G1 X146.322 Y138.610 E75.88299
G1 X147.073 Y138.610 E75.92222
G1 X147.559 Y137.640 E75.97890
G1 X148.310 Y137.640 E76.01813
G1 X147.823 Y138.610 E76.07482
G1 X148.574 Y138.610 E76.11405
G1 X149.060 Y137.640 E76.17073
G1 X149.811 Y137.640 E76.20996
G1 X149.325 Y138.610 E76.26665
G1 X150.076 Y138.610 E76.30588
G1 X150.637 Y137.490 E76.37133
G1 X151.388 Y137.490 E76.41056
G1 X150.827 Y138.610 E76.47601
G1 X151.578 Y138.610 E76.51524
G1 X152.139 Y137.490 E76.58069
G1 X152.890 Y137.490 E76.61992
G1 X152.328 Y138.610 E76.68537
G1 X153.079 Y138.610 E76.72460
G1 X153.641 Y137.490 E76.79005
G1 X154.391 Y137.490 E76.82928
G1 X153.830 Y138.610 E76.89473
G1 X154.581 Y138.610 E76.93396
G1 X155.142 Y137.490 E76.99941
G1 X155.893 Y137.490 E77.03864
G1 X155.332 Y138.610 E77.10409
G1 X156.083 Y138.610 E77.14332
G1 X156.618 Y137.542 E77.20574
G1 X157.320 Y137.640 F7800.000
M101 ; extruder on
G1 X156.833 Y138.610 E77.26243 F1800.000
G1 X157.584 Y138.610 E77.30166
G1 X158.070 Y137.640 E77.35834
G1 X158.651 Y137.979 E77.39348
G1 X158.335 Y138.610 E77.43035
G1 E76.43035 F2400.00000
M103 ; extruder off
G1 X170.435 Y62.036 F7800.000
M101 ; extruder on
G1 E77.43035 F2400.00000
G1 X170.759 Y61.390 E77.46814 F1800.000
G1 X171.510 Y61.390 E77.50736
G1 X170.948 Y62.510 E77.57282
G1 X171.699 Y62.510 E77.61204
G1 X172.261 Y61.390 E77.67750
G1 X173.011 Y61.390 E77.71672
G1 X172.450 Y62.510 E77.78218
G1 X173.201 Y62.510 E77.82140
G1 X173.762 Y61.390 E77.88686
G1 X174.265 Y61.885 E77.92371
G1 X173.952 Y62.510 E77.96026
G1 E76.96026 F2400.00000
M103 ; extruder off
G1 X118.390 Y62.510 F7800.000
M101 ; extruder on
G1 E77.96026 F2400.00000
G1 X118.565 Y62.161 E77.98063 F1800.000
G1 X118.201 Y61.390 E78.02520
G1 X117.640 Y62.510 E78.09065
G1 X116.889 Y62.510 E78.12988
G1 X117.450 Y61.390 E78.19533
G1 X116.699 Y61.390 E78.23456
G1 X116.138 Y62.510 E78.30001
G1 X115.387 Y62.510 E78.33924
G1 X115.948 Y61.390 E78.40469
G1 X115.198 Y61.390 E78.44392
G1 X114.735 Y62.313 E78.49787
M104 S200 T0 ; set temperature
M140 S60 ; wait for bed temperature to be reached
M73 P0
G1 Z0.800 F7800.000
G1 E77.49787 F2400.00000
M103 ; extruder off
G1 X55.598 Y72.828 F7800.000
M101 ; extruder on
G1 E78.49787 F2400.00000
G1 X53.773 Y76.470 E78.71066 F3600.000
G1 X53.773 Y75.567 F7800.000
M101 ; extruder on
G1 X55.598 Y71.926 E78.92345 F3600.000
G1 X55.521 Y71.179 E78.96270
G1 X53.773 Y74.665 E79.16642
G1 X53.118 Y74.875 F7800.000
M101 ; extruder on
G1 X52.013 Y77.079 E79.29521 F3600.000
G1 X51.530 Y77.079 E79.32044
G1 X53.118 Y73.911 E79.50554
G1 X53.773 Y73.762 F7800.000
M101 ; extruder on
G1 X54.982 Y71.350 E79.64650 F3600.000
G1 X54.444 Y71.522 E79.67601
G1 X53.773 Y72.860 E79.75421
G1 X53.118 Y72.948 F7800.000
M101 ; extruder on
G1 X51.047 Y77.079 E79.99561 F3600.000
G1 X50.619 Y76.970 E80.01871
G1 X53.118 Y71.984 E80.31010
G1 X52.571 Y72.111 E80.33942
G1 X50.202 Y76.838 E80.61564
G1 X49.786 Y76.706 E80.63848
G1 X51.996 Y72.295 E80.89626
G1 X51.422 Y72.478 E80.92777
G1 X49.369 Y76.573 E81.16712
G1 X48.952 Y76.441 E81.18996
G1 X50.847 Y72.661 E81.41087
G1 X50.272 Y72.844 E81.44238
G1 X48.536 Y76.309 E81.64486
G1 X48.119 Y76.177 E81.66769
G1 X49.698 Y73.027 E81.85173
G1 X49.123 Y73.211 E81.88325
G1 X47.833 Y75.783 E82.03360
G1 X47.833 Y74.821 F7800.000
M101 ; extruder on
G1 X48.548 Y73.394 E82.11701 F3600.000
G1 X47.973 Y73.577 E82.14853
G1 X47.832 Y73.859 E82.16499
G1 E81.16499 F2400.00000
M103 ; extruder off
G1 X53.118 Y75.838 F7800.000
M101 ; extruder on
G1 E82.16499 F2400.00000
G1 X52.496 Y77.079 E82.23747 F3600.000
G1 X53.118 Y76.802 E82.27303
G1 X52.979 Y77.079 E82.28920
G1 E81.28920 F2400.00000
M103 ; extruder off
G1 X55.598 Y77.341 F7800.000
M101 ; extruder on
G1 E82.28920 F2400.00000
G1 X55.079 Y78.376 E82.34973 F3600.000
G1 X55.598 Y78.243 E82.37773
G1 X55.469 Y78.500 E82.39276
G1 X54.486 Y80.035 F7800.000
M101 ; extruder on
G1 X53.777 Y81.450 E82.47540 F3600.000
G1 X53.108 Y81.366 F7800.000
M101 ; extruder on
G1 X50.765 Y86.041 E82.74862 F3600.000
G1 X50.395 Y86.010 E82.76802
G1 X53.108 Y80.597 E83.08438
G1 X53.777 Y80.621 F7800.000
M101 ; extruder on
G1 X54.315 Y79.547 E83.14711 F3600.000
G1 X53.900 Y79.547 E83.16881
G1 X53.777 Y79.792 E83.18312
G1 X53.108 Y79.827 F7800.000
M101 ; extruder on
G1 X50.040 Y85.950 E83.54089 F3600.000
G1 X49.702 Y85.854 E83.55922
G1 X52.862 Y79.551 E83.92759
G1 X52.476 Y79.551 E83.94773
G1 X49.388 Y85.713 E84.30783
G1 X49.085 Y85.547 E84.32584
G1 X52.091 Y79.551 E84.67630
G1 X51.705 Y79.551 E84.69643
G1 X48.801 Y85.345 E85.03507
G1 X48.548 Y85.081 E85.05420
G1 X51.320 Y79.551 E85.37736
G1 X50.934 Y79.551 E85.39750
G1 X48.298 Y84.810 E85.70485
G1 X48.117 Y84.403 E85.72812
G1 X50.549 Y79.551 E86.01171
G1 X50.163 Y79.551 E86.03185
G1 X47.935 Y83.997 E86.29166
G1 X47.808 Y83.481 E86.31940
G1 X49.778 Y79.551 E86.54909
G1 X49.392 Y79.551 E86.56923
G1 X47.748 Y82.832 E86.76101
G1 X47.731 Y82.096 E86.79948
G1 X49.007 Y79.551 E86.94824
G1 X48.621 Y79.551 E86.96838
G1 X47.731 Y81.327 E87.07219
G1 X47.731 Y80.558 F7800.000
M101 ; extruder on
G1 X48.236 Y79.551 E87.13106 F3600.000
G1 X47.851 Y79.551 E87.15119
G1 X47.731 Y79.789 E87.16512
G1 E86.16512 F2400.00000
M103 ; extruder off
G1 X53.108 Y82.135 F7800.000
M101 ; extruder on
G1 E87.16512 F2400.00000
G1 X51.157 Y86.027 E87.39260 F3600.000
G1 X51.555 Y86.002 E87.41343
G1 X53.108 Y82.904 E87.59452
G1 X53.777 Y83.107 F7800.000
M101 ; extruder on
G1 X54.486 Y81.693 E87.67717 F3600.000
G1 X54.486 Y80.864 F7800.000
M101 ; extruder on
G1 X53.777 Y82.278 E87.75981 F3600.000
G1 X54.453 Y82.586 F7800.000
M101 ; extruder on
G1 X53.777 Y83.936 E87.83869 F3600.000
G1 X54.135 Y84.050 E87.85832
G1 X53.878 Y84.563 E87.88825
G1 X53.108 Y84.442 F7800.000
M101 ; extruder on
G1 X52.453 Y85.748 E87.96460 F3600.000
G1 X51.990 Y85.904 E87.99016
G1 X53.108 Y83.673 E88.12058
G1 X53.108 Y85.211 F7800.000
M101 ; extruder on
G1 X52.978 Y85.470 E88.13574 F3600.000
G1 E87.13574 F2400.00000
M103 ; extruder off
G1 X54.297 Y88.043 F7800.000
M101 ; extruder on
G1 E88.13574 F2400.00000
G1 X54.180 Y88.276 E88.14937 F3600.000
G1 X54.180 Y89.019 F7800.000
M101 ; extruder on
G1 X54.669 Y88.043 E88.20637 F3600.000
G1 X55.041 Y88.043 E88.22580
G1 X54.180 Y89.761 E88.32617
G1 X54.180 Y90.503 F7800.000
M101 ; extruder on
G1 X55.413 Y88.043 E88.46990 F3600.000
G1 X55.785 Y88.043 E88.48933
G1 X54.180 Y91.245 E88.67643
G1 X54.180 Y91.987 F7800.000
M101 ; extruder on
G1 X56.156 Y88.043 E88.90690 F3600.000
G1 X56.528 Y88.043 E88.92633
G1 X54.180 Y92.729 E89.20017
G1 X54.180 Y93.471 F7800.000
M101 ; extruder on
G1 X56.900 Y88.043 E89.51737 F3600.000
G1 X57.272 Y88.043 E89.53680
G1 X54.180 Y94.213 E89.89737
G1 X54.180 Y94.955 F7800.000
M101 ; extruder on
G1 X57.644 Y88.043 E90.30130 F3600.000
G1 X58.016 Y88.043 E90.32073
G1 X54.180 Y95.697 E90.76803
G1 X54.586 Y95.629 E90.78954
G1 X58.268 Y88.284 E91.21883
G1 X58.268 Y89.026 F7800.000
M101 ; extruder on
G1 X55.019 Y95.506 E91.59756 F3600.000
G1 X55.460 Y95.369 E91.62168
G1 X58.268 Y89.768 E91.94902
G1 X58.259 Y90.526 F7800.000
M101 ; extruder on
G1 X55.988 Y95.058 E92.21385 F3600.000
G1 X56.549 Y94.680 E92.24922
G1 X58.205 Y91.377 E92.44222
G1 X57.856 Y92.814 F7800.000
M101 ; extruder on
G1 X57.557 Y93.411 E92.47712 F3600.000
G1 E91.47712 F2400.00000
M103 ; extruder off
G1 X53.107 Y93.425 F7800.000
M101 ; extruder on
G1 E92.47712 F2400.00000
G1 X51.945 Y95.743 E92.61257 F3600.000
G1 X52.292 Y95.772 E92.63076
G1 X53.107 Y94.147 E92.72574
G1 X53.107 Y94.868 F7800.000
M101 ; extruder on
G1 X52.639 Y95.801 E92.78028 F3600.000
G1 X53.107 Y95.590 E92.80710
