; generated by Slic3r 1.2.6 on 2015-05-14 at 14:53:57

; external perimeters extrusion width = 0.40mm
; perimeters extrusion width = 0.48mm
; infill extrusion width = 0.48mm
; solid infill extrusion width = 0.48mm
; top infill extrusion width = 0.48mm
; support material extrusion width = 0.40mm

M127
M109 S65 ; set bed temperature
(**** start.gcode for The Replicator, dual head ****)
M103 (disable RPM)
M73 P0 (enable build progress)
G21 (set units to mm)
G90 (set positioning to absolute)
M109 S50 T0 (set HBP temperature)
M104 S200 T0 (set extruder temperature) (temp updated by printOMatic)
(**** begin homing ****)
G162 X Y F2500 (home XY axes maximum)
G161 Z F1100 (home Z axis minimum)
G92 Z-5 (set Z to -5)
G1 Z0.0 (move Z to "0")
G161 Z F100 (home Z axis minimum)
M132 X Y Z A B (Recall stored home offsets for XYZAB axis)
(**** end homing ****)
G1 X-110.5 Y-74 Z150 F3300.0 (move to waiting position)
G130 X20 Y20 Z20 A20 B20 (Lower stepper Vrefs while heating)
M6 T0 (wait for toolhead, and HBP to reach temperature)
G130 X127 Y127 Z40 A127 B127 (Set Stepper motor Vref to defaults)
M108 R3.0 T0
G0 X-110.5 Y-74 (Position Nozzle)
G0 Z0.6      (Position Height)
M108 R5.0    (Set Extruder Speed)
M101         (Start Extruder)
G4 P2000     (Create Anchor)
(**** end of start.gcode ****)
M73 P0
G1 Z0.400 F7800.000
G1 E-1.00000 F2400.00000
M103 ; extruder off
G1 X38.581 Y41.441 F7800.000
M101 ; extruder on
G1 E0.00000 F2400.00000
G1 X38.948 Y41.120 E0.05792 F1800.000
G1 X40.805 Y39.964 E0.31770
G1 X41.107 Y39.840 E0.35647
G1 X42.800 Y39.386 E0.56465
G1 X43.124 Y39.343 E0.60340
G1 X129.454 Y29.717 E10.91995
G1 X130.198 Y29.676 E11.00844
G1 X188.762 Y29.676 E17.96387
G1 X190.399 Y29.878 E18.15970
M101 ; extruder on
G1 X190.836 Y29.988 E18.21331 F1800.000
G1 X192.946 Y30.928 E18.48753
G1 X195.124 Y33.340 E18.87361
G1 X195.924 Y34.840 E19.07551
G1 X196.714 Y38.000 E19.46231
G1 X196.714 Y112.000 E28.25094
G1 X196.317 Y114.275 E28.52516
G1 X195.173 Y116.280 E28.79939
G1 X193.417 Y117.780 E29.07361
G1 X190.646 Y118.683 E29.41981
G1 X173.981 Y120.293 E31.40825
G1 X173.335 Y120.324 E31.48502
G1 X145.554 Y120.324 E34.78440
G1 X144.904 Y120.293 E34.86168
G1 X128.350 Y118.683 E36.83703
G1 X65.367 Y108.894 E44.40700
G1 X64.440 Y108.720 E44.51906
G1 X63.504 Y108.467 E44.63418
G1 X62.865 Y108.244 E44.71457
G1 X61.842 Y107.789 E44.84762
G1 X61.253 Y107.465 E44.92739
G1 X60.800 Y107.196 E44.98997
G1 X60.111 Y106.720 E45.08938
G1 X59.555 Y106.271 E45.17434
G1 X58.843 Y105.611 E45.28965
G1 X38.397 Y85.410 E48.70316
G1 X37.534 Y84.364 E48.86426
G1 X37.263 Y83.959 E48.92218
G1 X36.260 Y81.538 E49.23332
G1 X36.165 Y81.060 E49.29125
G1 X36.036 Y79.750 E49.44757
G1 X36.036 Y47.250 E53.30744
G1 X36.093 Y46.374 E53.41173
G1 X36.136 Y46.050 E53.45049
G1 X36.771 Y43.957 E53.71031
G1 X36.987 Y43.519 E53.76824
G1 X38.545 Y41.489 E54.07220
G1 E53.07220 F2400.00000
M103 ; extruder off
G1 X63.320 Y48.482 F7800.000
M101 ; extruder on
G1 E54.07220 F2400.00000
G1 X62.842 Y49.436 E54.12795 F1800.000
G1 X62.843 Y50.932 E54.20613
G1 X64.214 Y48.197 E54.36597
G1 X65.107 Y47.912 E54.41497
G1 X63.432 Y51.254 E54.61027
G1 X64.080 Y51.460 E54.64578
G1 X66.001 Y47.628 E54.86975
G1 X66.894 Y47.343 E54.91875
G1 X64.728 Y51.666 E55.17139
G1 X65.375 Y51.871 E55.20689
G1 X67.788 Y47.058 E55.48819
G1 X68.309 Y47.517 E55.52446
G1 X66.023 Y52.077 E55.79094
G1 X66.682 Y52.260 E55.82668
G1 X68.309 Y49.015 E56.01631
G1 X68.309 Y50.513 E56.09458
G1 X67.433 Y52.260 E56.19666
G1 X68.309 Y52.011 E56.24421
G1 X68.184 Y52.260 E56.25874
G1 E55.25874 F2400.00000
M103 ; extruder off
G1 X69.910 Y53.311 F7800.000
M101 ; extruder on
G1 E56.25874 F2400.00000
G1 X70.593 Y51.947 E56.33849 F1800.000
G1 X70.593 Y50.448 E56.41676
G1 X69.262 Y53.105 E56.57203
G1 X68.778 Y52.572 E56.60964
G1 X70.593 Y48.950 E56.82129
G1 X70.593 Y47.452 E56.89956
G1 X68.778 Y51.074 E57.11120
G1 X68.778 Y49.576 E57.18947
G1 X70.469 Y46.204 E57.38655
G1 X69.575 Y46.488 E57.43555
G1 X68.778 Y48.078 E57.52844
G1 E56.52844 F2400.00000
M103 ; extruder off
G1 X69.289 Y54.550 F7800.000
M101 ; extruder on
G1 E57.52844 F2400.00000
G1 X68.778 Y55.568 E57.58794 F1800.000
G1 X69.485 Y55.657 E57.62513
G1 X68.778 Y57.066 E57.70747
G1 X69.485 Y57.155 E57.74466
G1 X68.778 Y58.564 E57.82700
G1 E56.82700 F2400.00000
M103 ; extruder off
G1 X67.755 Y60.606 F7800.000
M101 ; extruder on
G1 E57.82700 F2400.00000
G1 X68.309 Y59.502 E57.89154 F1800.000
G1 X68.309 Y58.003 E57.96981
G1 X66.836 Y60.941 E58.14145
G1 X66.038 Y61.035 E58.18346
G1 X68.309 Y56.505 E58.44819
G1 X68.309 Y55.007 E58.52645
G1 X65.303 Y61.003 E58.87685
G1 X64.636 Y60.836 E58.91278
G1 X67.787 Y54.550 E59.28016
G1 X67.036 Y54.550 E59.31938
G1 X64.042 Y60.524 E59.66848
G1 X63.525 Y60.057 E59.70486
G1 X66.285 Y54.550 E60.02671
G1 X65.535 Y54.550 E60.06594
G1 X63.109 Y59.389 E60.34871
G1 X62.808 Y58.491 E60.39817
G1 X64.784 Y54.550 E60.62848
G1 X64.033 Y54.550 E60.66771
G1 X62.731 Y57.148 E60.81952
G1 X62.731 Y55.650 E60.89779
G1 X63.282 Y54.550 E60.96206
G1 E59.96206 F2400.00000
M103 ; extruder off
G1 X62.731 Y63.140 F7800.000
M101 ; extruder on
G1 E60.96206 F2400.00000
G1 X62.881 Y62.840 E60.97959 F1800.000
G1 X63.632 Y62.840 E61.01881
G1 X62.731 Y64.638 E61.12389
G1 X62.776 Y66.045 E61.19743
G1 X64.383 Y62.840 E61.38473
G1 X65.134 Y62.840 E61.42395
G1 X62.916 Y67.264 E61.68248
G1 X63.228 Y68.141 E61.73109
G1 X65.884 Y62.840 E62.04085
G1 X66.635 Y62.840 E62.08008
G1 X63.624 Y68.848 E62.43117
G1 X64.100 Y69.396 E62.46912
G1 X67.386 Y62.840 E62.85228
G1 X68.137 Y62.840 E62.89151
G1 X64.621 Y69.856 E63.30150
G1 X65.191 Y70.215 E63.33674
G1 X68.309 Y63.996 E63.70022
G1 X68.309 Y65.494 E63.77848
G1 X65.812 Y70.474 E64.06953
G1 X66.464 Y70.672 E64.10511
G1 X68.309 Y66.992 E64.32020
G1 X68.309 Y68.490 E64.39846
G1 X67.168 Y70.765 E64.53144
G1 X68.309 Y69.988 E64.60355
G1 X67.889 Y70.826 E64.65252
G1 E63.65252 F2400.00000
M103 ; extruder off
G1 X71.396 Y69.820 F7800.000
M101 ; extruder on
G1 E64.65252 F2400.00000
G1 X73.233 Y66.155 E64.86671 F1800.000
G1 X73.269 Y64.585 F7800.000
M101 ; extruder on
G1 X70.346 Y70.416 E65.20751 F1800.000
G1 X69.471 Y70.665 E65.25505
G1 X73.269 Y63.087 E65.69790
G1 X72.642 Y62.840 E65.73312
G1 X68.978 Y70.150 E66.16029
G1 X68.978 Y68.652 E66.23856
G1 X71.891 Y62.840 E66.57818
G1 X71.140 Y62.840 E66.61741
G1 X68.978 Y67.154 E66.86949
G1 X68.978 Y65.655 E66.94776
G1 X70.389 Y62.840 E67.11229
G1 X69.639 Y62.840 E67.15152
G1 X68.978 Y64.157 E67.22851
G1 E66.22851 F2400.00000
M103 ; extruder off
G1 X68.978 Y94.118 F7800.000
M101 ; extruder on
G1 E67.22851 F2400.00000
G1 X69.184 Y93.709 E67.25246 F1800.000
G1 X69.872 Y93.834 E67.28900
G1 X68.978 Y95.617 E67.39316
G1 X68.978 Y97.115 E67.47142
G1 X70.527 Y94.025 E67.65195
G1 X71.147 Y94.285 E67.68710
G1 X68.978 Y98.613 E67.94002
G1 X68.978 Y100.111 E68.01828
G1 X71.730 Y94.620 E68.33917
G1 X72.256 Y95.069 E68.37528
G1 X68.978 Y101.609 E68.75749
G1 X69.403 Y102.260 E68.79810
G1 X72.731 Y95.619 E69.18620
G1 X73.132 Y96.317 E69.22827
G1 X70.223 Y102.121 E69.56745
G1 X71.169 Y101.733 E69.62086
G1 X73.401 Y97.278 E69.88119
G1 X73.381 Y98.818 F7800.000
M101 ; extruder on
G1 X72.388 Y100.799 E69.99696 F1800.000
G1 E68.99696 F2400.00000
M103 ; extruder off
G1 X67.901 Y102.260 F7800.000
M101 ; extruder on
G1 E69.99696 F2400.00000
G1 X68.309 Y101.447 E70.04447 F1800.000
G1 X67.150 Y102.260 E70.11841
G1 X68.309 Y99.949 E70.25346
G1 X68.309 Y98.451 E70.33173
G1 X66.399 Y102.260 E70.55433
G1 X65.715 Y102.128 E70.59076
G1 X68.309 Y96.953 E70.89317
G1 X68.309 Y95.455 E70.97143
G1 X65.076 Y101.905 E71.34836
G1 X64.487 Y101.581 E71.38346
G1 X68.309 Y93.957 E71.82903
G1 X67.708 Y93.657 E71.86410
G1 X63.936 Y101.183 E72.30391
G1 X63.429 Y100.697 E72.34062
G1 X66.933 Y93.706 E72.74918
G1 X66.108 Y93.854 E72.79298
G1 X63.000 Y100.055 E73.15537
G1 X62.674 Y99.207 E73.20284
G1 X65.209 Y94.149 E73.49839
G1 X64.143 Y94.777 E73.56300
G1 X62.546 Y97.963 E73.74921
G1 E72.74921 F2400.00000
M103 ; extruder off
G1 X145.554 Y113.610 F7800.000
M101 ; extruder on
G1 E73.74921 F2400.00000
G1 X146.116 Y112.490 E73.81467 F1800.000
G1 X146.867 Y112.490 E73.85389
G1 X146.305 Y113.610 E73.91935
G1 X147.056 Y113.610 E73.95857
G1 X147.617 Y112.490 E74.02403
G1 X148.368 Y112.490 E74.06325
G1 X147.807 Y113.610 E74.12871
G1 X148.558 Y113.610 E74.16794
G1 X149.119 Y112.490 E74.23339
G1 X149.870 Y112.490 E74.27262
G1 X149.308 Y113.610 E74.33807
G1 X150.059 Y113.610 E74.37730
G1 X150.621 Y112.490 E74.44275
G1 X151.371 Y112.490 E74.48198
G1 X150.810 Y113.610 E74.54743
G1 X151.561 Y113.610 E74.58666
G1 X152.047 Y112.640 E74.64334
G1 X152.798 Y112.640 E74.68257
G1 X152.312 Y113.610 E74.73926
G1 X153.063 Y113.610 E74.77849
G1 X153.549 Y112.640 E74.83517
G1 X154.300 Y112.640 E74.87440
G1 X153.813 Y113.610 E74.93109
G1 X154.564 Y113.610 E74.97032
G1 X155.050 Y112.640 E75.02700
G1 X155.876 Y112.490 F7800.000
M101 ; extruder on
G1 X155.315 Y113.610 E75.09246 F1800.000
G1 X156.066 Y113.610 E75.13169
G1 X156.627 Y112.490 E75.19714
G1 X157.378 Y112.490 E75.23637
G1 X156.817 Y113.610 E75.30182
G1 X157.568 Y113.610 E75.34105
G1 X158.129 Y112.490 E75.40650
G1 X158.805 Y112.640 E75.44266
G1 X158.318 Y113.610 E75.49935
G1 X159.069 Y113.610 E75.53857
G1 X159.555 Y112.640 E75.59526
G1 X160.306 Y112.640 E75.63449
G1 X159.820 Y113.610 E75.69118
G1 X160.571 Y113.610 E75.73040
G1 X161.057 Y112.640 E75.78709
G1 X161.808 Y112.640 E75.82632
G1 X161.322 Y113.610 E75.88301
G1 X162.073 Y113.610 E75.92223
G1 X162.559 Y112.640 E75.97892
G1 X163.310 Y112.640 E76.01815
G1 X162.823 Y113.610 E76.07484
G1 X163.574 Y113.610 E76.11406
G1 X164.060 Y112.640 E76.17075
G1 X164.811 Y112.640 E76.20998
G1 X164.325 Y113.610 E76.26667
G1 X165.076 Y113.610 E76.30589
G1 X165.637 Y112.490 E76.37135
G1 X166.388 Y112.490 E76.41057
G1 X165.827 Y113.610 E76.47603
G1 X166.578 Y113.610 E76.51525
G1 X167.139 Y112.490 E76.58071
G1 X167.890 Y112.490 E76.61993
G1 X167.328 Y113.610 E76.68539
G1 X168.079 Y113.610 E76.72461
G1 X168.641 Y112.490 E76.79007
G1 X169.391 Y112.490 E76.82929
G1 X168.830 Y113.610 E76.89475
G1 X169.581 Y113.610 E76.93398
G1 X170.142 Y112.490 E76.99943
G1 X170.893 Y112.490 E77.03866
G1 X170.332 Y113.610 E77.10411
G1 X171.083 Y113.610 E77.14334
G1 X171.618 Y112.542 E77.20576
G1 X172.320 Y112.640 F7800.000
M101 ; extruder on
G1 X171.833 Y113.610 E77.26245 F1800.000
G1 X172.584 Y113.610 E77.30167
G1 X173.070 Y112.640 E77.35836
G1 X173.651 Y112.979 E77.39350
G1 X173.335 Y113.610 E77.43037
G1 E76.43037 F2400.00000
M103 ; extruder off
G1 X185.435 Y37.036 F7800.000
M101 ; extruder on
G1 E77.43037 F2400.00000
G1 X185.759 Y36.390 E77.46815 F1800.000
G1 X186.510 Y36.390 E77.50738
G1 X185.948 Y37.510 E77.57283
G1 X186.699 Y37.510 E77.61206
G1 X187.261 Y36.390 E77.67751
G1 X188.011 Y36.390 E77.71674
G1 X187.450 Y37.510 E77.78219
G1 X188.201 Y37.510 E77.82142
G1 X188.762 Y36.390 E77.88688
G1 X189.265 Y36.885 E77.92373
G1 X188.952 Y37.510 E77.96027
G1 E76.96027 F2400.00000
M103 ; extruder off
G1 X133.390 Y37.510 F7800.000
M101 ; extruder on
G1 E77.96027 F2400.00000
G1 X133.565 Y37.161 E77.98064 F1800.000
G1 X133.201 Y36.390 E78.02521
G1 X132.640 Y37.510 E78.09067
G1 X131.889 Y37.510 E78.12989
G1 X132.450 Y36.390 E78.19535
G1 X131.699 Y36.390 E78.23457
G1 X131.138 Y37.510 E78.30003
G1 X130.387 Y37.510 E78.33925
G1 X130.948 Y36.390 E78.40471
G1 X130.198 Y36.390 E78.44393
G1 X129.735 Y37.313 E78.49789
M104 S200 T0 ; set temperature
M140 S60 ; wait for bed temperature to be reached
M73 P0
G1 Z0.800 F7800.000
G1 E77.49789 F2400.00000
M103 ; extruder off
G1 X70.598 Y47.828 F7800.000
M101 ; extruder on
G1 E78.49789 F2400.00000
G1 X68.773 Y51.470 E78.71068 F3600.000
G1 X68.773 Y50.567 F7800.000
M101 ; extruder on
G1 X70.598 Y46.926 E78.92347 F3600.000
G1 X70.521 Y46.179 E78.96272
G1 X68.773 Y49.665 E79.16644
G1 X68.118 Y49.875 F7800.000
M101 ; extruder on
G1 X67.013 Y52.079 E79.29523 F3600.000
G1 X66.530 Y52.079 E79.32046
G1 X68.118 Y48.911 E79.50556
G1 X68.773 Y48.762 F7800.000
M101 ; extruder on
G1 X69.982 Y46.350 E79.64651 F3600.000
G1 X69.444 Y46.522 E79.67603
G1 X68.773 Y47.860 E79.75422
G1 X68.118 Y47.948 F7800.000
M101 ; extruder on
G1 X66.047 Y52.079 E79.99563 F3600.000
G1 X65.619 Y51.970 E80.01873
G1 X68.118 Y46.984 E80.31011
G1 X67.571 Y47.111 E80.33944
G1 X65.202 Y51.838 E80.61566
G1 X64.786 Y51.706 E80.63850
G1 X66.996 Y47.295 E80.89628
G1 X66.422 Y47.478 E80.92779
G1 X64.369 Y51.573 E81.16714
G1 X63.952 Y51.441 E81.18997
G1 X65.847 Y47.661 E81.41088
G1 X65.272 Y47.844 E81.44240
G1 X63.536 Y51.309 E81.64487
G1 X63.119 Y51.177 E81.66771
G1 X64.698 Y48.027 E81.85175
G1 X64.123 Y48.211 E81.88326
G1 X62.833 Y50.783 E82.03362
G1 X62.833 Y49.821 F7800.000
M101 ; extruder on
G1 X63.548 Y48.394 E82.11703 F3600.000
G1 X62.973 Y48.577 E82.14855
G1 X62.832 Y48.859 E82.16501
G1 E81.16501 F2400.00000
M103 ; extruder off
G1 X68.118 Y50.838 F7800.000
M101 ; extruder on
G1 E82.16501 F2400.00000
G1 X67.496 Y52.079 E82.23749 F3600.000
G1 X68.118 Y51.802 E82.27304
G1 X67.979 Y52.079 E82.28922
G1 E81.28922 F2400.00000
M103 ; extruder off
G1 X70.598 Y52.341 F7800.000
M101 ; extruder on
G1 E82.28922 F2400.00000
G1 X70.079 Y53.376 E82.34975 F3600.000
G1 X70.598 Y53.243 E82.37775
G1 X70.469 Y53.500 E82.39278
G1 X69.486 Y55.035 F7800.000
M101 ; extruder on
G1 X68.777 Y56.450 E82.47542 F3600.000
G1 X68.108 Y56.366 F7800.000
M101 ; extruder on
G1 X65.765 Y61.041 E82.74863 F3600.000
G1 X65.395 Y61.010 E82.76804
G1 X68.108 Y55.597 E83.08440
G1 X68.777 Y55.621 F7800.000
M101 ; extruder on
G1 X69.315 Y54.547 E83.14713 F3600.000
G1 X68.900 Y54.547 E83.16883
G1 X68.777 Y54.792 E83.18313
G1 X68.108 Y54.827 F7800.000
M101 ; extruder on
G1 X65.040 Y60.950 E83.54091 F3600.000
G1 X64.702 Y60.854 E83.55924
G1 X67.862 Y54.551 E83.92761
G1 X67.476 Y54.551 E83.94775
G1 X64.388 Y60.713 E84.30785
G1 X64.085 Y60.547 E84.32586
G1 X67.091 Y54.551 E84.67631
G1 X66.705 Y54.551 E84.69645
G1 X63.801 Y60.345 E85.03509
G1 X63.548 Y60.081 E85.05422
G1 X66.320 Y54.551 E85.37738
G1 X65.934 Y54.551 E85.39752
G1 X63.298 Y59.810 E85.70487
G1 X63.117 Y59.403 E85.72814
G1 X65.549 Y54.551 E86.01172
G1 X65.163 Y54.551 E86.03186
G1 X62.935 Y58.997 E86.29168
G1 X62.808 Y58.481 E86.31942
G1 X64.778 Y54.551 E86.54911
G1 X64.392 Y54.551 E86.56924
G1 X62.748 Y57.832 E86.76103
G1 X62.731 Y57.096 E86.79950
G1 X64.007 Y54.551 E86.94826
G1 X63.621 Y54.551 E86.96840
G1 X62.731 Y56.327 E87.07221
G1 X62.731 Y55.558 F7800.000
M101 ; extruder on
G1 X63.236 Y54.551 E87.13107 F3600.000
G1 X62.851 Y54.551 E87.15121
G1 X62.731 Y54.789 E87.16514
G1 E86.16514 F2400.00000
M103 ; extruder off
G1 X68.108 Y57.135 F7800.000
M101 ; extruder on
G1 E87.16514 F2400.00000
G1 X66.157 Y61.027 E87.39262 F3600.000
G1 X66.555 Y61.002 E87.41345
G1 X68.108 Y57.904 E87.59454
G1 X68.777 Y58.107 F7800.000
M101 ; extruder on
G1 X69.486 Y56.693 E87.67718 F3600.000
G1 X69.486 Y55.864 F7800.000
M101 ; extruder on
G1 X68.777 Y57.278 E87.75983 F3600.000
G1 X69.453 Y57.586 F7800.000
M101 ; extruder on
G1 X68.777 Y58.936 E87.83870 F3600.000
G1 X69.135 Y59.050 E87.85834
G1 X68.878 Y59.563 E87.88826
G1 X68.108 Y59.442 F7800.000
M101 ; extruder on
G1 X67.453 Y60.748 E87.96462 F3600.000
G1 X66.990 Y60.904 E87.99018
G1 X68.108 Y58.673 E88.12060
G1 X68.108 Y60.211 F7800.000
M101 ; extruder on
G1 X67.978 Y60.470 E88.13576 F3600.000
G1 E87.13576 F2400.00000
M103 ; extruder off
G1 X69.297 Y63.043 F7800.000
M101 ; extruder on
G1 E88.13576 F2400.00000
G1 X69.180 Y63.276 E88.14939 F3600.000
G1 X69.180 Y64.019 F7800.000
M101 ; extruder on
G1 X69.669 Y63.043 E88.20639 F3600.000
G1 X70.041 Y63.043 E88.22582
G1 X69.180 Y64.761 E88.32619
G1 X69.180 Y65.503 F7800.000
M101 ; extruder on
G1 X70.413 Y63.043 E88.46992 F3600.000
G1 X70.785 Y63.043 E88.48935
G1 X69.180 Y66.245 E88.67645
G1 X69.180 Y66.987 F7800.000
M101 ; extruder on
G1 X71.156 Y63.043 E88.90692 F3600.000
G1 X71.528 Y63.043 E88.92635
G1 X69.180 Y67.729 E89.20019
G1 X69.180 Y68.471 F7800.000
M101 ; extruder on
G1 X71.900 Y63.043 E89.51739 F3600.000
G1 X72.272 Y63.043 E89.53682
G1 X69.180 Y69.213 E89.89738
G1 X69.180 Y69.955 F7800.000
