; generated by Slic3r 1.2.6 on 2015-05-14 at 16:20:01

; external perimeters extrusion width = 0.40mm
; perimeters extrusion width = 0.67mm
; infill extrusion width = 0.67mm
; solid infill extrusion width = 0.67mm
; top infill extrusion width = 0.67mm

M107
M190 S55 ; set bed temperature
(**** start.gcode for The Replicator, dual head ****)
M72 P0
M70 P2 (Hello Patrick)
M103 (disable RPM)
M73 P0 (enable build progress)
G21 (set units to mm)
G90 (set positioning to absolute)
M109 S50 T0 (set HBP temperature)
M104 S210 T0 (set extruder temperature) (temp updated by printOMatic)
(**** begin homing ****)
M72 P0
M70 P2 (...homing...)
G162 X Y F2500 (home XY axes maximum)
G161 Z F1100 (home Z axis minimum)
G92 Z-5 (set Z to -5)
G1 Z0.0 (move Z to "0")
G161 Z F100 (home Z axis minimum)
M132 X Y Z A B (Recall stored home offsets for XYZAB axis)
(**** end homing ****)
M72 P0
M70 P2 (...heating...)
G1 X-110.5 Y-74 Z150 F3300.0 (move to waiting position)
G130 X20 Y20 Z20 A20 B20 (Lower stepper Vrefs while heating)
M6 T0 (wait for toolhead, and HBP to reach temperature)
G130 X127 Y127 Z40 A127 B127 (Set Stepper motor Vref to defaults)
M108 R3.0 T0
M72 P0
M70 P2 (...away we go...)
G0 X-110.5 Y-74 (Position Nozzle)
G0 Z0.6      (Position Height)
M108 R5.0    (Set Extruder Speed)
M101         (Start Extruder)
G4 P2000     (Create Anchor)
M72 P1
(**** end of start.gcode ****)

G21 ; set units to millimeters
G90 ; use absolute coordinates
M82 ; use absolute distances for extrusion
G92 E0
G1 Z0.400 F3900.000
G1 X43.384 Y0.965 F3900.000
G1 X41.784 Y72.846 E8.53909 F1800.000
G1 X41.711 Y75.211 E8.82002
G1 X41.243 Y77.472 E9.09424
G1 X40.037 Y79.441 E9.36847
G1 X38.235 Y80.884 E9.64269
G1 X35.000 Y81.715 E10.03936
G1 X-37.001 Y81.715 E18.59057
G1 X-39.276 Y81.318 E18.86479
G1 X-41.281 Y80.174 E19.13902
G1 X-42.781 Y78.418 E19.41324
G1 X-43.596 Y76.258 E19.68747
G1 X-43.715 Y75.001 E19.83744
G1 X-43.715 Y-75.001 E37.65245
G1 X-43.318 Y-77.276 E37.92667
G1 X-42.174 Y-79.281 E38.20090
G1 X-40.418 Y-80.781 E38.47512
G1 X-38.258 Y-81.596 E38.74935
G1 X-37.001 Y-81.715 E38.89932
G1 X37.001 Y-81.715 E47.68818
G1 X39.276 Y-81.318 E47.96240
G1 X41.281 Y-80.174 E48.23663 F1800.000
G1 X42.781 Y-78.418 E48.51085
G1 X43.596 Y-76.258 E48.78508
G1 X43.715 Y-75.001 E48.93504
G1 X43.715 Y-14.000 E56.17984
G1 X43.385 Y0.905 E57.95050
G1 E56.95050 F2400.00000
G92 E0
G1 X4.808 Y66.472 F3900.000
G1 E1.00000 F2400.00000
G1 X5.340 Y66.541 E1.06374 F1800.000
G1 X5.903 Y66.770 E1.13587
G1 X6.317 Y67.071 E1.19671
G1 X6.698 Y67.505 E1.26534
G1 X6.944 Y67.966 E1.32736
G1 X7.091 Y68.535 E1.39720
G1 X7.115 Y71.105 E1.70237
G1 X6.955 Y71.912 E1.80019
G1 X6.437 Y72.687 E1.91085
G1 X5.662 Y73.205 E2.02151
G1 X4.860 Y73.364 E2.11871
G1 X-27.824 Y73.364 E6.00034
G1 X-28.402 Y73.287 E6.06962
G1 X-29.202 Y72.894 E6.17554
G1 X-29.793 Y72.221 E6.28188
G1 X-30.042 Y71.614 E6.35976
G1 X-30.114 Y71.074 E6.42454
G1 X-30.114 Y68.926 E6.67956
G1 X-30.053 Y68.464 E6.73497
G1 X-29.922 Y68.052 E6.78626
G1 X-29.613 Y67.526 E6.85877
G1 X-29.046 Y67.004 E6.95031
G1 X-28.242 Y66.684 E7.05307
G1 X-27.814 Y66.636 E7.10419
G1 X-24.638 Y66.620 E7.48149
G1 X4.748 Y66.473 E10.97147 F1800.000
G1 X4.764 Y67.187 F3900.000
G1 X5.157 Y67.237 E11.01856 F1800.000
G1 X5.553 Y67.398 E11.06933
G1 X5.832 Y67.602 E11.11038
G1 X6.107 Y67.915 E11.15983
G1 X6.274 Y68.227 E11.20194
G1 X6.378 Y68.629 E11.25123
G1 X6.400 Y71.038 E11.53728
G1 X6.282 Y71.634 E11.60949
G1 X5.922 Y72.172 E11.68638
G1 X5.384 Y72.532 E11.76327
G1 X4.789 Y72.650 E11.83527
G1 X-27.776 Y72.650 E15.70295
G1 X-28.192 Y72.595 E15.75270
G1 X-28.759 Y72.316 E15.82781
G1 X-29.178 Y71.839 E15.90315
G1 X-29.347 Y71.428 E15.95589
G1 X-29.400 Y71.026 E16.00403
G1 X-29.400 Y68.974 E16.24784
G1 X-29.353 Y68.620 E16.29023
G1 X-29.266 Y68.344 E16.32455
G1 X-29.052 Y67.979 E16.37483
G1 X-28.659 Y67.619 E16.43808
G1 X-28.068 Y67.383 E16.51376
G1 X-27.773 Y67.350 E16.54894 F1800.000
G1 X4.704 Y67.187 E20.40610
G1 X4.990 Y66.861 F3900.000
G1 E19.40610 F2400.00000
G92 E0
G1 X6.998 Y70.776 F3900.000
G1 X7.102 Y73.103 F3900.000
G1 X6.972 Y73.173 F3900.000
G1 E1.00000 F2400.00000
G1 X7.627 Y72.191 E1.14020 F1800.000
G1 X7.830 Y71.172 E1.26362
G1 X7.805 Y68.441 E1.58792
G1 X7.614 Y67.704 E1.67831
G1 X7.289 Y67.096 E1.76025
G1 X6.801 Y66.540 E1.84806
G1 X6.252 Y66.141 E1.92868
G1 X5.523 Y65.844 E2.02218
G1 X4.852 Y65.758 E2.10257
G1 X-27.856 Y65.922 E5.98711
G1 X-28.417 Y65.985 E6.05416
G1 X-29.433 Y66.389 E6.18400
G1 X-30.175 Y67.072 E6.30384
G1 X-30.579 Y67.760 E6.39857
G1 X-30.753 Y68.308 E6.46684
G1 X-30.828 Y68.879 E6.53527
G1 X-30.828 Y71.121 E6.80149
G1 X-30.738 Y71.800 E6.88291
G1 X-30.408 Y72.602 E6.98593
G1 X-29.907 Y73.173 E7.07603
G1 X-35.173 Y73.173 E7.70137
G1 X-35.173 Y20.828 E13.91806
G1 X-25.033 Y20.828 E15.12235
G1 X-24.933 Y21.118 E15.15872
G1 X-25.236 Y21.353 E15.20421
G1 X-25.756 Y22.113 E15.31360
G1 X-25.991 Y22.720 E15.39094
G1 X-26.078 Y23.379 E15.46989
G1 X-26.078 Y25.551 E15.72777
G1 X-26.035 Y26.340 E15.82172
G1 X-25.653 Y27.225 E15.93611
G1 X-25.095 Y27.880 E16.03828
G1 X-24.311 Y28.374 E16.14839
G1 X-23.479 Y28.581 E16.25018
G1 X27.153 Y28.578 E22.26353
G1 X27.954 Y28.443 E22.35999
G1 X28.785 Y28.034 E22.47000
G1 X29.527 Y27.292 E22.59462
G1 X29.981 Y26.357 E22.71803
G1 X30.078 Y25.621 E22.80626
G1 X30.078 Y23.379 E23.07248
G1 X29.983 Y22.665 E23.15808
G1 X29.611 Y21.850 E23.26450
G1 X29.172 Y21.299 E23.34816
G1 X28.937 Y21.120 E23.38324
G1 X29.035 Y20.828 E23.41979
G1 X33.172 Y20.828 E23.91103
G1 X33.172 Y69.260 E29.66307
G1 X33.242 Y72.659 E30.06680
G1 X33.210 Y73.173 E30.12792
G1 X7.032 Y73.173 E33.23700
G1 X6.969 Y27.865 F3900.000
G1 X-23.392 Y27.867 E36.84284 F1800.000
G1 X-24.027 Y27.709 E36.92060
G1 X-24.622 Y27.333 E37.00418
G1 X-25.040 Y26.843 E37.08066
G1 X-25.329 Y26.174 E37.16720
G1 X-25.364 Y25.531 E37.24373
G1 X-25.364 Y23.426 E37.49367
G1 X-25.294 Y22.898 E37.55694
G1 X-25.120 Y22.448 E37.61432
G1 X-24.710 Y21.849 E37.70054
G1 X-24.190 Y21.445 E37.77876
G1 X-23.625 Y21.211 E37.85133
G1 X-23.076 Y21.136 E37.91712
G1 X27.074 Y21.136 E43.87316 F1800.000
G1 X27.613 Y21.207 E43.93783
G1 X28.176 Y21.438 E44.01007
G1 X28.669 Y21.813 E44.08362
G1 X28.998 Y22.226 E44.14632
G1 X29.290 Y22.864 E44.22966
G1 X29.364 Y23.426 E44.29699
G1 X29.364 Y25.574 E44.55200
G1 X29.288 Y26.149 E44.62093
G1 X28.937 Y26.872 E44.71638
G1 X28.363 Y27.445 E44.81272
G1 X27.732 Y27.757 E44.89629
G1 X27.093 Y27.864 E44.97322
G1 X7.029 Y27.865 E47.35611
G1 X6.969 Y27.151 F3900.000
G1 X-23.304 Y27.153 E50.95153 F1800.000
G1 X-23.743 Y27.044 E51.00526
G1 X-24.149 Y26.787 E51.06232
G1 X-24.427 Y26.462 E51.11311
G1 X-24.622 Y26.008 E51.17180
G1 X-24.650 Y25.511 E51.23092
G1 X-24.650 Y23.474 E51.47290
G1 X-24.597 Y23.076 E51.52050
G1 X-24.484 Y22.782 E51.55792
G1 X-24.184 Y22.344 E51.62098
G1 X-23.828 Y22.068 E51.67451
G1 X-23.437 Y21.906 E51.72475
G1 X-23.027 Y21.850 E51.77384
G1 X27.026 Y21.850 E57.71848 F1800.000
G1 X27.428 Y21.903 E57.76658
G1 X27.818 Y22.063 E57.81671
G1 X28.166 Y22.328 E57.86856
G1 X28.385 Y22.603 E57.91030
G1 X28.596 Y23.064 E57.97056
G1 X28.650 Y23.474 E58.01961
G1 X28.650 Y25.526 E58.26342
G1 X28.595 Y25.941 E58.31304
G1 X28.347 Y26.452 E58.38053
G1 X27.942 Y26.857 E58.44860
G1 X27.510 Y27.070 E58.50572
G1 X27.033 Y27.150 E58.56313
G1 X7.029 Y27.151 E60.93893
G1 X6.769 Y27.498 F3900.000
G1 E59.93893 F2400.00000
G92 E0
G1 X27.066 Y21.250 F3900.000
G1 X33.886 Y20.114 F3900.000
G1 E1.00000 F2400.00000
G1 X33.886 Y69.253 E6.83597 F1800.000
G1 X33.957 Y72.674 E7.24235
G1 X33.881 Y73.887 E7.38669
G1 X-35.887 Y73.887 E15.67272
G1 X-35.887 Y20.114 E22.05904
G1 X33.826 Y20.114 E30.33848
G1 X34.600 Y19.400 F3900.000
G1 X34.600 Y69.245 E36.25839 F1800.000
G1 X34.672 Y72.689 E36.66741
G1 X34.600 Y73.836 E36.80399
G1 X34.600 Y74.601 E36.89479
G1 X-36.601 Y74.601 E45.35099
G1 X-36.601 Y19.400 E51.90695
G1 X34.540 Y19.400 E60.35602
G1 X34.400 Y19.746 F3900.000
G1 X32.749 Y21.594 F3900.000
G1 X32.406 Y21.251 E60.41370 F1800.000
G1 X31.395 Y21.251 E60.53394
G1 X32.749 Y22.605 E60.76167
G1 X32.749 Y23.616 E60.88192
G1 X30.384 Y21.251 E61.27970
G1 X30.319 Y22.198 E61.39253
G1 X32.749 Y24.628 E61.80118
G1 X32.749 Y25.639 E61.92142
G1 X30.501 Y23.391 E62.29947
G1 X30.501 Y24.402 E62.41972
G1 X32.749 Y26.650 E62.79777
G1 X32.749 Y27.661 E62.91801
G1 X30.501 Y25.413 E63.29606
G1 X30.394 Y26.317 E63.40428
G1 X32.749 Y28.672 E63.80041
G1 X32.749 Y29.684 E63.92065
G1 X30.076 Y27.011 E64.37012
G1 X29.691 Y27.637 E64.45751
G1 X32.749 Y30.695 E64.97180
G1 X32.749 Y31.706 E65.09204
G1 X29.185 Y28.142 E65.69136
G1 X28.580 Y28.549 E65.77801
G1 X32.749 Y32.717 E66.47906
G1 X32.749 Y33.729 E66.59930
G1 X27.881 Y28.861 E67.41788
G1 X27.010 Y29.001 E67.52280
G1 X32.749 Y34.740 E68.48787
G1 X32.749 Y35.751 E68.60811
G1 X25.999 Y29.001 E69.74322
G1 X24.988 Y29.001 E69.86346
G1 X32.749 Y36.762 E71.16862
G1 X32.749 Y37.773 E71.28886
G1 X23.977 Y29.001 E72.76406
G1 X22.966 Y29.001 E72.88429
G1 X32.749 Y38.785 E74.52953
G1 X32.749 Y39.796 E74.64978
G1 X21.954 Y29.001 E76.46506
G1 X20.943 Y29.001 E76.58529
G1 X32.749 Y40.807 E78.57062
G1 X32.749 Y41.818 E78.69086
G1 X19.932 Y29.001 E80.84622
G1 X18.921 Y29.001 E80.96646
G1 X32.749 Y42.829 E83.29187
G1 X32.749 Y43.841 E83.41211
G1 X17.910 Y29.001 E85.90756
G1 X16.899 Y29.002 E86.02779
G1 X32.749 Y44.852 E88.69328
G1 X32.749 Y45.863 E88.81353
G1 X15.888 Y29.002 E91.64906
G1 X14.876 Y29.002 E91.76929
G1 X32.749 Y46.874 E94.77487
G1 X32.749 Y47.886 E94.89511
G1 X13.865 Y29.002 E98.07072
G1 X12.854 Y29.002 E98.19096
G1 X32.749 Y48.897 E101.53662
G1 X32.749 Y49.908 E101.65686
G1 X11.843 Y29.002 E105.17256
G1 X10.832 Y29.002 E105.29280
G1 X32.749 Y50.919 E108.97854
G1 X32.749 Y51.930 E109.09878
G1 X9.821 Y29.002 E112.95456
G1 X8.809 Y29.002 E113.07480
G1 X32.749 Y52.942 E117.10062
G1 X32.749 Y53.953 E117.22087
G1 X7.798 Y29.002 E121.41673
G1 X6.787 Y29.002 E121.53697
G1 X32.749 Y54.964 E125.90287
G1 X32.749 Y55.975 E126.02312
G1 X5.776 Y29.002 E130.55907
G1 X4.765 Y29.002 E130.67930
G1 X32.749 Y56.986 E135.38529
G1 X32.749 Y57.998 E135.50554
G1 X3.754 Y29.002 E140.38157
G1 X2.743 Y29.002 E140.50181
G1 X32.749 Y59.009 E145.54788
G1 X32.749 Y60.020 E145.66812
G1 X1.731 Y29.002 E150.88424
G1 X0.720 Y29.003 E151.00447
G1 X32.749 Y61.031 E156.39063
G1 X32.749 Y62.043 E156.51087
G1 X-0.291 Y29.003 E162.06707
G1 X-1.302 Y29.003 E162.18731
G1 X32.749 Y63.054 E167.91355
G1 X32.749 Y64.065 E168.03379
G1 X-2.313 Y29.003 E173.93008
G1 X-3.324 Y29.003 E174.05031
G1 X32.749 Y65.076 E180.11664
G1 X32.749 Y66.087 E180.23688
G1 X-4.336 Y29.003 E186.47325
G1 X-5.347 Y29.003 E186.59348
G1 X32.749 Y67.099 E192.99989
G1 X32.749 Y68.110 E193.12013
G1 X-6.358 Y29.003 E199.69658
G1 X-7.369 Y29.003 E199.81682
G1 X32.749 Y69.121 E206.56331
G1 X32.764 Y70.147 E206.68538
G1 X-8.380 Y29.003 E213.60446
G1 X-9.391 Y29.003 E213.72470
G1 X32.786 Y71.180 E220.81745
G1 X32.807 Y72.213 E220.94028
G1 X-10.403 Y29.003 E228.20669
G1 X-11.414 Y29.003 E228.32692
G1 X32.333 Y72.750 E235.68364
G1 X31.322 Y72.750 E235.80388
G1 X-12.425 Y29.003 E243.16059
G1 X-13.436 Y29.003 E243.28083
G1 X30.311 Y72.750 E250.63752
G1 X29.299 Y72.750 E250.75777
G1 X-14.447 Y29.003 E258.11445
G1 X-15.458 Y29.003 E258.23469
G1 X28.288 Y72.750 E265.59137
G1 X27.277 Y72.750 E265.71161
G1 X-16.469 Y29.004 E273.06828
G1 X-17.481 Y29.004 E273.18852
G1 X26.266 Y72.750 E280.54517
G1 X25.255 Y72.750 E280.66542
G1 X-18.492 Y29.004 E288.02206
G1 X-19.503 Y29.004 E288.14230
G1 X24.243 Y72.750 E295.49893
G1 X23.232 Y72.750 E295.61918
G1 X-20.514 Y29.004 E302.97580
G1 X-21.525 Y29.004 E303.09604
G1 X22.221 Y72.750 E310.45265
G1 X21.210 Y72.750 E310.57290
G1 X-22.536 Y29.004 E317.92950
G1 X-23.548 Y29.004 E318.04974
G1 X20.199 Y72.750 E325.40634
G1 X19.187 Y72.750 E325.52658
G1 X-25.001 Y28.562 E332.95754
G1 X-26.082 Y27.481 F3900.000
G1 X-32.312 Y21.251 E334.00514 F1800.000
G1 X-33.323 Y21.251 E334.12538
G1 X18.176 Y72.750 E342.78577
G1 X17.165 Y72.750 E342.90601
G1 X-34.334 Y21.251 E351.56640
G1 X-34.750 Y21.846 E351.65275
G1 X16.154 Y72.750 E360.21302
G1 X15.142 Y72.750 E360.33326
G1 X-34.750 Y22.858 E368.72348
G1 X-34.750 Y23.869 E368.84372
G1 X14.131 Y72.750 E377.06389
G1 X13.120 Y72.750 E377.18413
G1 X8.102 Y67.732 E378.02796
G1 X8.233 Y68.874 E378.16461
G1 X12.109 Y72.750 E378.81643
G1 X11.098 Y72.750 E378.93667
G1 X8.242 Y69.895 E379.41684
G1 X8.252 Y70.915 E379.53822
G1 X10.086 Y72.750 E379.84675
G1 X9.075 Y72.750 E379.96700
G1 X8.112 Y71.786 E380.12905
G1 X5.804 Y65.434 F3900.000
G1 X-34.750 Y24.880 E386.94880 F1800.000
G1 X-34.750 Y25.891 E387.06905
G1 X4.696 Y65.337 E393.70248
G1 X3.690 Y65.342 E393.82213
G1 X-34.750 Y26.902 E400.28636
G1 X-34.750 Y27.914 E400.40661
G1 X2.683 Y65.347 E406.70164
G1 X1.677 Y65.352 E406.82129
G1 X-34.750 Y28.925 E412.94712
G1 X-34.750 Y29.936 E413.06736
G1 X0.671 Y65.357 E419.02399
G1 X-0.335 Y65.362 E419.14363
G1 X-34.750 Y30.947 E424.93105
G1 X-34.750 Y31.958 E425.05130
G1 X-1.341 Y65.367 E430.66952
G1 X-2.347 Y65.372 E430.78917
G1 X-34.750 Y32.970 E436.23818
G1 X-34.750 Y33.981 E436.35843
G1 X-3.354 Y65.377 E441.63824
G1 X-4.360 Y65.382 E441.75789
G1 X-34.750 Y34.992 E446.86850
G1 X-34.750 Y36.003 E446.98874
G1 X-5.366 Y65.387 E451.93015
G1 X-6.372 Y65.393 E452.04980
G1 X-34.750 Y37.015 E456.82200
G1 X-34.750 Y38.026 E456.94225
G1 X-7.378 Y65.398 E461.54525
G1 X-8.384 Y65.403 E461.66489
G1 X-34.750 Y39.037 E466.09869
G1 X-34.750 Y40.048 E466.21894
G1 X-9.391 Y65.408 E470.48353
G1 X-10.397 Y65.413 E470.60318
G1 X-34.750 Y41.059 E474.69857
G1 X-34.750 Y42.071 E474.81882
G1 X-11.403 Y65.418 E478.74501
G1 X-12.409 Y65.423 E478.86465
G1 X-34.750 Y43.082 E482.62164
G1 X-34.750 Y44.093 E482.74188
G1 X-13.415 Y65.428 E486.32967
G1 X-14.421 Y65.433 E486.44932
G1 X-34.750 Y45.104 E489.86790
G1 X-34.750 Y46.115 E489.98814
G1 X-15.428 Y65.438 E493.23752
G1 X-16.434 Y65.443 E493.35717
G1 X-34.750 Y47.127 E496.43734
G1 X-34.750 Y48.138 E496.55759
G1 X-17.440 Y65.448 E499.46856
G1 X-18.446 Y65.453 E499.58820
G1 X-34.750 Y49.149 E502.32997
G1 X-34.750 Y50.160 E502.45022
G1 X-19.452 Y65.458 E505.02278
G1 X-20.458 Y65.463 E505.14243
G1 X-34.750 Y51.172 E507.54579
G1 X-34.750 Y52.183 E507.66604
G1 X-21.465 Y65.468 E509.90020
G1 X-22.471 Y65.473 E510.01984
G1 X-34.750 Y53.194 E512.08480
G1 X-34.750 Y54.205 E512.20505
G1 X-23.477 Y65.478 E514.10080
G1 X-24.483 Y65.483 E514.22045
G1 X-34.750 Y55.216 E515.94700
G1 X-34.750 Y56.228 E516.06724
G1 X-25.489 Y65.488 E517.62459
G1 X-26.495 Y65.493 E517.74424
G1 X-34.750 Y57.239 E519.13238
G1 X-34.750 Y58.250 E519.25263
G1 X-27.502 Y65.499 E520.47157
G1 X-28.428 Y65.583 E520.58224
G1 X-34.750 Y59.261 E521.64532
G1 X-34.750 Y60.273 E521.76556
G1 X-29.152 Y65.871 E522.70704
G1 X-29.798 Y66.236 E522.79530
G1 X-34.750 Y61.284 E523.62808
G1 X-34.750 Y62.295 E523.74833
G1 X-30.325 Y66.720 E524.49252
G1 X-30.742 Y67.314 E524.57882
G1 X-34.750 Y63.306 E525.25275
G1 X-34.750 Y64.317 E525.37300
G1 X-31.060 Y68.007 E525.99352
G1 X-31.232 Y68.847 E526.09543
G1 X-34.750 Y65.329 E526.68711
G1 X-34.750 Y66.340 E526.80735
G1 X-31.251 Y69.839 E527.39578
G1 X-31.251 Y70.850 E527.51602
G1 X-34.750 Y67.351 E528.10445
G1 X-34.750 Y68.362 E528.22469
G1 X-31.167 Y71.946 E528.82730
G1 X-31.373 Y72.750 E528.92606
G1 X-34.750 Y69.373 E529.49389
G1 X-34.750 Y70.385 E529.61414
G1 X-32.385 Y72.750 E530.01191
G1 X-33.396 Y72.750 E530.13216
G1 X-34.750 Y71.396 E530.35988
G1 X-34.750 Y72.407 E530.48013
G1 X-34.407 Y72.750 E530.53780
G1 X-26.481 Y26.070 F3900.000
G1 X-31.301 Y21.251 E531.34820 F1800.000
G1 X-30.289 Y21.251 E531.46845
G1 X-26.501 Y25.039 E532.10552
G1 X-26.501 Y24.028 E532.22576
G1 X-29.278 Y21.251 E532.69278
G1 X-28.267 Y21.251 E532.81303
G1 X-26.445 Y23.073 E533.11937
G1 X-26.226 Y22.280 E533.21713
G1 X-27.256 Y21.251 E533.39021
G1 X-26.244 Y21.251 E533.51045
G1 X-25.866 Y21.629 E533.57409
G1 E532.57409 F2400.00000
G92 E0
G1 X35.000 Y19.000 F3900.000
G1 X37.001 Y-14.000 F3900.000
G1 X35.173 Y-15.828 F3900.000
G1 E1.00000 F2400.00000
G1 X-35.173 Y-15.828 E9.35458 F1800.000
G1 X-35.173 Y-73.173 E16.16509
