; generated by Slic3r 1.2.6 on 2015-05-14 at 16:41:24

; external perimeters extrusion width = 0.40mm
; perimeters extrusion width = 0.67mm
; infill extrusion width = 0.67mm
; solid infill extrusion width = 0.67mm
; top infill extrusion width = 0.67mm

M107
M190 S55 ; set bed temperature
(**** start.gcode for The Replicator, dual head ****)
M72 P0
M70 P2 (Hello Patrick)
M103 (disable RPM)
M73 P0 (enable build progress)
G21 (set units to mm)
G90 (set positioning to absolute)
M109 S50 T0 (set HBP temperature)
M104 S210 T0 (set extruder temperature) (temp updated by printOMatic)
(**** begin homing ****)
M72 P0
M70 P2 (...homing...)
G162 X Y F2500 (home XY axes maximum)
G161 Z F1100 (home Z axis minimum)
G92 Z-5 (set Z to -5)
G1 Z0.0 (move Z to "0")
G161 Z F100 (home Z axis minimum)
M132 X Y Z A B (Recall stored home offsets for XYZAB axis)
(**** end homing ****)
M72 P0
M70 P2 (...heating...)
G1 X-110.5 Y-74 Z150 F3300.0 (move to waiting position)
G130 X20 Y20 Z20 A20 B20 (Lower stepper Vrefs while heating)
M6 T0 (wait for toolhead, and HBP to reach temperature)
G130 X127 Y127 Z40 A127 B127 (Set Stepper motor Vref to defaults)
M108 R3.0 T0
M72 P0
M70 P2 (...away we go...)
G0 X-110.5 Y-74 (Position Nozzle)
G0 Z0.6      (Position Height)
M108 R5.0    (Set Extruder Speed)
M72 P1
(**** end of start.gcode ****)

G21 ; set units to millimeters
G90 ; use absolute coordinates
M82 ; use absolute distances for extrusion
G92 E0
G1 Z0.400 F3900.000
G1 E-1.00000 F2400.00000
G92 E0
G1 X-2.187 Y40.977 F3900.000
G1 E1.00000 F2400.00000
G1 X-72.859 Y37.205 E9.40537 F1800.000
G1 X-75.110 Y36.687 E9.67959
G1 X-77.051 Y35.438 E9.95382
G1 X-78.455 Y33.605 E10.22804
G1 X-79.216 Y30.500 E10.60763
G1 X-79.216 Y-30.501 E17.85242
G1 X-78.819 Y-32.775 E18.12665
G1 X-77.675 Y-34.781 E18.40087
G1 X-75.919 Y-36.280 E18.67510
G1 X-72.972 Y-37.198 E19.04167
G1 X16.031 Y-43.448 E29.63816
G1 X16.501 Y-43.465 E29.69405
G1 X72.501 Y-43.465 E36.34490
G1 X74.776 Y-43.068 E36.61913
G1 X76.782 Y-41.924 E36.89335 F1800.000
G1 X78.281 Y-40.168 E37.16758
G1 X79.097 Y-38.008 E37.44180
G1 X79.216 Y-36.751 E37.59177
G1 X79.216 Y35.250 E46.14298
G1 X78.819 Y37.525 E46.41720
G1 X77.675 Y39.531 E46.69143
G1 X75.919 Y41.030 E46.96565
G1 X73.759 Y41.846 E47.23988
G1 X72.511 Y41.965 E47.38878
G1 X18.814 Y42.037 E53.76602
G1 X16.144 Y41.955 E54.08335
G1 X-2.127 Y40.980 E56.25635
G1 E55.25635 F2400.00000
G92 E0
G1 X63.636 Y4.223 F3900.000
G1 E1.00000 F2400.00000
G1 X63.634 Y-23.141 E4.24996 F1800.000
G1 X63.793 Y-23.777 E4.32772
G1 X64.168 Y-24.372 E4.41130
G1 X64.658 Y-24.790 E4.48778
G1 X65.327 Y-25.078 E4.57432
G1 X65.971 Y-25.114 E4.65086
G1 X68.075 Y-25.114 E4.90079 F1800.000
G1 X68.605 Y-25.043 E4.96425
G1 X69.093 Y-24.853 E5.02646
G1 X69.659 Y-24.452 E5.10886
G1 X70.057 Y-23.939 E5.18596
G1 X70.290 Y-23.374 E5.25852
G1 X70.366 Y-22.826 E5.32432
G1 X70.366 Y27.324 E11.28036
G1 X70.294 Y27.864 E11.34503
G1 X70.063 Y28.427 E11.41727
G1 X69.688 Y28.919 E11.49082
G1 X69.275 Y29.248 E11.55352
G1 X68.637 Y29.540 E11.63686
G1 X68.075 Y29.615 E11.70418
G1 X65.928 Y29.615 E11.95920
G1 X65.364 Y29.540 E12.02674
G1 X64.664 Y29.217 E12.11833
G1 X64.057 Y28.616 E12.21977
G1 X63.745 Y27.982 E12.30364
G1 X63.637 Y27.344 E12.38057
G1 X63.636 Y4.283 E15.11933
G1 X64.350 Y4.223 F3900.000
G1 X64.348 Y-23.054 E18.35888 F1800.000
G1 X64.458 Y-23.493 E18.41261
G1 X64.714 Y-23.899 E18.46966
G1 X65.040 Y-24.176 E18.52045
G1 X65.493 Y-24.372 E18.57914
G1 X65.990 Y-24.400 E18.63826
G1 X68.028 Y-24.400 E18.88025 F1800.000
G1 X68.426 Y-24.347 E18.92791
G1 X68.752 Y-24.220 E18.96944
G1 X69.159 Y-23.931 E19.02880
G1 X69.434 Y-23.577 E19.08194
G1 X69.595 Y-23.186 E19.13218
G1 X69.651 Y-22.777 E19.18126
G1 X69.651 Y27.277 E25.12591
G1 X69.598 Y27.678 E25.17400
G1 X69.438 Y28.069 E25.22413
G1 X69.174 Y28.416 E25.27598
G1 X68.899 Y28.635 E25.31772
G1 X68.437 Y28.846 E25.37798
G1 X68.028 Y28.900 E25.42703
G1 X65.975 Y28.900 E25.67084
G1 X65.565 Y28.846 E25.71997
G1 X65.077 Y28.621 E25.78378
G1 X64.645 Y28.193 E25.85606
G1 X64.432 Y27.761 E25.91329
G1 X64.352 Y27.284 E25.97069
G1 X64.350 Y4.283 E28.70236
G1 X64.004 Y4.023 F3900.000
G1 E27.70236 F2400.00000
G92 E0
G1 X70.251 Y27.317 F3900.000
G1 X70.673 Y29.286 F3900.000
G1 E1.00000 F2400.00000
G1 X70.673 Y33.422 E1.49124 F1800.000
G1 X22.242 Y33.422 E7.24318
G1 X18.843 Y33.493 E7.64691
G1 X18.330 Y33.461 E7.70802
G1 X18.330 Y7.223 E10.82414
G1 X19.311 Y7.878 E10.96421
G1 X20.330 Y8.080 E11.08762
G1 X23.079 Y8.055 E11.41407
G1 X23.858 Y7.837 E11.51019
G1 X24.413 Y7.533 E11.58536
G1 X24.961 Y7.052 E11.67201
G1 X25.357 Y6.508 E11.75193
G1 X25.640 Y5.824 E11.83978
G1 X25.743 Y5.118 E11.92451
G1 X25.579 Y-27.608 E15.81126
G1 X25.510 Y-28.215 E15.88381
G1 X25.102 Y-29.193 E16.00973
G1 X24.429 Y-29.925 E16.12776
G1 X23.742 Y-30.329 E16.22249
G1 X23.194 Y-30.502 E16.29076
G1 X22.622 Y-30.578 E16.35919
G1 X20.381 Y-30.578 E16.62542
G1 X19.701 Y-30.488 E16.70684
G1 X18.899 Y-30.157 E16.80985
G1 X18.330 Y-29.658 E16.89980
G1 X18.330 Y-34.922 E17.52503
G1 X70.673 Y-34.922 E23.74160
G1 X70.673 Y-24.782 E24.94589
G1 X70.383 Y-24.683 E24.98226
G1 X70.158 Y-24.973 E25.02591
G1 X69.434 Y-25.487 E25.13135
G1 X68.784 Y-25.740 E25.21423
G1 X68.122 Y-25.828 E25.29348
G1 X65.951 Y-25.828 E25.55137
G1 X65.161 Y-25.784 E25.64532
G1 X64.277 Y-25.403 E25.75970
G1 X63.622 Y-24.845 E25.86188
G1 X63.127 Y-24.060 E25.97198
G1 X62.920 Y-23.229 E26.07377
G1 X62.923 Y27.403 E32.08712
G1 X63.058 Y28.204 E32.18358
G1 X63.469 Y29.039 E32.29408
G1 X64.250 Y29.813 E32.42469
G1 X65.163 Y30.234 E32.54405
G1 X65.881 Y30.329 E32.63001
G1 X68.122 Y30.329 E32.89623
G1 X68.837 Y30.234 E32.98183
G1 X69.652 Y29.862 E33.08825
G1 X70.203 Y29.423 E33.17191
G1 X70.382 Y29.188 E33.20699
G1 X70.616 Y29.267 E33.23641
G1 X60.602 Y30.295 F3900.000
G1 X24.730 Y6.156 F3900.000
G1 X24.430 Y6.567 E33.29682 F1800.000
G1 X24.001 Y6.944 E33.36475
G1 X23.587 Y7.172 E33.42084
G1 X22.977 Y7.342 E33.49595
G1 X20.397 Y7.366 E33.80243
G1 X19.589 Y7.205 E33.90025
G1 X18.814 Y6.688 E34.01091
G1 X18.297 Y5.913 E34.12157
G1 X18.137 Y5.110 E34.21877
G1 X18.137 Y-27.573 E38.10040
G1 X18.214 Y-28.151 E38.16968
G1 X18.608 Y-28.952 E38.27560
G1 X19.281 Y-29.542 E38.38195
G1 X19.887 Y-29.792 E38.45982
G1 X20.428 Y-29.864 E38.52460
G1 X22.575 Y-29.864 E38.77962 F1800.000
G1 X23.038 Y-29.802 E38.83503
G1 X23.449 Y-29.672 E38.88633
G1 X23.976 Y-29.363 E38.95883
G1 X24.491 Y-28.802 E39.04928
G1 X24.812 Y-28.033 E39.14824
G1 X24.865 Y-27.565 E39.20416
G1 X25.029 Y5.068 E43.07991
G1 X24.946 Y5.633 E43.14772
G1 X24.753 Y6.101 E43.20784
G1 X24.102 Y5.804 F3900.000
G1 X23.900 Y6.083 E43.24874 F1800.000
G1 X23.588 Y6.356 E43.29794
G1 X23.315 Y6.506 E43.33495
G1 X22.876 Y6.629 E43.38906
G1 X20.464 Y6.651 E43.67558
G1 X19.868 Y6.532 E43.74780
G1 X19.329 Y6.173 E43.82469
G1 X18.970 Y5.634 E43.90158
G1 X18.851 Y5.040 E43.97357
G1 X18.851 Y-27.526 E47.84126
G1 X18.907 Y-27.941 E47.89101
G1 X19.186 Y-28.509 E47.96611
G1 X19.663 Y-28.927 E48.04146
G1 X20.073 Y-29.096 E48.09420
G1 X20.475 Y-29.150 E48.14234
G1 X22.528 Y-29.150 E48.38615 F1800.000
G1 X22.882 Y-29.103 E48.42853
G1 X23.157 Y-29.015 E48.46285
G1 X23.522 Y-28.801 E48.51314
G1 X23.881 Y-28.411 E48.57599
G1 X24.114 Y-27.852 E48.64800
G1 X24.151 Y-27.523 E48.68729
G1 X24.315 Y5.018 E52.55205
G1 X24.253 Y5.442 E52.60294
G1 X24.125 Y5.749 E52.64245
G1 X24.267 Y6.107 F3900.000
G1 X17.616 Y34.132 F3900.000
G1 X17.616 Y-35.636 E60.92848 F1800.000
G1 X71.387 Y-35.636 E67.31468
G1 X71.387 Y34.136 E75.60125
G1 X22.249 Y34.136 E81.43712
G1 X18.828 Y34.208 E81.84349
G1 X17.676 Y34.136 E81.98069
G1 X16.901 Y34.850 F3900.000
G1 X16.901 Y-36.351 E90.43689 F1800.000
G1 X72.101 Y-36.351 E96.99273
G1 X72.101 Y34.850 E105.44893
G1 X22.257 Y34.850 E111.36873
G1 X18.814 Y34.922 E111.77776
G1 X17.666 Y34.850 E111.91434
G1 X16.961 Y34.850 E111.99800
G1 X17.101 Y34.504 F3900.000
G1 X19.095 Y33.068 F3900.000
G1 X18.752 Y32.726 E112.05563 F1800.000
G1 X18.752 Y31.714 E112.17602
G1 X20.086 Y33.047 E112.40043
G1 X21.077 Y33.027 E112.51838
G1 X18.752 Y30.702 E112.90956
G1 X18.752 Y29.690 E113.02995
G1 X22.068 Y33.006 E113.58790
G1 X23.074 Y33.000 E113.70750
G1 X18.752 Y28.678 E114.43458
G1 X18.752 Y27.667 E114.55497
G1 X24.085 Y33.000 E115.45230
G1 X25.097 Y33.000 E115.57268
G1 X18.752 Y26.655 E116.64026
G1 X18.752 Y25.643 E116.76065
G1 X26.109 Y33.000 E117.99848
G1 X27.121 Y33.000 E118.11886
G1 X18.752 Y24.631 E119.52693
G1 X18.752 Y23.619 E119.64732
G1 X28.133 Y33.000 E121.22564
G1 X29.144 Y33.000 E121.34602
G1 X18.752 Y22.608 E123.09459
G1 X18.752 Y21.596 E123.21498
G1 X30.156 Y33.000 E125.13379
G1 X31.168 Y33.000 E125.25418
G1 X18.752 Y20.584 E127.34324
G1 X18.752 Y19.572 E127.46363
G1 X32.180 Y33.000 E129.72294
G1 X33.192 Y33.000 E129.84332
G1 X18.752 Y18.560 E132.27288
G1 X18.752 Y17.549 E132.39326
G1 X34.203 Y33.000 E134.99307
G1 X35.215 Y33.000 E135.11345
G1 X18.752 Y16.537 E137.88351
G1 X18.752 Y15.525 E138.00389
G1 X36.227 Y33.000 E140.94419
G1 X37.239 Y33.000 E141.06458
G1 X18.752 Y14.513 E144.17513
G1 X18.752 Y13.501 E144.29551
G1 X38.251 Y33.000 E147.57631
G1 X39.262 Y33.000 E147.69669
G1 X18.752 Y12.490 E151.14773
G1 X18.752 Y11.478 E151.26812
G1 X40.274 Y33.000 E154.88941
G1 X41.286 Y33.000 E155.00979
G1 X18.752 Y10.466 E158.80133
G1 X18.752 Y9.454 E158.92172
G1 X42.298 Y33.000 E162.88350
G1 X43.310 Y33.000 E163.00388
G1 X18.752 Y8.442 E167.13592
G1 X19.751 Y8.429 E167.25476
G1 X44.321 Y33.000 E171.38899
G1 X45.333 Y33.000 E171.50937
G1 X20.831 Y8.497 E175.63221
G1 X21.833 Y8.488 E175.75149
G1 X46.345 Y33.000 E179.87589
G1 X47.357 Y33.000 E179.99627
G1 X22.836 Y8.479 E184.12223
G1 X23.663 Y8.294 E184.22308
G1 X48.369 Y33.000 E188.38007
G1 X49.380 Y33.000 E188.50046
G1 X24.362 Y7.981 E192.71012
G1 X24.941 Y7.549 E192.79613
G1 X50.392 Y33.000 E197.07857
G1 X51.404 Y33.000 E197.19895
G1 X25.429 Y7.025 E201.56953
G1 X25.811 Y6.395 E201.65718
G1 X52.416 Y33.000 E206.13375
G1 X53.427 Y33.000 E206.25414
G1 X26.073 Y5.645 E210.85689
G1 X26.165 Y4.725 E210.96687
G1 X54.439 Y33.000 E215.72439
G1 X55.451 Y33.000 E215.84477
G1 X26.160 Y3.708 E220.77339
G1 X26.155 Y2.691 E220.89438
G1 X56.463 Y33.000 E225.99411
G1 X57.475 Y33.000 E226.11449
G1 X26.150 Y1.674 E231.38533
G1 X26.145 Y0.658 E231.50632
G1 X58.486 Y33.000 E236.94826
G1 X59.498 Y33.000 E237.06864
G1 X26.139 Y-0.359 E242.68169
G1 X26.134 Y-1.376 E242.80268
G1 X60.510 Y33.000 E248.58683
G1 X61.522 Y33.000 E248.70721
G1 X26.129 Y-2.393 E254.66247
G1 X26.124 Y-3.410 E254.78346
G1 X62.534 Y33.000 E260.90982
G1 X63.545 Y33.000 E261.03021
G1 X26.119 Y-4.427 E267.32768
G1 X26.114 Y-5.444 E267.44867
G1 X64.557 Y33.000 E273.91724
G1 X65.569 Y33.000 E274.03762
G1 X26.109 Y-6.461 E280.67730
G1 X26.104 Y-7.478 E280.79830
G1 X66.581 Y33.000 E287.60908
G1 X65.292 Y30.698 F3900.000
G1 X67.593 Y33.000 E287.99628 F1800.000
G1 X68.604 Y33.000 E288.11666
G1 X66.356 Y30.751 E288.49493
G1 X67.368 Y30.751 E288.61531
G1 X69.616 Y33.000 E288.99358
G1 X70.251 Y32.622 E289.08140
G1 X68.336 Y30.708 E289.40347
G1 X69.144 Y30.504 E289.50260
G1 X70.251 Y31.610 E289.68873
G1 X70.251 Y30.598 E289.80912
G1 X69.832 Y30.180 E289.87953
G1 X62.562 Y27.969 F3900.000
G1 X26.099 Y-8.495 E296.01499 F1800.000
G1 X26.093 Y-9.511 E296.13598
G1 X62.501 Y26.896 E302.26191
G1 X62.500 Y25.884 E302.38230
G1 X26.088 Y-10.528 E308.50908
G1 X26.083 Y-11.545 E308.63007
G1 X62.500 Y24.872 E314.75770
G1 X62.500 Y23.860 E314.87809
G1 X26.078 Y-12.562 E321.00657
G1 X26.073 Y-13.579 E321.12756
G1 X62.500 Y22.848 E327.25689
G1 X62.500 Y21.836 E327.37728
G1 X26.068 Y-14.596 E333.50745
G1 X26.063 Y-15.613 E333.62844
G1 X62.500 Y20.824 E339.75947
G1 X62.500 Y19.813 E339.87986
G1 X26.058 Y-16.630 E346.01173
G1 X26.053 Y-17.647 E346.13272
G1 X62.500 Y18.801 E352.26544
G1 X62.500 Y17.789 E352.38583
G1 X26.048 Y-18.664 E358.51940
G1 X26.042 Y-19.680 E358.64039
G1 X62.500 Y16.777 E364.77480
G1 X62.500 Y15.765 E364.89519
G1 X26.037 Y-20.697 E371.03046
G1 X26.032 Y-21.714 E371.15145
G1 X62.500 Y14.753 E377.28756
G1 X62.500 Y13.741 E377.40795
G1 X26.027 Y-22.731 E383.54491
G1 X26.022 Y-23.748 E383.66590
G1 X62.500 Y12.730 E389.80371
G1 X62.500 Y11.718 E389.92410
G1 X26.017 Y-24.765 E396.06276
G1 X26.012 Y-25.782 E396.18375
G1 X62.500 Y10.706 E402.32326
G1 X62.499 Y9.694 E402.44365
G1 X26.007 Y-26.799 E408.58400
G1 X25.999 Y-27.818 E408.70532
G1 X62.499 Y8.682 E414.84698
G1 X62.499 Y7.670 E414.96737
G1 X25.636 Y-29.193 E421.17011
G1 X18.752 Y-31.018 F3900.000
G1 X19.116 Y-30.654 E421.23133 F1800.000
G1 X19.865 Y-30.917 E421.32575
G1 X18.752 Y-32.029 E421.51293
G1 X18.752 Y-33.041 E421.63332
G1 X20.793 Y-31.000 E421.97670
G1 X21.805 Y-31.000 E422.09708
G1 X18.752 Y-34.053 E422.61071
G1 X19.318 Y-34.500 E422.69641
G1 X22.818 Y-31.000 E423.28531
G1 X24.122 Y-30.707 E423.44441
G1 X20.330 Y-34.500 E424.08260
G1 X21.341 Y-34.500 E424.20298
G1 X62.499 Y6.658 E431.12833
G1 X62.499 Y5.647 E431.24872
G1 X22.353 Y-34.500 E438.00381
G1 X23.365 Y-34.500 E438.12419
G1 X62.499 Y4.635 E444.70902
G1 X62.499 Y3.623 E444.82941
G1 X24.377 Y-34.500 E451.24398
G1 X25.388 Y-34.500 E451.36436
G1 X62.499 Y2.611 E457.60868
G1 X62.499 Y1.599 E457.72907
G1 X26.400 Y-34.500 E463.80313
G1 X27.412 Y-34.500 E463.92351
G1 X62.499 Y0.587 E469.82731
G1 X62.499 Y-0.425 E469.94770
G1 X28.424 Y-34.500 E475.68124
G1 X29.436 Y-34.500 E475.80162
G1 X62.499 Y-1.436 E481.36491
G1 X62.499 Y-2.448 E481.48530
G1 X30.447 Y-34.500 E486.87833
G1 X31.459 Y-34.500 E486.99871
G1 X62.499 Y-3.460 E492.22148
G1 X62.499 Y-4.472 E492.34187
G1 X32.471 Y-34.500 E497.39438
G1 X33.483 Y-34.500 E497.51476
G1 X62.499 Y-5.484 E502.39702
G1 X62.499 Y-6.496 E502.51741
G1 X34.495 Y-34.500 E507.22940
G1 X35.506 Y-34.500 E507.34979
G1 X62.498 Y-7.508 E511.89153
G1 X62.498 Y-8.519 E512.01192
G1 X36.518 Y-34.500 E516.38340
G1 X37.530 Y-34.500 E516.50378
G1 X62.498 Y-9.531 E520.70501
G1 X62.498 Y-10.543 E520.82540
G1 X38.542 Y-34.500 E524.85636
G1 X39.554 Y-34.500 E524.97675
G1 X62.498 Y-11.555 E528.83745
G1 X62.498 Y-12.567 E528.95784
G1 X40.565 Y-34.500 E532.64830
G1 X41.577 Y-34.500 E532.76868
G1 X62.498 Y-13.579 E536.28887
G1 X62.498 Y-14.591 E536.40926
G1 X42.589 Y-34.500 E539.75920
G1 X43.601 Y-34.500 E539.87958
G1 X62.498 Y-15.602 E543.05926
G1 X62.498 Y-16.614 E543.17965
G1 X44.613 Y-34.500 E546.18907
G1 X45.624 Y-34.500 E546.30946
G1 X62.498 Y-17.626 E549.14862
G1 X62.498 Y-18.638 E549.26901
G1 X46.636 Y-34.500 E551.93792
G1 X47.648 Y-34.500 E552.05830
G1 X62.498 Y-19.650 E554.55695
G1 X62.498 Y-20.662 E554.67734
G1 X48.660 Y-34.500 E557.00573
G1 X49.672 Y-34.500 E557.12611
G1 X62.498 Y-21.674 E559.28425
G1 X62.498 Y-22.685 E559.40464
G1 X50.683 Y-34.500 E561.39251
G1 X51.695 Y-34.500 E561.51290
G1 X62.607 Y-23.588 E563.34896
G1 X62.870 Y-24.337 E563.44341
G1 X52.707 Y-34.500 E565.15344
G1 X53.719 Y-34.500 E565.27382
G1 X63.261 Y-24.957 E566.87945
G1 X63.778 Y-25.452 E566.96459
G1 X54.731 Y-34.500 E568.48698
G1 X55.742 Y-34.500 E568.60736
G1 X64.384 Y-25.858 E570.06147
G1 X65.091 Y-26.162 E570.15307
G1 X56.754 Y-34.500 E571.55590
G1 X57.766 Y-34.500 E571.67628
G1 X66.019 Y-26.247 E573.06492
G1 X67.027 Y-26.250 E573.18486
G1 X58.778 Y-34.500 E574.57287
G1 X59.790 Y-34.500 E574.69325
G1 X68.039 Y-26.250 E576.08126
G1 X69.199 Y-26.102 E576.22043
G1 X60.801 Y-34.500 E577.63341
G1 X61.813 Y-34.500 E577.75380
G1 X70.251 Y-26.062 E579.17349
G1 X70.251 Y-27.074 E579.29387
G1 X62.825 Y-34.500 E580.54331
G1 X63.837 Y-34.500 E580.66370
G1 X70.251 Y-28.086 E581.74290
G1 X70.251 Y-29.098 E581.86328
G1 X64.849 Y-34.500 E582.77223
G1 X65.860 Y-34.500 E582.89261
G1 X70.251 Y-30.109 E583.63131
G1 X70.251 Y-31.121 E583.75170
G1 X66.872 Y-34.500 E584.32015
G1 X67.884 Y-34.500 E584.44053
G1 X70.251 Y-32.133 E584.83874
G1 X70.251 Y-33.145 E584.95913
G1 X68.896 Y-34.500 E585.18709
G1 X69.908 Y-34.500 E585.30747
G1 X70.251 Y-34.157 E585.36518
G1 Z0.400 F3900.000
G1 E584.36518 F2400.00000
G92 E0
G1 X16.087 Y-37.751 F3900.000
G1 X2.501 Y-30.915 F3900.000
G1 X-0.328 Y-28.672 F3900.000
G1 E1.00000 F2400.00000
G1 X-0.328 Y28.672 E7.81051 F1800.000
G1 X-70.673 Y28.672 E16.16509
