; generated by Slic3r 1.2.6 on 2015-05-14 at 16:36:20

; external perimeters extrusion width = 0.40mm
; perimeters extrusion width = 0.67mm
; infill extrusion width = 0.67mm
; solid infill extrusion width = 0.67mm
; top infill extrusion width = 0.67mm

M107
M190 S55 ; set bed temperature
(**** start.gcode for The Replicator, dual head ****)
M72 P0
M70 P2 (Hello Patrick)
M103 (disable RPM)
M73 P0 (enable build progress)
G21 (set units to mm)
G90 (set positioning to absolute)
M109 S50 T0 (set HBP temperature)
M104 S210 T0 (set extruder temperature) (temp updated by printOMatic)
(**** begin homing ****)
M72 P0
M70 P2 (...homing...)
G162 X Y F2500 (home XY axes maximum)
G161 Z F1100 (home Z axis minimum)
G92 Z-5 (set Z to -5)
G1 Z0.0 (move Z to "0")
G161 Z F100 (home Z axis minimum)
M132 X Y Z A B (Recall stored home offsets for XYZAB axis)
(**** end homing ****)
M72 P0
M70 P2 (...heating...)
G1 X-110.5 Y-74 Z150 F3300.0 (move to waiting position)
G130 X20 Y20 Z20 A20 B20 (Lower stepper Vrefs while heating)
M6 T0 (wait for toolhead, and HBP to reach temperature)
G130 X127 Y127 Z40 A127 B127 (Set Stepper motor Vref to defaults)
M108 R3.0 T0
M72 P0
M70 P2 (...away we go...)
G0 X-110.5 Y-74 (Position Nozzle)
G0 Z0.6      (Position Height)
M108 R5.0    (Set Extruder Speed)
M101         (Start Extruder)
G4 P2000     (Create Anchor)
M72 P1
(**** end of start.gcode ****)

G21 ; set units to millimeters
G90 ; use absolute coordinates
M82 ; use absolute distances for extrusion
G92 E0
G1 Z0.400 F3900.000
G1 X2.187 Y40.977 F3900.000
G1 X-16.492 Y41.965 E2.22156 F1800.000
G1 X-70.189 Y42.037 E8.59880
G1 X-72.711 Y41.961 E8.89853
G1 X-74.972 Y41.494 E9.17275
G1 X-76.941 Y40.287 E9.44697
G1 X-78.385 Y38.485 E9.72120
G1 X-79.216 Y35.250 E10.11786
G1 X-79.216 Y-36.751 E18.66908
G1 X-78.819 Y-39.025 E18.94330
G1 X-77.675 Y-41.031 E19.21753
G1 X-75.919 Y-42.530 E19.49175
G1 X-73.759 Y-43.346 E19.76598
G1 X-72.501 Y-43.465 E19.91594
G1 X-16.501 Y-43.465 E26.56679
G1 X-16.031 Y-43.448 E26.62268
G1 X72.972 Y-37.198 E37.21917 F1800.000
G1 X75.213 Y-36.643 E37.49340
G1 X77.134 Y-35.361 E37.76762
G1 X78.506 Y-33.504 E38.04185
G1 X79.216 Y-30.501 E38.40842
G1 X79.216 Y30.500 E45.65321
G1 X78.819 Y32.775 E45.92744
G1 X77.675 Y34.781 E46.20166
G1 X75.919 Y36.280 E46.47589
G1 X72.859 Y37.205 E46.85547
G1 X2.247 Y40.974 E55.25372
G1 E54.25372 F2400.00000
G92 E0
G1 X0.328 Y28.672 F3900.000
G1 E1.00000 F2400.00000
G1 X0.328 Y-28.672 E7.81051 F1800.000
G1 X70.673 Y-28.672 E16.16509
G1 X70.673 Y28.672 E22.97561
G1 X0.388 Y28.672 E31.32306
G1 X-0.386 Y29.386 F3900.000
G1 X-0.386 Y-29.386 E38.30321 F1800.000
G1 X71.387 Y-29.386 E46.82742
G1 X71.387 Y29.386 E53.80757
G1 X-0.326 Y29.386 E62.32466
G1 X-1.101 Y30.100 F3900.000
G1 X-1.101 Y-30.101 E69.47444 F1800.000
G1 X72.102 Y-30.101 E78.16829
G1 X72.102 Y30.100 E85.31807
G1 X-1.041 Y30.100 E94.00479
G1 X-0.901 Y29.754 F3900.000
G1 X0.750 Y27.907 F3900.000
G1 X1.093 Y28.250 E94.06243 F1800.000
G1 X2.104 Y28.250 E94.18253
G1 X0.750 Y26.896 E94.41001
G1 X0.750 Y25.885 E94.53010
G1 X3.115 Y28.250 E94.92742
G1 X4.125 Y28.250 E95.04752
G1 X0.750 Y24.875 E95.61468
G1 X0.750 Y23.864 E95.73478
G1 X5.136 Y28.250 E96.47178
G1 X6.146 Y28.250 E96.59188
G1 X0.750 Y22.854 E97.49872
G1 X0.750 Y21.843 E97.61882
G1 X7.157 Y28.250 E98.69550
G1 X8.168 Y28.250 E98.81560
G1 X0.750 Y20.832 E100.06213
G1 X0.750 Y19.822 E100.18222
G1 X9.178 Y28.250 E101.59859
G1 X10.189 Y28.250 E101.71869
G1 X0.750 Y18.811 E103.30490
G1 X0.750 Y17.801 E103.42500
G1 X11.199 Y28.250 E105.18105
G1 X12.210 Y28.250 E105.30115
G1 X0.750 Y16.790 E107.22704
G1 X0.750 Y15.780 E107.34714
G1 X13.220 Y28.250 E109.44288
G1 X14.231 Y28.250 E109.56297
G1 X0.750 Y14.769 E111.82855
G1 X0.750 Y13.758 E111.94865
G1 X15.242 Y28.250 E114.38407
G1 X16.252 Y28.250 E114.50417
G1 X0.750 Y12.748 E117.10943
G1 X0.750 Y11.737 E117.22953
G1 X17.263 Y28.250 E120.00463
G1 X18.273 Y28.250 E120.12473
G1 X0.750 Y10.727 E123.06967
G1 X0.750 Y9.716 E123.18977
G1 X19.284 Y28.250 E126.30456
G1 X20.295 Y28.250 E126.42465
G1 X0.750 Y8.705 E129.70928
G1 X0.750 Y7.695 E129.82938
G1 X21.305 Y28.250 E133.28385
G1 X22.316 Y28.250 E133.40395
G1 X0.750 Y6.684 E137.02826
G1 X0.750 Y5.674 E137.14835
G1 X23.326 Y28.250 E140.94251
G1 X24.337 Y28.250 E141.06261
G1 X0.750 Y4.663 E145.02660
G1 X0.750 Y3.652 E145.14670
G1 X25.348 Y28.250 E149.28054
G1 X26.358 Y28.250 E149.40063
G1 X0.750 Y2.642 E153.70431
G1 X0.750 Y1.631 E153.82441
G1 X27.369 Y28.250 E158.29793
G1 X28.379 Y28.250 E158.41803
G1 X0.750 Y0.621 E163.06139
G1 X0.750 Y-0.390 E163.18149
G1 X29.390 Y28.250 E167.99469
G1 X30.401 Y28.250 E168.11479
G1 X0.750 Y-1.401 E173.09783
G1 X0.750 Y-2.411 E173.21793
G1 X31.411 Y28.250 E178.37082
G1 X32.422 Y28.250 E178.49092
G1 X0.750 Y-3.422 E183.81365
G1 X0.750 Y-4.432 E183.93374
G1 X33.432 Y28.250 E189.42631
G1 X34.443 Y28.250 E189.54641
G1 X0.750 Y-5.443 E195.20882
G1 X0.750 Y-6.453 E195.32892
G1 X35.453 Y28.250 E201.16118
G1 X36.464 Y28.250 E201.28127
G1 X0.750 Y-7.464 E207.28337
G1 X0.750 Y-8.475 E207.40347
G1 X37.475 Y28.250 E213.57541
G1 X38.485 Y28.250 E213.69550
G1 X0.750 Y-9.485 E220.03728
G1 X0.750 Y-10.496 E220.15738
G1 X39.496 Y28.250 E226.66900
G1 X40.506 Y28.250 E226.78910
G1 X0.750 Y-11.506 E233.47056
G1 X0.750 Y-12.517 E233.59066
G1 X41.517 Y28.250 E240.44196
G1 X42.528 Y28.250 E240.56206
G1 X0.750 Y-13.528 E247.58321
G1 X0.750 Y-14.538 E247.70330
G1 X43.538 Y28.250 E254.89429
G1 X44.549 Y28.250 E255.01439
G1 X0.750 Y-15.549 E262.37522
G1 X0.750 Y-16.559 E262.49532
G1 X45.559 Y28.250 E270.02599
G1 X46.570 Y28.250 E270.14609
G1 X0.750 Y-17.570 E277.84660
G1 X0.750 Y-18.581 E277.96670
G1 X47.581 Y28.250 E285.83705
G1 X48.591 Y28.250 E285.95715
G1 X0.750 Y-19.591 E293.99735
G1 X0.750 Y-20.602 E294.11744
G1 X49.602 Y28.250 E302.32748
G1 X50.612 Y28.250 E302.44758
G1 X0.750 Y-21.612 E310.82746
G1 X0.750 Y-22.623 E310.94756
G1 X51.623 Y28.250 E319.49728
G1 X52.634 Y28.250 E319.61738
G1 X0.750 Y-23.634 E328.33694
G1 X0.750 Y-24.644 E328.45704
G1 X53.644 Y28.250 E337.34645
G1 X54.655 Y28.250 E337.46654
G1 X0.750 Y-25.655 E346.52579
G1 X0.750 Y-26.665 E346.64589
G1 X55.665 Y28.250 E355.87498
G1 X56.676 Y28.250 E355.99507
G1 X0.750 Y-27.676 E365.39401
G1 X1.187 Y-28.250 E365.47970
G1 X57.686 Y28.250 E374.97504
G1 X58.697 Y28.250 E375.09514
G1 X2.198 Y-28.250 E384.59048
G1 X3.209 Y-28.250 E384.71058
G1 X59.708 Y28.250 E394.20592
G1 X60.718 Y28.250 E394.32601
G1 X4.219 Y-28.250 E403.82135
G1 X5.230 Y-28.250 E403.94145
G1 X61.729 Y28.250 E413.43679
G1 X62.739 Y28.250 E413.55689
G1 X6.240 Y-28.250 E423.05223
G1 X7.251 Y-28.250 E423.17233
G1 X63.750 Y28.250 E432.66767
G1 X64.761 Y28.250 E432.78776
G1 X8.262 Y-28.250 E442.28311
G1 X9.272 Y-28.250 E442.40320
G1 X65.771 Y28.250 E451.89854
G1 X66.782 Y28.250 E452.01864
G1 X10.283 Y-28.250 E461.51398
G1 X11.293 Y-28.250 E461.63408
G1 X67.792 Y28.250 E471.12942
G1 X68.803 Y28.250 E471.24951
G1 X12.304 Y-28.250 E480.74486
G1 X13.314 Y-28.250 E480.86495
G1 X69.814 Y28.250 E490.36029
G1 X70.251 Y27.676 E490.44599
G1 X14.325 Y-28.250 E499.84493
G1 X15.336 Y-28.250 E499.96502
G1 X70.251 Y26.665 E509.19412
G1 X70.251 Y25.655 E509.31422
G1 X16.346 Y-28.250 E518.37347
G1 X17.357 Y-28.250 E518.49357
G1 X70.251 Y24.644 E527.38298
G1 X70.251 Y23.634 E527.50308
G1 X18.367 Y-28.250 E536.22265
G1 X19.378 Y-28.250 E536.34275
G1 X70.251 Y22.623 E544.89248
G1 X70.251 Y21.612 E545.01257
G1 X20.389 Y-28.250 E553.39246
G1 X21.399 Y-28.250 E553.51256
G1 X70.251 Y20.602 E561.72261
G1 X70.251 Y19.591 E561.84270
G1 X22.410 Y-28.250 E569.88291
G1 X23.420 Y-28.250 E570.00301
G1 X70.251 Y18.581 E577.87337
G1 X70.251 Y17.570 E577.99347
G1 X24.431 Y-28.250 E585.69399
G1 X25.442 Y-28.250 E585.81408
G1 X70.251 Y16.559 E593.34476
G1 X70.251 Y15.549 E593.46486
G1 X26.452 Y-28.250 E600.82570
G1 X27.463 Y-28.250 E600.94579
G1 X70.251 Y14.538 E608.13679
G1 X70.251 Y13.528 E608.25689
G1 X28.473 Y-28.250 E615.27804
G1 X29.484 Y-28.250 E615.39814
G1 X70.251 Y12.517 E622.24945
G1 X70.251 Y11.506 E622.36955
G1 X30.495 Y-28.250 E629.05102
G1 X31.505 Y-28.250 E629.17112
G1 X70.251 Y10.496 E635.68275
G1 X70.251 Y9.485 E635.80284
G1 X32.516 Y-28.250 E642.14463
G1 X33.526 Y-28.250 E642.26473
G1 X70.251 Y8.475 E648.43667
G1 X70.251 Y7.464 E648.55677
G1 X34.537 Y-28.250 E654.55887
G1 X35.547 Y-28.250 E654.67897
G1 X70.251 Y6.454 E660.51123
G1 X70.251 Y5.443 E660.63133
G1 X36.558 Y-28.250 E666.29375
G1 X37.569 Y-28.250 E666.41385
G1 X70.251 Y4.432 E671.90643
G1 X70.251 Y3.422 E672.02652
G1 X38.579 Y-28.250 E677.34926
G1 X39.590 Y-28.250 E677.46936
G1 X70.251 Y2.411 E682.62225
G1 X70.251 Y1.401 E682.74235
G1 X40.600 Y-28.250 E687.72540
G1 X41.611 Y-28.250 E687.84550
G1 X70.251 Y0.390 E692.65871
G1 X70.251 Y-0.621 E692.77881
G1 X42.622 Y-28.250 E697.42218
G1 X43.632 Y-28.250 E697.54228
G1 X70.251 Y-1.631 E702.01580
G1 X70.251 Y-2.642 E702.13590
G1 X44.643 Y-28.250 E706.43959
G1 X45.653 Y-28.250 E706.55968
G1 X70.251 Y-3.652 E710.69353
G1 X70.251 Y-4.663 E710.81363
G1 X46.664 Y-28.250 E714.77763
G1 X47.675 Y-28.250 E714.89773
G1 X70.251 Y-5.674 E718.69189
G1 X70.251 Y-6.684 E718.81198
G1 X48.685 Y-28.250 E722.43631
G1 X49.696 Y-28.250 E722.55640
G1 X70.251 Y-7.695 E726.01088
G1 X70.251 Y-8.705 E726.13098
G1 X50.706 Y-28.250 E729.41561
G1 X51.717 Y-28.250 E729.53571
G1 X70.251 Y-9.716 E732.65050
G1 X70.251 Y-10.727 E732.77060
G1 X52.728 Y-28.250 E735.71555
G1 X53.738 Y-28.250 E735.83565
G1 X70.251 Y-11.737 E738.61076
G1 X70.251 Y-12.748 E738.73086
G1 X54.749 Y-28.250 E741.33613
G1 X55.759 Y-28.250 E741.45622
G1 X70.251 Y-13.758 E743.89165
G1 X70.251 Y-14.769 E744.01175
G1 X56.770 Y-28.250 E746.27734
G1 X57.780 Y-28.250 E746.39743
G1 X70.251 Y-15.779 E748.49318
G1 X70.251 Y-16.790 E748.61327
G1 X58.791 Y-28.250 E750.53918
G1 X59.802 Y-28.250 E750.65927
G1 X70.251 Y-17.801 E752.41533
G1 X70.251 Y-18.811 E752.53543
G1 X60.812 Y-28.250 E754.12165
G1 X61.823 Y-28.250 E754.24175
G1 X70.251 Y-19.822 E755.65812
G1 X70.251 Y-20.832 E755.77822
G1 X62.833 Y-28.250 E757.02476
G1 X63.844 Y-28.250 E757.14485
G1 X70.251 Y-21.843 E758.22155
G1 X70.251 Y-22.854 E758.34164
G1 X64.855 Y-28.250 E759.24850
G1 X65.865 Y-28.250 E759.36859
G1 X70.251 Y-23.864 E760.10560
G1 X70.251 Y-24.875 E760.22570
G1 X66.876 Y-28.250 E760.79287
G1 X67.886 Y-28.250 E760.91296
G1 X70.251 Y-25.885 E761.31029
G1 X70.251 Y-26.896 E761.43039
G1 X68.897 Y-28.250 E761.65787
G1 X69.908 Y-28.250 E761.77797
G1 X70.251 Y-27.907 E761.83561
G1 Z0.400 F3900.000
G1 E760.83561 F2400.00000
G92 E0
G1 X-1.915 Y-31.501 F3900.000
G1 X-15.501 Y-37.165 F3900.000
G1 X-18.637 Y-22.826 F3900.000
G1 E1.00000 F2400.00000
G1 X-18.637 Y27.324 E6.95604 F1800.000
G1 X-18.709 Y27.864 E7.02071
G1 X-18.940 Y28.427 E7.09295
G1 X-19.315 Y28.919 E7.16650
G1 X-19.728 Y29.248 E7.22920
G1 X-20.366 Y29.540 E7.31254
G1 X-20.928 Y29.615 E7.37987
G1 X-23.075 Y29.615 E7.63488
G1 X-23.639 Y29.540 E7.70243
G1 X-24.339 Y29.217 E7.79401
G1 X-24.946 Y28.616 E7.89546
G1 X-25.258 Y27.982 E7.97932
G1 X-25.366 Y27.344 E8.05625
G1 X-25.369 Y-23.141 E14.05210
G1 X-25.210 Y-23.777 E14.12986
G1 X-24.835 Y-24.372 E14.21344
G1 X-24.345 Y-24.790 E14.28992
G1 X-23.676 Y-25.078 E14.37646
G1 X-23.032 Y-25.114 E14.45300
G1 X-20.928 Y-25.114 E14.70293 F1800.000
G1 X-20.398 Y-25.043 E14.76639
G1 X-19.910 Y-24.853 E14.82859
G1 X-19.344 Y-24.452 E14.91100
G1 X-18.946 Y-23.939 E14.98810
G1 X-18.713 Y-23.374 E15.06066
G1 X-18.646 Y-22.885 E15.11933
G1 X-19.351 Y-22.777 F3900.000
G1 X-19.351 Y27.277 E21.06397 F1800.000
G1 X-19.405 Y27.678 E21.11207
G1 X-19.565 Y28.069 E21.16219
G1 X-19.829 Y28.416 E21.21405
G1 X-20.104 Y28.635 E21.25579
G1 X-20.566 Y28.846 E21.31604
G1 X-20.975 Y28.900 E21.36510
G1 X-23.028 Y28.900 E21.60890
G1 X-23.438 Y28.846 E21.65803
G1 X-23.926 Y28.621 E21.72184
G1 X-24.358 Y28.193 E21.79412
G1 X-24.571 Y27.761 E21.85135
G1 X-24.651 Y27.284 E21.90876
G1 X-24.655 Y-23.054 E27.88710
G1 X-24.545 Y-23.493 E27.94083
G1 X-24.289 Y-23.899 E27.99788
G1 X-23.963 Y-24.176 E28.04868
G1 X-23.510 Y-24.372 E28.10737
G1 X-23.013 Y-24.400 E28.16649
G1 X-20.975 Y-24.400 E28.40847 F1800.000
G1 X-20.577 Y-24.347 E28.45614
G1 X-20.251 Y-24.220 E28.49767
G1 X-19.844 Y-23.931 E28.55703
G1 X-19.569 Y-23.577 E28.61016
G1 X-19.408 Y-23.186 E28.66040
G1 X-19.360 Y-22.836 E28.70236
G1 X-18.996 Y-22.593 F3900.000
G1 X-18.330 Y-24.782 F3900.000
G1 X-18.620 Y-24.683 E28.73873 F1800.000
G1 X-18.845 Y-24.973 E28.78237
G1 X-19.569 Y-25.487 E28.88781
G1 X-20.219 Y-25.740 E28.97069
G1 X-20.881 Y-25.828 E29.04995
G1 X-23.052 Y-25.828 E29.30783
G1 X-23.842 Y-25.784 E29.40178
G1 X-24.726 Y-25.403 E29.51617
G1 X-25.381 Y-24.845 E29.61835
G1 X-25.876 Y-24.060 E29.72845
G1 X-26.083 Y-23.229 E29.83024
G1 X-26.080 Y27.403 E35.84359
G1 X-25.945 Y28.204 E35.94005
G1 X-25.534 Y29.039 E36.05055
G1 X-24.753 Y29.813 E36.18116
G1 X-23.840 Y30.234 E36.30052
G1 X-23.122 Y30.329 E36.38648
G1 X-20.881 Y30.329 E36.65270
G1 X-20.166 Y30.234 E36.73830
G1 X-19.351 Y29.862 E36.84472
G1 X-18.800 Y29.423 E36.92838
G1 X-18.621 Y29.188 E36.96346
G1 X-18.330 Y29.286 E37.00001
G1 X-18.330 Y33.422 E37.49125
G1 X-66.761 Y33.422 E43.24319
G1 X-70.160 Y33.493 E43.64691
G1 X-70.673 Y33.461 E43.70802
G1 X-70.673 Y7.223 E46.82415
G1 X-69.692 Y7.878 E46.96421
G1 X-68.673 Y8.080 E47.08763
G1 X-65.924 Y8.055 E47.41408
G1 X-65.145 Y7.837 E47.51019
G1 X-64.590 Y7.533 E47.58536
G1 X-64.042 Y7.052 E47.67202
G1 X-63.646 Y6.508 E47.75194
G1 X-63.363 Y5.824 E47.83979
G1 X-63.260 Y5.118 E47.92452
G1 X-63.424 Y-27.608 E51.81127
G1 X-63.493 Y-28.215 E51.88382
G1 X-63.901 Y-29.193 E52.00973
G1 X-64.574 Y-29.925 E52.12777
G1 X-65.261 Y-30.329 E52.22249
G1 X-65.809 Y-30.502 E52.29076
G1 X-66.381 Y-30.578 E52.35920
G1 X-68.622 Y-30.578 E52.62542
G1 X-69.302 Y-30.488 E52.70684
G1 X-70.104 Y-30.157 E52.80986
G1 X-70.673 Y-29.658 E52.89980
G1 X-70.673 Y-34.922 E53.52504
G1 X-18.330 Y-34.922 E59.74160
G1 X-18.330 Y-24.842 E60.93877
G1 X-64.123 Y-24.552 F3900.000
G1 X-63.974 Y5.068 E64.45667 F1800.000
G1 X-64.057 Y5.633 E64.52447
G1 X-64.273 Y6.156 E64.59172
G1 X-64.573 Y6.567 E64.65213
G1 X-65.002 Y6.944 E64.72005
G1 X-65.416 Y7.172 E64.77615
G1 X-66.026 Y7.342 E64.85126
G1 X-68.606 Y7.366 E65.15774
G1 X-69.414 Y7.205 E65.25556
G1 X-70.189 Y6.688 E65.36622
G1 X-70.706 Y5.913 E65.47688
G1 X-70.866 Y5.110 E65.57408
G1 X-70.866 Y-27.573 E69.45571
G1 X-70.789 Y-28.151 E69.52498
G1 X-70.395 Y-28.952 E69.63091
G1 X-69.722 Y-29.542 E69.73725
G1 X-69.116 Y-29.792 E69.81513
G1 X-68.575 Y-29.864 E69.87991
G1 X-66.428 Y-29.864 E70.13493 F1800.000
G1 X-65.965 Y-29.802 E70.19034
G1 X-65.554 Y-29.672 E70.24163
G1 X-65.027 Y-29.363 E70.31414
G1 X-64.512 Y-28.802 E70.40458
G1 X-64.191 Y-28.033 E70.50354
G1 X-64.138 Y-27.565 E70.55946
G1 X-64.123 Y-24.612 E70.91020
G1 X-64.837 Y-24.549 F3900.000
G1 X-64.688 Y5.018 E74.42170 F1800.000
G1 X-64.750 Y5.442 E74.47259
G1 X-64.901 Y5.804 E74.51922
G1 X-65.103 Y6.083 E74.56012
G1 X-65.415 Y6.356 E74.60932
G1 X-65.688 Y6.506 E74.64634
G1 X-66.127 Y6.629 E74.70044
G1 X-68.539 Y6.651 E74.98696
G1 X-69.135 Y6.532 E75.05918
G1 X-69.674 Y6.173 E75.13607
G1 X-70.033 Y5.634 E75.21296
G1 X-70.151 Y5.040 E75.28496
G1 X-70.151 Y-27.526 E79.15264
G1 X-70.096 Y-27.941 E79.20239
G1 X-69.817 Y-28.509 E79.27749
G1 X-69.340 Y-28.927 E79.35284
G1 X-68.930 Y-29.096 E79.40558
G1 X-68.528 Y-29.150 E79.45372
G1 X-66.475 Y-29.150 E79.69753 F1800.000
G1 X-66.121 Y-29.103 E79.73992
G1 X-65.846 Y-29.015 E79.77424
G1 X-65.481 Y-28.801 E79.82452
G1 X-65.122 Y-28.411 E79.88738
G1 X-64.889 Y-27.852 E79.95938
G1 X-64.852 Y-27.523 E79.99867
G1 X-64.837 Y-24.609 E80.34481
G1 X-64.489 Y-24.350 F3900.000
G1 E79.34481 F2400.00000
G92 E0
G1 X-68.568 Y-29.749 F3900.000
G1 X-71.387 Y-35.636 F3900.000
G1 E1.00000 F2400.00000
G1 X-17.616 Y-35.636 E7.38620 F1800.000
G1 X-17.616 Y34.136 E15.67277
G1 X-66.754 Y34.136 E21.50864
G1 X-70.174 Y34.208 E21.91502
G1 X-71.387 Y34.132 E22.05934
G1 X-71.387 Y-35.576 E30.33824
G1 X-72.102 Y-36.351 F3900.000
G1 X-16.901 Y-36.351 E36.89408 F1800.000
G1 X-16.901 Y34.850 E45.35028
G1 X-66.746 Y34.850 E51.27008
G1 X-70.189 Y34.922 E51.67911
