; generated by Slic3r 1.2.6 on 2015-05-14 at 16:50:27

; external perimeters extrusion width = 0.40mm
; perimeters extrusion width = 0.67mm
; infill extrusion width = 0.67mm
; solid infill extrusion width = 0.67mm
; top infill extrusion width = 0.67mm

M107
M190 S55 ; set bed temperature
(**** start.gcode for The Replicator, dual head ****)
M72 P0
M70 P2 (Hello Patrick)
M103 (disable RPM)
M73 P0 (enable build progress)
G21 (set units to mm)
G90 (set positioning to absolute)
M109 S50 T0 (set HBP temperature)
M104 S210 T0 (set extruder temperature) (temp updated by printOMatic)
(**** begin homing ****)
M72 P0
M70 P2 (...homing...)
G162 X Y F2500 (home XY axes maximum)
G161 Z F1100 (home Z axis minimum)
G92 Z-5 (set Z to -5)
G1 Z0.0 (move Z to "0")
G161 Z F100 (home Z axis minimum)
M132 X Y Z A B (Recall stored home offsets for XYZAB axis)
(**** end homing ****)
M72 P0
M70 P2 (...heating...)
G1 X-110.5 Y-74 Z150 F3300.0 (move to waiting position)
G130 X20 Y20 Z20 A20 B20 (Lower stepper Vrefs while heating)
M6 T0 (wait for toolhead, and HBP to reach temperature)
G130 X127 Y127 Z40 A127 B127 (Set Stepper motor Vref to defaults)
M108 R3.0 T0
M72 P0
M70 P2 (...away we go...)
G0 X-110.5 Y-74 (Position Nozzle)
G0 Z0.6      (Position Height)
M72 P1
(**** end of start.gcode ****)

G21 ; set units to millimeters
G90 ; use absolute coordinates
M82 ; use absolute distances for extrusion
G92 E0
G1 Z0.400 F3900.000
G1 X0.000 Y37.215 F3900.000
G1 X-37.001 Y37.215 E4.39443 F1800.000
G1 X-39.276 Y36.818 E4.66866
G1 X-41.281 Y35.674 E4.94288
G1 X-42.781 Y33.918 E5.21710
G1 X-43.596 Y31.758 E5.49133
G1 X-43.715 Y30.500 E5.64130
G1 X-43.715 Y-30.500 E12.88609
G1 X-43.318 Y-32.775 E13.16032
G1 X-42.174 Y-34.781 E13.43454
G1 X-40.418 Y-36.280 E13.70877
G1 X-38.258 Y-37.096 E13.98299
G1 X-37.001 Y-37.215 E14.13296
G1 X37.001 Y-37.215 E22.92182
G1 X39.276 Y-36.818 E23.19604
G1 X41.281 Y-35.674 E23.47027 F1800.000
G1 X42.781 Y-33.918 E23.74449
G1 X43.596 Y-31.758 E24.01872
G1 X43.715 Y-30.500 E24.16868
G1 X43.715 Y30.500 E31.41348
G1 X43.318 Y32.775 E31.68770
G1 X42.174 Y34.781 E31.96193
G1 X40.418 Y36.280 E32.23615
G1 X38.258 Y37.096 E32.51038
G1 X37.001 Y37.215 E32.66034
G1 X0.060 Y37.215 E37.04765
G1 E36.04765 F2400.00000
G92 E0
G1 X-35.173 Y28.672 F3900.000
G1 E1.00000 F2400.00000
G1 X-35.173 Y-28.672 E7.81051 F1800.000
G1 X35.173 Y-28.672 E16.16509
G1 X35.173 Y28.672 E22.97561
G1 X-35.113 Y28.672 E31.32306
G1 X-35.887 Y29.386 F3900.000
G1 X-35.887 Y-29.386 E38.30321 F1800.000
G1 X35.887 Y-29.386 E46.82742
G1 X35.887 Y29.386 E53.80757
G1 X-35.827 Y29.386 E62.32466
G1 X-36.601 Y30.101 F3900.000
G1 X-36.601 Y-30.101 E69.47444 F1800.000
G1 X36.601 Y-30.101 E78.16829
G1 X36.601 Y30.101 E85.31807
G1 X-36.541 Y30.101 E94.00479
G1 X-36.401 Y29.754 F3900.000
G1 X-34.750 Y27.907 F3900.000
G1 X-34.407 Y28.250 E94.06243 F1800.000
G1 X-33.397 Y28.250 E94.18253
G1 X-34.750 Y26.896 E94.41001
G1 X-34.750 Y25.885 E94.53010
G1 X-32.386 Y28.250 E94.92742
G1 X-31.375 Y28.250 E95.04752
G1 X-34.750 Y24.875 E95.61468
G1 X-34.750 Y23.864 E95.73478
G1 X-30.365 Y28.250 E96.47178
G1 X-29.354 Y28.250 E96.59188
G1 X-34.750 Y22.854 E97.49872
G1 X-34.750 Y21.843 E97.61882
G1 X-28.344 Y28.250 E98.69550
G1 X-27.333 Y28.250 E98.81560
G1 X-34.750 Y20.832 E100.06213
G1 X-34.750 Y19.822 E100.18222
G1 X-26.322 Y28.250 E101.59859
G1 X-25.312 Y28.250 E101.71869
G1 X-34.750 Y18.811 E103.30490
G1 X-34.750 Y17.801 E103.42500
G1 X-24.301 Y28.250 E105.18105
G1 X-23.291 Y28.250 E105.30115
G1 X-34.750 Y16.790 E107.22704
G1 X-34.750 Y15.780 E107.34714
G1 X-22.280 Y28.250 E109.44288
G1 X-21.269 Y28.250 E109.56297
G1 X-34.750 Y14.769 E111.82855
G1 X-34.750 Y13.758 E111.94865
G1 X-20.259 Y28.250 E114.38407
G1 X-19.248 Y28.250 E114.50417
G1 X-34.750 Y12.748 E117.10943
G1 X-34.750 Y11.737 E117.22953
G1 X-18.238 Y28.250 E120.00463
G1 X-17.227 Y28.250 E120.12473
G1 X-34.750 Y10.727 E123.06967
G1 X-34.750 Y9.716 E123.18977
G1 X-16.216 Y28.250 E126.30456
G1 X-15.206 Y28.250 E126.42465
G1 X-34.750 Y8.705 E129.70928
G1 X-34.750 Y7.695 E129.82938
G1 X-14.195 Y28.250 E133.28385
G1 X-13.185 Y28.250 E133.40395
G1 X-34.750 Y6.684 E137.02826
G1 X-34.750 Y5.674 E137.14835
G1 X-12.174 Y28.250 E140.94251
G1 X-11.164 Y28.250 E141.06261
G1 X-34.750 Y4.663 E145.02660
G1 X-34.750 Y3.652 E145.14670
G1 X-10.153 Y28.250 E149.28054
G1 X-9.142 Y28.250 E149.40063
G1 X-34.750 Y2.642 E153.70431
G1 X-34.750 Y1.631 E153.82441
G1 X-8.132 Y28.250 E158.29793
G1 X-7.121 Y28.250 E158.41803
G1 X-34.750 Y0.621 E163.06139
G1 X-34.750 Y-0.390 E163.18149
G1 X-6.111 Y28.250 E167.99469
G1 X-5.100 Y28.250 E168.11479
G1 X-34.750 Y-1.401 E173.09783
G1 X-34.750 Y-2.411 E173.21793
G1 X-4.089 Y28.250 E178.37082
G1 X-3.079 Y28.250 E178.49092
G1 X-34.750 Y-3.422 E183.81365
G1 X-34.750 Y-4.432 E183.93374
G1 X-2.068 Y28.250 E189.42631
G1 X-1.058 Y28.250 E189.54641
G1 X-34.750 Y-5.443 E195.20882
G1 X-34.750 Y-6.453 E195.32892
G1 X-0.047 Y28.250 E201.16118
G1 X0.964 Y28.250 E201.28127
G1 X-34.750 Y-7.464 E207.28337
G1 X-34.750 Y-8.475 E207.40347
G1 X1.974 Y28.250 E213.57541
G1 X2.985 Y28.250 E213.69550
G1 X-34.750 Y-9.485 E220.03728
G1 X-34.750 Y-10.496 E220.15738
G1 X3.995 Y28.250 E226.66900
G1 X5.006 Y28.250 E226.78910
G1 X-34.750 Y-11.506 E233.47056
G1 X-34.750 Y-12.517 E233.59066
G1 X6.017 Y28.250 E240.44196
G1 X7.027 Y28.250 E240.56206
G1 X-34.750 Y-13.528 E247.58321
G1 X-34.750 Y-14.538 E247.70330
G1 X8.038 Y28.250 E254.89429
G1 X9.048 Y28.250 E255.01439
G1 X-34.750 Y-15.549 E262.37522
G1 X-34.750 Y-16.559 E262.49532
G1 X10.059 Y28.250 E270.02599
G1 X11.069 Y28.250 E270.14609
G1 X-34.750 Y-17.570 E277.84660
G1 X-34.750 Y-18.581 E277.96670
G1 X12.080 Y28.250 E285.83705
G1 X13.091 Y28.250 E285.95715
G1 X-34.750 Y-19.591 E293.99735
G1 X-34.750 Y-20.602 E294.11744
G1 X14.101 Y28.250 E302.32748
G1 X15.112 Y28.250 E302.44758
G1 X-34.750 Y-21.612 E310.82746
G1 X-34.750 Y-22.623 E310.94756
G1 X16.122 Y28.250 E319.49728
G1 X17.133 Y28.250 E319.61738
G1 X-34.750 Y-23.634 E328.33694
G1 X-34.750 Y-24.644 E328.45704
G1 X18.144 Y28.250 E337.34645
G1 X19.154 Y28.250 E337.46654
G1 X-34.750 Y-25.655 E346.52579
G1 X-34.750 Y-26.665 E346.64589
G1 X20.165 Y28.250 E355.87498
G1 X21.175 Y28.250 E355.99507
G1 X-34.750 Y-27.676 E365.39401
G1 X-34.313 Y-28.250 E365.47970
G1 X22.186 Y28.250 E374.97504
G1 X23.197 Y28.250 E375.09514
G1 X-33.303 Y-28.250 E384.59048
G1 X-32.292 Y-28.250 E384.71058
G1 X24.207 Y28.250 E394.20592
G1 X25.218 Y28.250 E394.32601
G1 X-31.281 Y-28.250 E403.82135
G1 X-30.271 Y-28.250 E403.94145
G1 X26.228 Y28.250 E413.43679
G1 X27.239 Y28.250 E413.55689
G1 X-29.260 Y-28.250 E423.05223
G1 X-28.250 Y-28.250 E423.17233
G1 X28.250 Y28.250 E432.66767
G1 X29.260 Y28.250 E432.78776
G1 X-27.239 Y-28.250 E442.28311
G1 X-26.228 Y-28.250 E442.40320
G1 X30.271 Y28.250 E451.89854
G1 X31.281 Y28.250 E452.01864
G1 X-25.218 Y-28.250 E461.51398
G1 X-24.207 Y-28.250 E461.63408
G1 X32.292 Y28.250 E471.12942
G1 X33.302 Y28.250 E471.24951
G1 X-23.197 Y-28.250 E480.74486
G1 X-22.186 Y-28.250 E480.86495
G1 X34.313 Y28.250 E490.36029
G1 X34.750 Y27.676 E490.44599
G1 X-21.175 Y-28.250 E499.84493
G1 X-20.165 Y-28.250 E499.96502
G1 X34.750 Y26.665 E509.19412
G1 X34.750 Y25.655 E509.31422
G1 X-19.154 Y-28.250 E518.37347
G1 X-18.144 Y-28.250 E518.49357
G1 X34.750 Y24.644 E527.38298
G1 X34.750 Y23.634 E527.50308
G1 X-17.133 Y-28.250 E536.22265
G1 X-16.122 Y-28.250 E536.34275
G1 X34.750 Y22.623 E544.89248
G1 X34.750 Y21.612 E545.01257
G1 X-15.112 Y-28.250 E553.39246
G1 X-14.101 Y-28.250 E553.51256
G1 X34.750 Y20.602 E561.72261
G1 X34.750 Y19.591 E561.84270
G1 X-13.091 Y-28.250 E569.88291
G1 X-12.080 Y-28.250 E570.00301
G1 X34.750 Y18.581 E577.87337
G1 X34.750 Y17.570 E577.99347
G1 X-11.070 Y-28.250 E585.69399
G1 X-10.059 Y-28.250 E585.81408
G1 X34.750 Y16.559 E593.34476
G1 X34.750 Y15.549 E593.46486
G1 X-9.048 Y-28.250 E600.82570
G1 X-8.038 Y-28.250 E600.94579
G1 X34.750 Y14.538 E608.13679
G1 X34.750 Y13.528 E608.25689
G1 X-7.027 Y-28.250 E615.27804
G1 X-6.017 Y-28.250 E615.39814
G1 X34.750 Y12.517 E622.24945
G1 X34.750 Y11.506 E622.36955
G1 X-5.006 Y-28.250 E629.05102
G1 X-3.995 Y-28.250 E629.17112
G1 X34.750 Y10.496 E635.68275
G1 X34.750 Y9.485 E635.80284
G1 X-2.985 Y-28.250 E642.14463
G1 X-1.974 Y-28.250 E642.26473
G1 X34.750 Y8.475 E648.43667
G1 X34.750 Y7.464 E648.55677
G1 X-0.964 Y-28.250 E654.55887
G1 X0.047 Y-28.250 E654.67897
G1 X34.750 Y6.454 E660.51123
G1 X34.750 Y5.443 E660.63133
G1 X1.058 Y-28.250 E666.29375
G1 X2.068 Y-28.250 E666.41385
G1 X34.750 Y4.432 E671.90643
G1 X34.750 Y3.422 E672.02652
G1 X3.079 Y-28.250 E677.34926
G1 X4.089 Y-28.250 E677.46936
G1 X34.750 Y2.411 E682.62225
G1 X34.750 Y1.401 E682.74235
G1 X5.100 Y-28.250 E687.72540
G1 X6.111 Y-28.250 E687.84550
G1 X34.750 Y0.390 E692.65871
G1 X34.750 Y-0.621 E692.77881
G1 X7.121 Y-28.250 E697.42218
G1 X8.132 Y-28.250 E697.54228
G1 X34.750 Y-1.631 E702.01580
G1 X34.750 Y-2.642 E702.13590
G1 X9.142 Y-28.250 E706.43959
G1 X10.153 Y-28.250 E706.55968
G1 X34.750 Y-3.652 E710.69353
G1 X34.750 Y-4.663 E710.81363
G1 X11.163 Y-28.250 E714.77763
G1 X12.174 Y-28.250 E714.89773
G1 X34.750 Y-5.674 E718.69189
G1 X34.750 Y-6.684 E718.81198
G1 X13.185 Y-28.250 E722.43631
G1 X14.195 Y-28.250 E722.55640
G1 X34.750 Y-7.695 E726.01088
G1 X34.750 Y-8.705 E726.13098
G1 X15.206 Y-28.250 E729.41561
G1 X16.216 Y-28.250 E729.53571
G1 X34.750 Y-9.716 E732.65050
G1 X34.750 Y-10.727 E732.77060
G1 X17.227 Y-28.250 E735.71555
G1 X18.238 Y-28.250 E735.83565
G1 X34.750 Y-11.737 E738.61076
G1 X34.750 Y-12.748 E738.73086
G1 X19.248 Y-28.250 E741.33613
G1 X20.259 Y-28.250 E741.45622
G1 X34.750 Y-13.758 E743.89165
G1 X34.750 Y-14.769 E744.01175
G1 X21.269 Y-28.250 E746.27734
G1 X22.280 Y-28.250 E746.39743
G1 X34.750 Y-15.779 E748.49318
G1 X34.750 Y-16.790 E748.61327
G1 X23.291 Y-28.250 E750.53918
G1 X24.301 Y-28.250 E750.65927
G1 X34.750 Y-17.801 E752.41533
G1 X34.750 Y-18.811 E752.53543
G1 X25.312 Y-28.250 E754.12165
G1 X26.322 Y-28.250 E754.24175
G1 X34.750 Y-19.822 E755.65812
G1 X34.750 Y-20.832 E755.77822
G1 X27.333 Y-28.250 E757.02476
G1 X28.344 Y-28.250 E757.14485
G1 X34.750 Y-21.843 E758.22155
G1 X34.750 Y-22.854 E758.34164
G1 X29.354 Y-28.250 E759.24850
G1 X30.365 Y-28.250 E759.36859
G1 X34.750 Y-23.864 E760.10560
G1 X34.750 Y-24.875 E760.22570
G1 X31.375 Y-28.250 E760.79287
G1 X32.386 Y-28.250 E760.91296
G1 X34.750 Y-25.885 E761.31029
G1 X34.750 Y-26.896 E761.43039
G1 X33.396 Y-28.250 E761.65787
G1 X34.407 Y-28.250 E761.77797
G1 X34.750 Y-27.907 E761.83561
M104 S200 ; set temperature
M140 S50 ; wait for bed temperature to be reached
G1 Z0.600 F3900.000
G1 X-35.680 Y29.179 F3900.000
G1 X-35.680 Y-29.179 E764.88457 F900.000
G1 X35.680 Y-29.179 E768.61277
G1 X35.680 Y29.179 E771.66173
G1 X-35.620 Y29.179 E775.38679
G1 X-36.308 Y29.808 F3900.000
G1 X-36.308 Y-29.808 E778.50140 F900.000
G1 X36.308 Y-29.808 E782.29524
G1 X36.308 Y29.808 E785.40986
G1 X-36.248 Y29.808 E789.20057
G1 X-36.801 Y30.300 F3900.000
G1 X-36.801 Y-30.301 E790.99989 F450.000
G1 X36.801 Y-30.301 E793.18523
G1 X36.801 Y30.300 E794.98455
G1 X-36.741 Y30.300 E797.16811
G1 X-36.601 Y29.954 F3900.000
G1 X-35.306 Y-28.499 F3900.000
G1 X-34.999 Y-28.805 E797.19085 F1200.000
G1 X-34.107 Y-28.805 E797.23767
G1 X-35.306 Y-27.606 E797.32662
G1 X-35.306 Y-26.714 E797.37344
G1 X-33.214 Y-28.805 E797.52861
G1 X-32.322 Y-28.805 E797.57543
G1 X-35.306 Y-25.822 E797.79681
G1 X-35.306 Y-24.929 E797.84363
G1 X-31.430 Y-28.805 E798.13123
G1 X-30.537 Y-28.805 E798.17805
G1 X-35.306 Y-24.037 E798.53186
G1 X-35.306 Y-23.145 E798.57868
G1 X-29.645 Y-28.805 E798.99870
G1 X-28.753 Y-28.805 E799.04552
G1 X-35.306 Y-22.252 E799.53176
G1 X-35.306 Y-21.360 E799.57858
G1 X-27.860 Y-28.805 E800.13104
G1 X-26.968 Y-28.805 E800.17786
G1 X-35.306 Y-20.467 E800.79652
G1 X-35.306 Y-19.575 E800.84335
G1 X-26.076 Y-28.805 E801.52823
G1 X-25.183 Y-28.805 E801.57505
G1 X-35.306 Y-18.683 E802.32614
G1 X-35.306 Y-17.790 E802.37296
G1 X-24.291 Y-28.805 E803.19027
G1 X-23.398 Y-28.805 E803.23710
G1 X-35.306 Y-16.898 E804.12062
G1 X-35.306 Y-16.006 E804.16744
G1 X-22.506 Y-28.805 E805.11718
G1 X-21.614 Y-28.805 E805.16400
G1 X-35.306 Y-15.113 E806.17995
G1 X-35.306 Y-14.221 E806.22677
G1 X-20.721 Y-28.805 E807.30894
G1 X-19.829 Y-28.805 E807.35576
G1 X-35.306 Y-13.328 E808.50414
G1 X-35.306 Y-12.436 E808.55096
G1 X-18.937 Y-28.805 E809.76556
G1 X-18.044 Y-28.805 E809.81238
G1 X-35.306 Y-11.544 E811.09319
G1 X-35.306 Y-10.651 E811.14001
G1 X-17.152 Y-28.805 E812.48704
G1 X-16.259 Y-28.805 E812.53386
G1 X-35.306 Y-9.759 E813.94710
G1 X-35.306 Y-8.867 E813.99392
G1 X-15.367 Y-28.805 E815.47337
G1 X-14.475 Y-28.805 E815.52019
G1 X-35.306 Y-7.974 E817.06586
G1 X-35.306 Y-7.082 E817.11268
G1 X-13.582 Y-28.805 E818.72456
G1 X-12.690 Y-28.805 E818.77138
G1 X-35.306 Y-6.190 E820.44948
G1 X-35.306 Y-5.297 E820.49630
G1 X-11.798 Y-28.805 E822.24061
G1 X-10.905 Y-28.805 E822.28743
G1 X-35.306 Y-4.405 E824.09796
G1 X-35.306 Y-3.512 E824.14478
G1 X-10.013 Y-28.805 E826.02152
G1 X-9.121 Y-28.805 E826.06834
G1 X-35.306 Y-2.620 E828.01129
G1 X-35.306 Y-1.728 E828.05811
G1 X-8.228 Y-28.805 E830.06728
G1 X-7.336 Y-28.805 E830.11410
G1 X-35.306 Y-0.835 E832.18948
G1 X-35.306 Y0.057 E832.23630
G1 X-6.443 Y-28.805 E834.37790
G1 X-5.551 Y-28.805 E834.42472
G1 X-35.306 Y0.949 E836.63253
G1 X-35.306 Y1.842 E836.67935
G1 X-4.659 Y-28.805 E838.95338
G1 X-3.766 Y-28.805 E839.00020
G1 X-35.306 Y2.734 E841.34044
G1 X-35.306 Y3.627 E841.38726
G1 X-2.874 Y-28.805 E843.79371
G1 X-1.982 Y-28.805 E843.84053
G1 X-35.306 Y4.519 E846.31320
G1 X-35.306 Y5.411 E846.36002
G1 X-1.089 Y-28.805 E848.89890
G1 X-0.197 Y-28.805 E848.94572
G1 X-35.306 Y6.304 E851.55082
G1 X-35.306 Y7.196 E851.59764
G1 X0.696 Y-28.805 E854.26895
G1 X1.588 Y-28.805 E854.31577
G1 X-35.306 Y8.088 E857.05330
G1 X-35.306 Y8.981 E857.10012
G1 X2.480 Y-28.805 E859.90386
G1 X3.373 Y-28.805 E859.95068
G1 X-35.306 Y9.873 E862.82063
G1 X-35.306 Y10.765 E862.86745
G1 X4.265 Y-28.805 E865.80362
G1 X5.157 Y-28.805 E865.85044
G1 X-35.306 Y11.658 E868.85282
G1 X-35.306 Y12.550 E868.89964
G1 X6.050 Y-28.805 E871.96824
G1 X6.942 Y-28.805 E872.01506
G1 X-35.306 Y13.443 E875.14987
G1 X-35.306 Y14.335 E875.19669
G1 X7.834 Y-28.805 E878.39772
G1 X8.727 Y-28.805 E878.44454
G1 X-35.306 Y15.227 E881.71178
G1 X-35.306 Y16.120 E881.75860
G1 X9.619 Y-28.805 E885.09205
G1 X10.512 Y-28.805 E885.13887
G1 X-35.306 Y17.012 E888.53854
G1 X-35.306 Y17.904 E888.58536
G1 X11.404 Y-28.805 E892.05125
G1 X12.296 Y-28.805 E892.09807
G1 X-35.306 Y18.797 E895.63016
G1 X-35.306 Y19.689 E895.67698
G1 X13.189 Y-28.805 E899.27530
G1 X14.081 Y-28.805 E899.32212
G1 X-35.306 Y20.582 E902.98664
G1 X-35.306 Y21.474 E903.03346
G1 X14.973 Y-28.805 E906.76420
G1 X15.866 Y-28.805 E906.81102
G1 X-35.306 Y22.366 E910.60798
G1 X-35.306 Y23.259 E910.65480
G1 X16.758 Y-28.805 E914.51797
G1 X17.650 Y-28.805 E914.56479
G1 X-35.306 Y24.151 E918.49417
G1 X-35.306 Y25.043 E918.54099
G1 X18.543 Y-28.805 E922.53659
G1 X19.435 Y-28.805 E922.58341
G1 X-35.306 Y25.936 E926.64522
G1 X-35.306 Y26.828 E926.69204
G1 X20.328 Y-28.805 E930.82006
G1 X21.220 Y-28.805 E930.86689
G1 X-35.306 Y27.720 E935.06113
G1 X-35.306 Y28.613 E935.10795
G1 X22.112 Y-28.805 E939.36840
G1 X23.005 Y-28.805 E939.41522
G1 X-34.606 Y28.805 E943.68995
G1 X-33.713 Y28.805 E943.73677
G1 X23.897 Y-28.805 E948.01149
G1 X24.789 Y-28.805 E948.05831
G1 X-32.821 Y28.805 E952.33304
G1 X-31.929 Y28.805 E952.37986
G1 X25.682 Y-28.805 E956.65458
G1 X26.574 Y-28.805 E956.70140
G1 X-31.036 Y28.805 E960.97613
G1 X-30.144 Y28.805 E961.02295
G1 X27.467 Y-28.805 E965.29767
G1 X28.359 Y-28.805 E965.34449
G1 X-29.251 Y28.805 E969.61922
G1 X-28.359 Y28.805 E969.66604
G1 X29.251 Y-28.805 E973.94076
G1 X30.144 Y-28.805 E973.98758
G1 X-27.467 Y28.805 E978.26231
G1 X-26.574 Y28.805 E978.30913
G1 X31.036 Y-28.805 E982.58385
G1 X31.928 Y-28.805 E982.63067
G1 X-25.682 Y28.805 E986.90540
G1 X-24.790 Y28.805 E986.95222
G1 X32.821 Y-28.805 E991.22694
G1 X33.713 Y-28.805 E991.27376
G1 X-23.897 Y28.805 E995.54849
G1 X-23.005 Y28.805 E995.59531
G1 X34.605 Y-28.805 E999.87003
